;Generated by Cura LulzBot Edition GCodeWriter Version: 3.2.27
;FLAVOR:Marlin
;TIME:2806
;Filament used: 1.77947m
;Layer height: 0.25
;Generated with Cura_SteamEngine 3.2.27
M82 ;absolute extrusion mode
;This G-Code has been generated specifically for the LulzBot TAZ 6 with standard extruder
M75 ; start GLCD timer
G26 ; clear potential 'probe fail' condition
G21 ; set units to Millimetres
M107 ; disable fans
M420 S0 ; disable previous leveling matrix
G90 ; absolute positioning
M82 ; set extruder to absolute mode
G92 E0 ; set extruder position to 0
M140 S105 ; start bed heating up
M109 R170 ; soften filament before homing Z
G28 ; Home all axis
G1 E-30 F100 ; retract filament
M109 R170 ; wait for extruder to reach wiping temp
G1 X-15 Y100 F3000 ; move above wiper pad
G1 Z1 ; push nozzle into wiper
G1 X-17 Y95 F1000 ; slow wipe
G1 X-17 Y90 F1000 ; slow wipe
G1 X-17 Y85 F1000 ; slow wipe
G1 X-15 Y90 F1000 ; slow wipe
G1 X-17 Y80 F1000 ; slow wipe
G1 X-15 Y95 F1000 ; slow wipe
G1 X-17 Y75 F2000 ; fast wipe
G1 X-15 Y65 F2000 ; fast wipe
G1 X-17 Y70 F2000 ; fast wipe
G1 X-15 Y60 F2000 ; fast wipe
G1 X-17 Y55 F2000 ; fast wipe
G1 X-15 Y50 F2000 ; fast wipe
G1 X-17 Y40 F2000 ; fast wipe
G1 X-15 Y45 F2000 ; fast wipe
G1 X-17 Y35 F2000 ; fast wipe
G1 X-15 Y40 F2000 ; fast wipe
G1 X-17 Y70 F2000 ; fast wipe
G1 X-15 Y30 Z2 F2000 ; fast wipe
G1 X-17 Y35 F2000 ; fast wipe
G1 X-15 Y25 F2000 ; fast wipe
G1 X-17 Y30 F2000 ; fast wipe
G1 X-15 Y25 Z1.5 F1000 ; slow wipe
G1 X-17 Y23 F1000 ; slow wipe
G1 Z10 ; raise extruder
M109 R170 ; wait for extruder to reach probe temp
G1 X-9 Y-9 ; move above first probe point
M204 S100 ; set probing acceleration
G29 ; start auto-leveling sequence
M420 S1 ; activate bed level matrix
M425 Z			     ; use measured Z backlash for compensation
M425 Z F0		     ; turn off measured Z backlash compensation. (if activated in the quality settings, this command will automatically be ignored)
M204 S500 ; restore standard acceleration
G1 X0 Y0 Z15 F5000 ; move up off last probe point
G4 S1 ; pause
M400 ; wait for moves to finish
M117 Heating... ; progress indicator message on LCD
M109 R245 ; wait for extruder to reach printing temp
M190 S105 ; wait for bed to reach printing temp
G1 Z2 E0 F75 ; prime tiny bit of filament into the nozzle
M117 TAZ 6 Printing... ; progress indicator message on LCD

M221 S100
;LAYER_COUNT:13
;LAYER:0
M107
G0 F1750 X87.296 Y115.156 Z0.4
;TYPE:SKIRT
G1 F600 X87.731 Y114.89 E0.01492
G1 X88.201 Y114.694 E0.02983
G1 X88.696 Y114.575 E0.04473
G1 X89.209 Y114.534 E0.05979
G1 X190.791 Y114.535 E3.03286
G1 X191.299 Y114.575 E3.04777
G1 X191.794 Y114.694 E3.06267
G1 X192.265 Y114.889 E3.07759
G1 X192.7 Y115.155 E3.09251
G1 X193.087 Y115.485 E3.1074
G1 X193.419 Y115.872 E3.12232
G1 X193.685 Y116.307 E3.13725
G1 X193.881 Y116.777 E3.15215
G1 X194 Y117.272 E3.16705
G1 X194.041 Y117.785 E3.18211
G1 X194.041 Y162.216 E4.4825
G1 X194.001 Y162.724 E4.49742
G1 X193.882 Y163.219 E4.51232
G1 X193.687 Y163.69 E4.52724
G1 X193.421 Y164.125 E4.54216
G1 X193.091 Y164.512 E4.55705
G1 X192.704 Y164.844 E4.57197
G1 X192.269 Y165.11 E4.58689
G1 X191.799 Y165.306 E4.6018
G1 X191.304 Y165.425 E4.6167
G1 X190.791 Y165.466 E4.63176
G1 X89.209 Y165.466 E7.60483
G1 X88.701 Y165.426 E7.61974
G1 X88.206 Y165.307 E7.63464
G1 X87.735 Y165.112 E7.64956
G1 X87.3 Y164.846 E7.66448
G1 X86.913 Y164.516 E7.67937
G1 X86.581 Y164.129 E7.69429
G1 X86.315 Y163.694 E7.70922
G1 X86.119 Y163.224 E7.72412
G1 X86 Y162.729 E7.73902
G1 X85.959 Y162.216 E7.75408
G1 X85.959 Y117.784 E9.0545
G1 X85.999 Y117.276 E9.06942
G1 X86.118 Y116.781 E9.08432
G1 X86.313 Y116.31 E9.09924
G1 X86.579 Y115.875 E9.11416
G1 X86.909 Y115.488 E9.12905
G1 X87.296 Y115.156 E9.14397
G1 F600 E8.14397
G0 F1750 X89.964 Y117.11
G0 X89.964 Y118.539
G0 X111.792 Y138.918
G0 X112.614 Y139.549
G0 X113.573 Y139.946
G0 X114.404 Y140.054
G0 X115.643 Y140.004
G0 X115.618 Y139.908
;TYPE:WALL-INNER
G1 F600 E9.14397
G1 X116.565 Y139.515 E9.17398
G1 X117.379 Y138.89 E9.20401
G1 X118.005 Y138.076 E9.23407
G1 X118.398 Y137.127 E9.26413
G1 X118.531 Y136.11 E9.29415
G1 X118.398 Y135.094 E9.32414
G1 X118.005 Y134.145 E9.3542
G1 X117.379 Y133.33 E9.38428
G1 X116.565 Y132.706 E9.4143
G1 X115.618 Y132.313 E9.44431
G1 X114.6 Y132.179 E9.47436
G1 X113.582 Y132.313 E9.50441
G1 X112.634 Y132.706 E9.53444
G1 X111.82 Y133.33 E9.56446
G1 X111.195 Y134.145 E9.59452
G1 X110.802 Y135.094 E9.62459
G1 X110.669 Y136.11 E9.65457
G1 X110.802 Y137.127 E9.68459
G1 X111.195 Y138.076 E9.71466
G1 X111.82 Y138.89 E9.74469
G1 X112.634 Y139.515 E9.77473
G1 X113.583 Y139.908 E9.80479
G1 X114.6 Y140.041 E9.83481
G1 X115.618 Y139.908 E9.86486
G0 F1750 X115.643 Y140.004
G0 X136.85 Y129.697
G0 X138.616 Y129.1
G0 X140.476 Y128.981
G0 X142.306 Y129.347
G0 X143.81 Y130.092
G0 X145.425 Y131.367
G0 X145.35 Y131.432
G1 F600 X143.956 Y130.208 E9.91915
G1 X142.294 Y129.384 E9.97344
G1 X140.474 Y129.02 E10.02777
G1 X138.623 Y129.139 E10.08205
G1 X136.867 Y129.732 E10.1363
G1 X135.322 Y130.76 E10.19061
G1 X134.097 Y132.154 E10.24493
G1 X133.274 Y133.817 E10.29923
G1 X132.909 Y135.635 E10.3535
G1 X133.028 Y137.487 E10.40782
G1 X133.622 Y139.244 E10.4621
G1 X134.65 Y140.788 E10.51639
G1 X136.044 Y142.013 E10.5707
G1 X137.706 Y142.837 E10.625
G1 X139.526 Y143.201 E10.67932
G1 X141.377 Y143.082 E10.73361
G1 X143.133 Y142.489 E10.78785
G1 X144.678 Y141.461 E10.84216
G1 X145.903 Y140.067 E10.89648
G1 X146.726 Y138.404 E10.95078
G1 X147.091 Y136.586 E11.00505
G1 X146.972 Y134.733 E11.0594
G1 X146.378 Y132.977 E11.11365
G1 X145.35 Y131.432 E11.16797
G0 F1750 X145.425 Y131.367
G0 X164.357 Y140.004
G0 X164.382 Y139.908
G1 F600 X165.4 Y140.041 E11.19802
G1 X166.417 Y139.908 E11.22803
G1 X167.366 Y139.515 E11.2581
G1 X168.18 Y138.89 E11.28813
G1 X168.805 Y138.076 E11.31817
G1 X169.198 Y137.127 E11.34823
G1 X169.331 Y136.11 E11.37825
G1 X169.198 Y135.094 E11.40824
G1 X168.805 Y134.145 E11.4383
G1 X168.18 Y133.33 E11.46836
G1 X167.366 Y132.706 E11.49838
G1 X166.418 Y132.313 E11.52842
G1 X165.4 Y132.179 E11.55847
G1 X164.382 Y132.313 E11.58852
G1 X163.435 Y132.706 E11.61853
G1 X162.621 Y133.33 E11.64855
G1 X161.995 Y134.145 E11.67862
G1 X161.602 Y135.094 E11.70869
G1 X161.469 Y136.11 E11.73868
G1 X161.602 Y137.127 E11.76869
G1 X161.995 Y138.076 E11.79876
G1 X162.621 Y138.89 E11.82881
G1 X163.435 Y139.515 E11.85885
G1 X164.382 Y139.908 E11.88886
G0 F1750 X164.357 Y140.004
G0 X189.98 Y161.405
G0 X190.05 Y161.475
G1 F600 X89.95 Y161.475 E14.81855
G1 X89.95 Y118.525 E16.07559
G1 X190.05 Y118.525 E19.00529
G1 X190.05 Y161.475 E20.26233
G0 F1750 X190.55 Y161.975
;TYPE:WALL-OUTER
G1 F600 X89.45 Y161.975 E23.22129
G1 X89.45 Y118.025 E24.50761
G1 X190.55 Y118.025 E27.46657
G1 X190.55 Y161.975 E28.75288
G0 F1750 X190.3 Y161.975
G0 X189.98 Y161.405
G0 X164.435 Y140.015
G0 X164.513 Y139.421
G1 F600 X165.4 Y139.537 E28.77906
G1 X166.287 Y139.421 E28.80525
G1 X167.114 Y139.078 E28.83145
G1 X167.823 Y138.533 E28.85762
G1 X168.368 Y137.824 E28.88379
G1 X168.711 Y136.997 E28.91
G1 X168.827 Y136.11 E28.93618
G1 X168.711 Y135.224 E28.96233
G1 X168.368 Y134.397 E28.98854
G1 X167.823 Y133.687 E29.01473
G1 X167.114 Y133.143 E29.04089
G1 X166.287 Y132.8 E29.06709
G1 X165.4 Y132.683 E29.09328
G1 X164.513 Y132.8 E29.11946
G1 X163.687 Y133.143 E29.14564
G1 X162.977 Y133.687 E29.17182
G1 X162.432 Y134.397 E29.19801
G1 X162.089 Y135.224 E29.22422
G1 X161.973 Y136.11 E29.25037
G1 X162.089 Y136.997 E29.27655
G1 X162.432 Y137.824 E29.30275
G1 X162.977 Y138.533 E29.32893
G1 X163.687 Y139.078 E29.35512
G1 X164.513 Y139.421 E29.3813
G0 F1750 X164.761 Y139.453
G0 X164.684 Y140.048
G0 X141.384 Y143.121
G0 X139.524 Y143.24
G0 X137.751 Y142.947
G0 X137.869 Y142.36
G1 F600 X139.559 Y142.698 E29.43174
G1 X141.279 Y142.587 E29.48219
G1 X142.911 Y142.036 E29.5326
G1 X144.346 Y141.081 E29.58305
G1 X145.484 Y139.786 E29.63351
G1 X146.249 Y138.241 E29.68396
G1 X146.588 Y136.552 E29.73438
G1 X146.477 Y134.831 E29.78486
G1 X145.925 Y133.199 E29.83528
G1 X144.97 Y131.764 E29.88573
G1 X143.675 Y130.627 E29.93617
G1 X142.131 Y129.861 E29.98661
G1 X140.441 Y129.523 E30.03705
G1 X138.721 Y129.634 E30.0875
G1 X137.089 Y130.185 E30.13791
G1 X135.654 Y131.14 E30.18836
G1 X134.516 Y132.435 E30.23882
G1 X133.751 Y133.98 E30.28928
G1 X133.412 Y135.669 E30.3397
G1 X133.523 Y137.389 E30.39014
G1 X134.075 Y139.022 E30.44059
G1 X135.03 Y140.456 E30.49102
G1 X136.325 Y141.594 E30.54147
G1 X137.869 Y142.36 E30.59192
G0 F1750 X138.114 Y142.409
G0 X137.996 Y142.996
G0 X115.564 Y140.016
G0 X115.487 Y139.421
G1 F600 X116.313 Y139.078 E30.6181
G1 X117.023 Y138.533 E30.64429
G1 X117.568 Y137.824 E30.67046
G1 X117.911 Y136.997 E30.69667
G1 X118.027 Y136.11 E30.72285
G1 X117.911 Y135.224 E30.749
G1 X117.568 Y134.397 E30.77521
G1 X117.023 Y133.687 E30.8014
G1 X116.313 Y133.143 E30.82758
G1 X115.487 Y132.8 E30.85376
G1 X114.6 Y132.683 E30.87994
G1 X113.713 Y132.8 E30.90613
G1 X112.886 Y133.143 E30.93233
G1 X112.177 Y133.687 E30.95849
G1 X111.632 Y134.397 E30.98468
G1 X111.289 Y135.224 E31.01089
G1 X111.173 Y136.11 E31.03704
G1 X111.289 Y136.997 E31.06322
G1 X111.632 Y137.824 E31.08942
G1 X112.177 Y138.533 E31.1156
G1 X112.886 Y139.078 E31.14177
G1 X113.713 Y139.421 E31.16797
G1 X114.6 Y139.537 E31.19415
G1 X115.487 Y139.421 E31.22034
G0 F1750 X115.717 Y139.326
G0 X115.946 Y139.88
G0 X115.746 Y140.386
;TYPE:SKIN
G1 F600 X116.812 Y139.943 E31.25412
G1 X117.728 Y139.239 E31.28793
G1 X118.433 Y138.323 E31.32176
G1 X118.876 Y137.255 E31.3556
G1 X119.025 Y136.11 E31.3894
G1 X118.876 Y134.966 E31.42316
G1 X118.433 Y133.898 E31.457
G1 X117.728 Y132.981 E31.49086
G1 X116.812 Y132.278 E31.52465
G1 X115.746 Y131.835 E31.55844
G1 X114.6 Y131.685 E31.59226
G1 X113.454 Y131.835 E31.62609
G1 X112.387 Y132.278 E31.6599
G1 X111.471 Y132.981 E31.6937
G1 X110.767 Y133.898 E31.72753
G1 X110.324 Y134.966 E31.76137
G1 X110.175 Y136.11 E31.79514
G1 X110.324 Y137.255 E31.82893
G1 X110.767 Y138.323 E31.86277
G1 X111.471 Y139.239 E31.89659
G1 X112.387 Y139.943 E31.9304
G1 X113.455 Y140.386 E31.96424
G1 X114.6 Y140.535 E31.99803
G1 X115.746 Y140.386 E32.03186
G0 F1750 X132.544 Y137.583
G1 F600 X133.179 Y139.462 E32.08991
G1 X134.278 Y141.113 E32.14795
G1 X135.769 Y142.423 E32.20604
G1 X137.547 Y143.305 E32.26413
G1 X139.493 Y143.695 E32.32222
G1 X141.473 Y143.566 E32.38029
G1 X143.351 Y142.932 E32.4383
G1 X145.003 Y141.833 E32.49637
G1 X146.313 Y140.342 E32.55446
G1 X147.194 Y138.563 E32.61257
G1 X147.585 Y136.619 E32.6706
G1 X147.456 Y134.637 E32.72873
G1 X146.821 Y132.759 E32.78675
G1 X145.722 Y131.107 E32.84483
G1 X144.231 Y129.798 E32.9029
G1 X142.453 Y128.916 E32.96098
G1 X140.507 Y128.526 E33.01907
G1 X138.527 Y128.655 E33.07714
G1 X136.649 Y129.289 E33.13516
G1 X134.997 Y130.388 E33.19323
G1 X133.687 Y131.879 E33.25132
G1 X132.806 Y133.658 E33.30942
G1 X132.415 Y135.602 E33.36745
G1 X132.544 Y137.583 E33.42556
G0 F1750 X134.62 Y140.814
G0 X136.022 Y142.046
G0 X137.694 Y142.874
G0 X139.524 Y143.24
G0 X141.384 Y143.121
G0 X160.975 Y136.11
G1 F600 X161.124 Y137.255 E33.45935
G1 X161.567 Y138.323 E33.49319
G1 X162.272 Y139.239 E33.52702
G1 X163.188 Y139.943 E33.56083
G1 X164.254 Y140.386 E33.59462
G1 X165.4 Y140.535 E33.62844
G1 X166.545 Y140.386 E33.66224
G1 X167.613 Y139.943 E33.69608
G1 X168.529 Y139.239 E33.72989
G1 X169.233 Y138.323 E33.7637
G1 X169.676 Y137.255 E33.79754
G1 X169.825 Y136.11 E33.83134
G1 X169.676 Y134.966 E33.8651
G1 X169.233 Y133.898 E33.89894
G1 X168.529 Y132.981 E33.93278
G1 X167.613 Y132.278 E33.96657
G1 X166.546 Y131.835 E34.00038
G1 X165.4 Y131.685 E34.03421
G1 X164.254 Y131.835 E34.06804
G1 X163.188 Y132.278 E34.10182
G1 X162.272 Y132.981 E34.13562
G1 X161.567 Y133.898 E34.16947
G1 X161.124 Y134.966 E34.20331
G1 X160.975 Y136.11 E34.23708
G0 F1750 X142.306 Y129.347
G0 X90.44 Y119.015
G1 F600 X189.56 Y119.015 E37.13809
G1 X189.56 Y160.985 E38.36645
G1 X90.44 Y160.985 E41.26746
G1 X90.44 Y119.015 E42.49583
G0 F1750 X90.755 Y160.759
G0 X90.71 Y160.713
G1 F600 X91.063 Y160.36 E42.51415
G1 X91.55 Y160.847
G0 F1750 X92.169 Y160.759
G1 F600 X90.665 Y159.254 E42.57642
G1 X90.577 Y159.166
G0 F1750 X90.665 Y158.547
G1 F600 X92.877 Y160.759 E42.66798
G1 X92.965 Y160.847
G0 F1750 X93.584 Y160.759
G1 F600 X90.665 Y157.84 E42.7888
G1 X90.577 Y157.752
G0 F1750 X90.665 Y157.133
G1 F600 X94.291 Y160.759 E42.93888
G1 X94.379 Y160.847
G0 F1750 X94.998 Y160.759
G1 F600 X90.665 Y156.426 E43.11823
G1 X90.577 Y156.338
G0 F1750 X90.665 Y155.719
G1 F600 X95.705 Y160.759 E43.32683
G1 X95.793 Y160.847
G0 F1750 X96.412 Y160.759
G1 F600 X90.665 Y155.011 E43.56473
G1 X90.577 Y154.923
G0 F1750 X90.665 Y154.304
G1 F600 X97.119 Y160.759 E43.83188
G1 X97.207 Y160.847
G0 F1750 X97.826 Y160.759
G1 F600 X90.665 Y153.597 E44.1283
G1 X90.577 Y153.509
G0 F1750 X90.665 Y152.89
G1 F600 X98.533 Y160.759 E44.45399
G1 X98.621 Y160.847
G0 F1750 X99.241 Y160.759
G1 F600 X90.665 Y152.183 E44.80895
G1 X90.577 Y152.095
G0 F1750 X90.665 Y151.476
G1 F600 X99.948 Y160.759 E45.19318
G1 X100.036 Y160.847
G0 F1750 X100.655 Y160.759
G1 F600 X90.665 Y150.769 E45.60668
G1 X90.577 Y150.681
G0 F1750 X90.665 Y150.062
G1 F600 X101.362 Y160.759 E46.04943
G1 X101.45 Y160.847
G0 F1750 X102.069 Y160.759
G1 F600 X90.665 Y149.355 E46.52145
G1 X90.577 Y149.267
G0 F1750 X90.665 Y148.647
G1 F600 X102.776 Y160.759 E47.02276
G1 X102.864 Y160.847
G0 F1750 X103.483 Y160.759
G1 F600 X90.665 Y147.94 E47.55332
G1 X90.577 Y147.852
G0 F1750 X90.665 Y147.233
G1 F600 X104.19 Y160.759 E48.11315
G1 X104.278 Y160.847
G0 F1750 X104.897 Y160.759
G1 F600 X90.665 Y146.526 E48.70225
G1 X90.577 Y146.438
G0 F1750 X90.665 Y145.819
G1 F600 X105.604 Y160.759 E49.3206
G1 X105.692 Y160.847
G0 F1750 X106.312 Y160.759
G1 F600 X90.665 Y145.112 E49.96825
G1 X90.577 Y145.024
G0 F1750 X90.665 Y144.405
G1 F600 X107.019 Y160.759 E50.64515
G1 X107.107 Y160.847
G0 F1750 X107.726 Y160.759
G1 F600 X90.665 Y143.698 E51.35132
G1 X90.577 Y143.61
G0 F1750 X90.665 Y142.991
G1 F600 X108.433 Y160.759 E52.08675
G1 X108.521 Y160.847
G0 F1750 X109.14 Y160.759
G1 F600 X90.665 Y142.284 E52.85144
G1 X90.577 Y142.196
G0 F1750 X90.665 Y141.576
G1 F600 X109.847 Y160.759 E53.64542
G1 X109.935 Y160.847
G0 F1750 X110.554 Y160.759
G1 F600 X90.665 Y140.869 E54.46866
G1 X90.577 Y140.781
G0 F1750 X90.665 Y140.162
G1 F600 X111.261 Y160.759 E55.32116
G1 X111.349 Y160.847
G0 F1750 X111.968 Y160.759
G1 F600 X90.665 Y139.455 E56.20293
G1 X90.577 Y139.367
G0 F1750 X90.665 Y138.748
G1 F600 X112.676 Y160.759 E57.11398
G1 X112.764 Y160.847
G0 F1750 X113.383 Y160.759
G1 F600 X90.665 Y138.041 E58.0543
G1 X90.577 Y137.953
G0 F1750 X90.665 Y137.334
G1 F600 X114.09 Y160.759 E59.02387
G1 X114.178 Y160.847
G0 F1750 X114.797 Y160.759
G1 F600 X90.665 Y136.627 E60.02271
G1 X90.577 Y136.539
G0 F1750 X90.665 Y135.92
G1 F600 X115.504 Y160.759 E61.05082
G1 X115.592 Y160.847
G0 F1750 X116.211 Y160.759
G1 F600 X90.665 Y135.212 E62.10821
G1 X90.577 Y135.124
G0 F1750 X90.665 Y134.505
G1 F600 X116.918 Y160.759 E63.19486
G1 X117.006 Y160.847
G0 F1750 X117.625 Y160.759
G1 F600 X90.665 Y133.798 E64.31077
G1 X90.577 Y133.71
G0 F1750 X90.665 Y133.091
G1 F600 X118.332 Y160.759 E65.45595
G1 X118.42 Y160.847
G0 F1750 X119.04 Y160.759
G1 F600 X90.665 Y132.384 E66.63041
G1 X90.577 Y132.296
G0 F1750 X90.665 Y131.677
G1 F600 X119.747 Y160.759 E67.83414
G1 X119.835 Y160.847
G0 F1750 X120.454 Y160.759
G1 F600 X90.665 Y130.97 E69.06713
G1 X90.577 Y130.882
G0 F1750 X90.665 Y130.263
G1 F600 X121.161 Y160.759 E70.32938
G1 X121.249 Y160.847
G0 F1750 X121.868 Y160.759
G1 F600 X90.665 Y129.556 E71.62089
G1 X90.577 Y129.468
G0 F1750 X90.665 Y128.848
G1 F600 X122.575 Y160.759 E72.94169
G1 X122.663 Y160.847
G0 F1750 X123.282 Y160.759
G1 F600 X90.665 Y128.141 E74.29175
G1 X90.577 Y128.053
G0 F1750 X90.665 Y127.434
G1 F600 X123.989 Y160.759 E75.67108
G1 X124.077 Y160.847
G0 F1750 X124.696 Y160.759
G1 F600 X90.665 Y126.727 E77.07967
G1 X90.577 Y126.639
G0 F1750 X90.665 Y126.02
G1 F600 X125.403 Y160.759 E78.51752
G1 X125.491 Y160.847
G0 F1750 X126.111 Y160.759
G1 F600 X90.665 Y125.313 E79.98465
G1 X90.577 Y125.225
G0 F1750 X90.665 Y124.606
