;Generated by Cura LulzBot Edition GCodeWriter Version: 3.2.27
;FLAVOR:Marlin
;TIME:10807
;Filament used: 1.9253m
;Layer height: 0.25
;Generated with Cura_SteamEngine 3.2.27
M82 ;absolute extrusion mode
;This G-Code has been generated specifically for the LulzBot TAZ 6 with standard extruder
M75 ; start GLCD timer
G26 ; clear potential 'probe fail' condition
G21 ; set units to Millimetres
M107 ; disable fans
M420 S0 ; disable previous leveling matrix
G90 ; absolute positioning
M82 ; set extruder to absolute mode
G92 E0 ; set extruder position to 0
M140 S105 ; start bed heating up
M109 R170 ; soften filament before homing Z
G28 ; Home all axis
G1 E-30 F100 ; retract filament
M109 R170 ; wait for extruder to reach wiping temp
G1 X-15 Y100 F3000 ; move above wiper pad
G1 Z1 ; push nozzle into wiper
G1 X-17 Y95 F1000 ; slow wipe
G1 X-17 Y90 F1000 ; slow wipe
G1 X-17 Y85 F1000 ; slow wipe
G1 X-15 Y90 F1000 ; slow wipe
G1 X-17 Y80 F1000 ; slow wipe
G1 X-15 Y95 F1000 ; slow wipe
G1 X-17 Y75 F2000 ; fast wipe
G1 X-15 Y65 F2000 ; fast wipe
G1 X-17 Y70 F2000 ; fast wipe
G1 X-15 Y60 F2000 ; fast wipe
G1 X-17 Y55 F2000 ; fast wipe
G1 X-15 Y50 F2000 ; fast wipe
G1 X-17 Y40 F2000 ; fast wipe
G1 X-15 Y45 F2000 ; fast wipe
G1 X-17 Y35 F2000 ; fast wipe
G1 X-15 Y40 F2000 ; fast wipe
G1 X-17 Y70 F2000 ; fast wipe
G1 X-15 Y30 Z2 F2000 ; fast wipe
G1 X-17 Y35 F2000 ; fast wipe
G1 X-15 Y25 F2000 ; fast wipe
G1 X-17 Y30 F2000 ; fast wipe
G1 X-15 Y25 Z1.5 F1000 ; slow wipe
G1 X-17 Y23 F1000 ; slow wipe
G1 Z10 ; raise extruder
M109 R170 ; wait for extruder to reach probe temp
G1 X-9 Y-9 ; move above first probe point
M204 S100 ; set probing acceleration
G29 ; start auto-leveling sequence
M420 S1 ; activate bed level matrix
M425 Z			     ; use measured Z backlash for compensation
M425 Z F0		     ; turn off measured Z backlash compensation. (if activated in the quality settings, this command will automatically be ignored)
M204 S500 ; restore standard acceleration
G1 X0 Y0 Z15 F5000 ; move up off last probe point
G4 S1 ; pause
M400 ; wait for moves to finish
M117 Heating... ; progress indicator message on LCD
M109 R245 ; wait for extruder to reach printing temp
M190 S105 ; wait for bed to reach printing temp
G1 Z2 E0 F75 ; prime tiny bit of filament into the nozzle
M117 TAZ 6 Printing... ; progress indicator message on LCD

M221 S100
;LAYER_COUNT:279
;LAYER:0
M107
G0 F1750 X112.61 Y112.901 Z0.4
;TYPE:SKIRT
G1 F600 X113.004 Y112.521 E0.01602
G1 X113.449 Y112.202 E0.03205
G1 X113.936 Y111.952 E0.04807
G1 X114.454 Y111.775 E0.06409
G1 X114.992 Y111.676 E0.0801
G1 X115.403 Y111.653 E0.09215
G1 X164.597 Y111.654 E1.53194
G1 X165.143 Y111.694 E1.54796
G1 X165.677 Y111.813 E1.56398
G1 X166.188 Y112.008 E1.57998
G1 X166.666 Y112.276 E1.59602
G1 X167.099 Y112.611 E1.61204
G1 X167.479 Y113.005 E1.62807
G1 X167.798 Y113.45 E1.64409
G1 X168.048 Y113.937 E1.66011
G1 X168.225 Y114.455 E1.67613
G1 X168.324 Y114.993 E1.69214
G1 X168.347 Y115.404 E1.70419
G1 X168.347 Y164.597 E3.14396
G1 X168.307 Y165.143 E3.15998
G1 X168.188 Y165.677 E3.17599
G1 X167.993 Y166.188 E3.192
G1 X167.725 Y166.666 E3.20804
G1 X167.39 Y167.099 E3.22406
G1 X166.996 Y167.479 E3.24008
G1 X166.551 Y167.798 E3.25611
G1 X166.064 Y168.048 E3.27213
G1 X165.546 Y168.225 E3.28815
G1 X165.008 Y168.324 E3.30416
G1 X164.597 Y168.347 E3.31621
G1 X115.403 Y168.347 E4.756
G1 X114.857 Y168.307 E4.77202
G1 X114.323 Y168.188 E4.78804
G1 X113.812 Y167.993 E4.80404
G1 X113.334 Y167.725 E4.82008
G1 X112.901 Y167.39 E4.83611
G1 X112.521 Y166.996 E4.85213
G1 X112.202 Y166.551 E4.86815
G1 X111.952 Y166.064 E4.88417
G1 X111.775 Y165.546 E4.90019
G1 X111.676 Y165.008 E4.9162
G1 X111.653 Y164.597 E4.92825
G1 X111.653 Y115.403 E6.36805
G1 X111.693 Y114.857 E6.38407
G1 X111.812 Y114.323 E6.40008
G1 X112.007 Y113.812 E6.41609
G1 X112.275 Y113.334 E6.43213
G1 X112.61 Y112.901 E6.44815
G0 F1750 X113.103 Y113.107
G1 F600 X113.49 Y112.775 E6.46307
G1 X113.925 Y112.509 E6.478
G1 X114.395 Y112.313 E6.4929
G1 X114.89 Y112.194 E6.5078
G1 X115.403 Y112.153 E6.52286
G1 X164.597 Y112.154 E7.96266
G1 X165.105 Y112.194 E7.97757
G1 X165.6 Y112.313 E7.99247
G1 X166.071 Y112.508 E8.00739
G1 X166.506 Y112.774 E8.02231
G1 X166.893 Y113.104 E8.0372
G1 X167.225 Y113.491 E8.05212
G1 X167.491 Y113.926 E8.06705
G1 X167.687 Y114.396 E8.08195
G1 X167.806 Y114.891 E8.09685
G1 X167.847 Y115.404 E8.11191
G1 X167.847 Y164.597 E9.55168
G1 X167.807 Y165.105 E9.56659
G1 X167.688 Y165.6 E9.58149
G1 X167.493 Y166.071 E9.59641
G1 X167.227 Y166.506 E9.61133
G1 X166.897 Y166.893 E9.62622
G1 X166.51 Y167.225 E9.64114
G1 X166.075 Y167.491 E9.65607
G1 X165.605 Y167.687 E9.67097
G1 X165.11 Y167.806 E9.68587
G1 X164.597 Y167.847 E9.70093
G1 X115.403 Y167.847 E11.14073
G1 X114.895 Y167.807 E11.15564
G1 X114.4 Y167.688 E11.17054
G1 X113.929 Y167.493 E11.18546
G1 X113.494 Y167.227 E11.20038
G1 X113.107 Y166.897 E11.21527
G1 X112.775 Y166.51 E11.23019
G1 X112.509 Y166.075 E11.24511
G1 X112.313 Y165.605 E11.26002
G1 X112.194 Y165.11 E11.27492
G1 X112.153 Y164.597 E11.28998
G1 X112.153 Y115.403 E12.72977
G1 X112.193 Y114.895 E12.74469
G1 X112.312 Y114.4 E12.75959
G1 X112.507 Y113.929 E12.77451
G1 X112.773 Y113.494 E12.78943
G1 X113.103 Y113.107 E12.80432
G1 F600 E11.80432
G0 F1750 X114.767 Y116.054
G0 X114.788 Y116.092
G0 X126.354 Y136.571
G0 X126.375 Y136.61
G0 X133.985 Y150.082
;TYPE:SUPPORT
G1 F600 E12.80432
G1 X135.358 Y150.082 E12.8445
G1 X135.6 Y149.841 E12.8545
G1 X135.6 Y153.381 E12.9581
G1 X135.369 Y153.15 E12.96767
G1 X133.988 Y153.15 E13.00808
G1 X133.256 Y152.416 E13.03842
G1 X133.256 Y150.811 E13.0854
G1 X133.985 Y150.082 E13.11557
G0 F1750 X134.946 Y150.282
G1 F600 X134.946 Y152.95 E13.19366
G0 F1750 X135.4 Y151.606
G1 F600 X133.456 Y151.606 E13.25055
G1 F600 E12.25055
G0 F1750 X135.62 Y151.507
G0 X135.664 Y151.506
G0 X144.334 Y151.119
G0 X144.378 Y151.118
G0 X151.256 Y150.811
G1 F600 E13.25055
G1 X151.985 Y150.082 E13.28073
G1 X153.358 Y150.082 E13.32091
G1 X153.6 Y149.841 E13.33091
G1 X153.6 Y153.381 E13.43452
G1 X153.369 Y153.15 E13.44408
G1 X151.988 Y153.15 E13.4845
G1 X151.256 Y152.416 E13.51484
G1 X151.256 Y150.811 E13.56181
G0 F1750 X151.606 Y150.744
G1 F600 X151.606 Y152.483 E13.61271
G0 F1750 X151.456 Y151.606
G1 F600 X153.4 Y151.606 E13.6696
G0 F1750 X153.272 Y150.282
G1 F600 X153.272 Y152.95 E13.74769
G1 F600 E12.74769
G0 F1750 X153.585 Y152.95
G0 X155 Y152.95
G0 X163.786 Y163.786
G0 X163.856 Y163.856
;TYPE:WALL-INNER
G1 F600 E13.74769
G1 X116.144 Y163.856 E15.14411
G1 X116.144 Y116.144 E16.54053
G1 X163.856 Y116.144 E17.93695
G1 X163.856 Y163.856 E19.33336
G0 F1750 X163.786 Y163.786
G0 X142.972 Y154.894
G0 X142.93 Y124.503
G0 X143 Y124.573
G1 F600 X143 Y154.866 E20.21997
G1 X155 Y154.866 E20.57118
G1 X155 Y124.573 E21.45779
G1 X143 Y124.573 E21.809
G0 F1750 X142.93 Y124.503
G0 X124.93 Y124.503
G0 X125 Y124.573
G1 F600 X125 Y154.866 E22.6956
G1 X137 Y154.866 E23.04682
G1 X137 Y124.573 E23.93342
G1 X125 Y124.573 E24.28463
G0 F1750 X125.5 Y125.073
;TYPE:WALL-OUTER
G1 F600 X125.5 Y154.366 E25.14197
G1 X136.5 Y154.366 E25.46391
G1 X136.5 Y125.073 E26.32125
G1 X125.5 Y125.073 E26.6432
G0 F1750 X125.5 Y125.323
G0 X124.9 Y125.323
G0 X124.972 Y124.545
G0 X137.028 Y124.545
G0 X142.9 Y125.073
G0 X143.5 Y125.073
G1 F600 X143.5 Y154.366 E27.50053
G1 X154.5 Y154.366 E27.82248
G1 X154.5 Y125.073 E28.67982
G1 X143.5 Y125.073 E29.00176
G0 F1750 X143.5 Y125.323
G0 X142.9 Y125.323
G0 X142.972 Y124.545
G0 X155.028 Y124.545
G0 X163.786 Y163.786
G0 X164.356 Y164.356
G1 F600 X115.644 Y164.356 E30.42745
G1 X115.644 Y115.644 E31.85313
G1 X164.356 Y115.644 E33.27882
G1 X164.356 Y164.356 E34.70451
G0 F1750 X164.106 Y164.356
G0 X163.786 Y163.786
G0 X163.366 Y163.366
;TYPE:SKIN
G1 F600 X116.634 Y163.366 E36.07224
G1 X116.634 Y116.634 E37.43998
G1 X163.366 Y116.634 E38.80771
G1 X163.366 Y163.366 E40.17545
G0 F1750 X155.49 Y155.356
G1 F600 X155.49 Y124.083 E41.09074
G1 X142.51 Y124.083 E41.47063
G1 X142.51 Y155.356 E42.38592
G1 X155.49 Y155.356 E42.76581
G0 F1750 X137.49 Y155.356
G1 F600 X137.49 Y124.083 E43.6811
G1 X124.51 Y124.083 E44.061
G1 X124.51 Y155.356 E44.97628
G1 X137.49 Y155.356 E45.35618
G0 F1750 X117.178 Y163.14
G1 F600 X116.858 Y162.82 E45.36942
G0 F1750 X116.858 Y162.113
G1 F600 X117.885 Y163.14 E45.41193
G1 X117.973 Y163.228
G0 F1750 X118.592 Y163.14
G1 F600 X116.858 Y161.406 E45.4837
G1 X116.77 Y161.318
G0 F1750 X116.858 Y160.699
G1 F600 X119.299 Y163.14 E45.58474
G1 X119.387 Y163.228
G0 F1750 X120.006 Y163.14
G1 F600 X116.858 Y159.992 E45.71504
G1 X116.77 Y159.904
G0 F1750 X116.858 Y159.284
G1 F600 X120.713 Y163.14 E45.87462
G1 X120.801 Y163.228
G0 F1750 X121.42 Y163.14
G1 F600 X116.858 Y158.577 E46.06346
G1 X116.77 Y158.489
G0 F1750 X116.858 Y157.87
G1 F600 X122.127 Y163.14 E46.28157
G1 X122.215 Y163.228
G0 F1750 X122.835 Y163.14
G1 F600 X116.858 Y157.163 E46.52896
G1 X116.77 Y157.075
G0 F1750 X116.858 Y156.456
G1 F600 X123.542 Y163.14 E46.80562
G1 X123.63 Y163.228
G0 F1750 X124.249 Y163.14
G1 F600 X116.858 Y155.749 E47.11154
G1 X116.77 Y155.661
G0 F1750 X116.858 Y155.042
G1 F600 X124.956 Y163.14 E47.44672
G1 X125.044 Y163.228
G0 F1750 X125.663 Y163.14
G1 F600 X116.858 Y154.335 E47.81117
G1 X116.77 Y154.247
G0 F1750 X116.858 Y153.628
G1 F600 X126.37 Y163.14 E48.20487
G1 X126.458 Y163.228
G0 F1750 X127.077 Y163.14
G1 F600 X116.858 Y152.921 E48.62785
G1 X116.77 Y152.833
G0 F1750 X116.858 Y152.213
G1 F600 X127.784 Y163.14 E49.0801
G1 X127.872 Y163.228
G0 F1750 X128.491 Y163.14
G1 F600 X116.858 Y151.506 E49.56162
G1 X116.77 Y151.418
G0 F1750 X116.858 Y150.799
G1 F600 X129.199 Y163.14 E50.07242
G1 X129.287 Y163.228
G0 F1750 X129.906 Y163.14
G1 F600 X116.858 Y150.092 E50.61249
G1 X116.77 Y150.004
G0 F1750 X116.858 Y149.385
G1 F600 X130.613 Y163.14 E51.18182
G1 X130.701 Y163.228
G0 F1750 X131.32 Y163.14
G1 F600 X116.858 Y148.678 E51.78041
G1 X116.77 Y148.59
G0 F1750 X116.858 Y147.971
G1 F600 X124.285 Y155.398 E52.08782
G1 X124.373 Y155.486
G0 F1750 X124.467 Y155.58
G1 F600 X132.027 Y163.14 E52.40073
G1 X132.115 Y163.228
G0 F1750 X132.734 Y163.14
G1 F600 X125.174 Y155.58 E52.71365
G1 X125.086 Y155.492
G0 F1750 X125.881 Y155.58
G1 F600 X133.441 Y163.14 E53.02656
G1 X133.529 Y163.228
G0 F1750 X134.148 Y163.14
G1 F600 X126.589 Y155.58 E53.33946
G1 X126.501 Y155.492
G0 F1750 X127.296 Y155.58
G1 F600 X134.855 Y163.14 E53.65235
G1 X134.943 Y163.228
G0 F1750 X135.562 Y163.14
G1 F600 X128.003 Y155.58 E53.96524
G1 X127.915 Y155.492
G0 F1750 X128.71 Y155.58
G1 F600 X136.27 Y163.14 E54.27816
G1 X136.358 Y163.228
G0 F1750 X136.977 Y163.14
G1 F600 X129.417 Y155.58 E54.59107
G1 X129.329 Y155.492
G0 F1750 X130.124 Y155.58
G1 F600 X137.684 Y163.14 E54.90398
G1 X137.772 Y163.228
G0 F1750 X138.391 Y163.14
G1 F600 X130.831 Y155.58 E55.2169
G1 X130.743 Y155.492
G0 F1750 X131.538 Y155.58
G1 F600 X139.098 Y163.14 E55.52981
G1 X139.186 Y163.228
G0 F1750 X139.805 Y163.14
G1 F600 X132.245 Y155.58 E55.84272
G1 X132.157 Y155.492
G0 F1750 X132.953 Y155.58
G1 F600 X140.512 Y163.14 E56.15562
G1 X140.6 Y163.228
G0 F1750 X141.219 Y163.14
G1 F600 X133.66 Y155.58 E56.46851
G1 X133.572 Y155.492
G0 F1750 X134.367 Y155.58
G1 F600 X141.926 Y163.14 E56.7814
G1 X142.014 Y163.228
G0 F1750 X142.634 Y163.14
G1 F600 X135.074 Y155.58 E57.09432
G1 X134.986 Y155.492
G0 F1750 X135.781 Y155.58
G1 F600 X143.341 Y163.14 E57.40723
G1 X143.429 Y163.228
G0 F1750 X144.048 Y163.14
G1 F600 X136.488 Y155.58 E57.72015
G1 X136.4 Y155.492
G0 F1750 X137.195 Y155.58
G1 F600 X144.755 Y163.14 E58.03306
G1 X144.843 Y163.228
G0 F1750 X145.462 Y163.14
G1 F600 X137.714 Y155.392 E58.35376
G1 X137.626 Y155.304
G0 F1750 X137.714 Y154.685
G1 F600 X146.169 Y163.14 E58.70371
G1 X146.257 Y163.228
G0 F1750 X146.876 Y163.14
G1 F600 X137.714 Y153.978 E59.08294
G1 X137.626 Y153.89
G0 F1750 X137.714 Y153.271
G1 F600 X147.583 Y163.14 E59.49142
G1 X147.671 Y163.228
G0 F1750 X148.29 Y163.14
G1 F600 X137.714 Y152.563 E59.92919
G1 X137.626 Y152.475
G0 F1750 X137.714 Y151.856
G1 F600 X148.998 Y163.14 E60.39624
G1 X149.086 Y163.228
G0 F1750 X149.705 Y163.14
G1 F600 X137.714 Y151.149 E60.89256
G1 X137.626 Y151.061
G0 F1750 X137.714 Y150.442
G1 F600 X142.285 Y155.013 E61.08176
G1 X142.373 Y155.101
G0 F1750 X142.285 Y154.306
G1 F600 X137.714 Y149.735 E61.27095
G1 X137.626 Y149.647
G0 F1750 X137.714 Y149.028
G1 F600 X142.285 Y153.599 E61.46015
G1 X142.373 Y153.687
G0 F1750 X142.285 Y152.892
G1 F600 X137.714 Y148.321 E61.64935
G1 X137.626 Y148.233
G0 F1750 X137.714 Y147.614
G1 F600 X142.285 Y152.184 E61.83852
G1 X142.373 Y152.272
G0 F1750 X142.285 Y151.477
G1 F600 X137.714 Y146.907 E62.0277
G1 X137.626 Y146.819
G0 F1750 X137.714 Y146.199
G1 F600 X142.285 Y150.77 E62.2169
G1 X142.373 Y150.858
G0 F1750 X142.285 Y150.063
G1 F600 X137.714 Y145.492 E62.40609
G1 X137.626 Y145.404
G0 F1750 X137.714 Y144.785
G1 F600 X142.285 Y149.356 E62.59529
G1 X142.373 Y149.444
G0 F1750 X142.285 Y148.649
G1 F600 X137.714 Y144.078 E62.78449
G1 X137.626 Y143.99
G0 F1750 X137.714 Y143.371
G1 F600 X142.285 Y147.942 E62.97368
G1 X142.373 Y148.03
G0 F1750 X142.285 Y147.235
G1 F600 X137.714 Y142.664 E63.16288
G1 X137.626 Y142.576
G0 F1750 X137.714 Y141.957
G1 F600 X142.285 Y146.528 E63.35208
G1 X142.373 Y146.616
G0 F1750 X142.285 Y145.82
G1 F600 X137.714 Y141.25 E63.54125
G1 X137.626 Y141.162
G0 F1750 X137.714 Y140.543
G1 F600 X142.285 Y145.113 E63.73043
G1 X142.373 Y145.201
G0 F1750 X142.285 Y144.406
G1 F600 X137.714 Y139.836 E63.91961
G1 X137.626 Y139.748
G0 F1750 X137.714 Y139.128
G1 F600 X142.285 Y143.699 E64.1088
G1 X142.373 Y143.787
G0 F1750 X142.285 Y142.992
G1 F600 X137.714 Y138.421 E64.298
G1 X137.626 Y138.333
G0 F1750 X137.714 Y137.714
G1 F600 X142.285 Y142.285 E64.4872
G1 X142.373 Y142.373
G0 F1750 X142.285 Y141.578
G1 F600 X137.714 Y137.007 E64.6764
G1 X137.626 Y136.919
G0 F1750 X137.714 Y136.3
G1 F600 X142.285 Y140.871 E64.86559
G1 X142.373 Y140.959
G0 F1750 X142.285 Y140.164
G1 F600 X137.714 Y135.593 E65.05479
G1 X137.626 Y135.505
G0 F1750 X137.714 Y134.886
G1 F600 X142.284 Y139.456 E65.24394
G1 X142.372 Y139.544
G0 F1750 X142.284 Y138.749
G1 F600 X137.714 Y134.179 E65.4331
G1 X137.626 Y134.091
G0 F1750 X137.714 Y133.472
G1 F600 X142.284 Y138.042 E65.62226
G1 X142.372 Y138.13
G0 F1750 X142.284 Y137.334
G1 F600 X137.714 Y132.764 E65.81141
G1 X137.626 Y132.676
G0 F1750 X137.714 Y132.057
G1 F600 X142.284 Y136.627 E66.00057
G1 X142.372 Y136.715
G0 F1750 X142.284 Y135.92
G1 F600 X137.714 Y131.35 E66.18972
G1 X137.626 Y131.262
G0 F1750 X137.714 Y130.643
G1 F600 X142.284 Y135.213 E66.37888
G1 X142.372 Y135.301
G0 F1750 X142.284 Y134.506
G1 F600 X137.714 Y129.936 E66.56803
G1 X137.626 Y129.848
G0 F1750 X137.714 Y129.229
G1 F600 X142.284 Y133.799 E66.75719
G1 X142.372 Y133.887
G0 F1750 X142.284 Y133.092
G1 F600 X137.714 Y128.522 E66.94635
G1 X137.626 Y128.434
G0 F1750 X137.714 Y127.815
G1 F600 X142.284 Y132.385 E67.1355
G1 X142.372 Y132.473
G0 F1750 X142.284 Y131.678
G1 F600 X137.714 Y127.108 E67.32466
G1 X137.626 Y127.02
G0 F1750 X137.714 Y126.4
G1 F600 X142.284 Y130.971 E67.51383
G1 X142.372 Y131.059
G0 F1750 X142.284 Y130.263
G1 F600 X137.714 Y125.693 E67.70299
G1 X137.626 Y125.605
G0 F1750 X137.714 Y124.986
G1 F600 X142.284 Y129.556 E67.89214
G1 X142.372 Y129.644
G0 F1750 X142.284 Y128.849
G1 F600 X137.714 Y124.279 E68.0813
G1 X137.626 Y124.191
G0 F1750 X137.293 Y123.858
G1 F600 X130.293 Y116.858 E68.37103
G1 X130.205 Y116.77
G0 F1750 X129.586 Y116.858
G1 F600 X136.586 Y123.858 E68.66077
G1 X136.674 Y123.946
G0 F1750 X135.879 Y123.858
G1 F600 X128.879 Y116.858 E68.9505
G1 X128.791 Y116.77
G0 F1750 X128.172 Y116.858
G1 F600 X135.171 Y123.858 E69.24022
G1 X135.259 Y123.946
G0 F1750 X134.464 Y123.858
G1 F600 X127.465 Y116.858 E69.52993
G1 X127.377 Y116.77
G0 F1750 X126.758 Y116.858
G1 F600 X133.757 Y123.858 E69.81965
G1 X133.845 Y123.946
G0 F1750 X133.05 Y123.858
G1 F600 X126.05 Y116.858 E70.10938
G1 X125.962 Y116.77
G0 F1750 X125.343 Y116.858
G1 F600 X132.343 Y123.858 E70.39912
G1 X132.431 Y123.946
G0 F1750 X131.636 Y123.858
G1 F600 X124.636 Y116.858 E70.68885
G1 X124.548 Y116.77
G0 F1750 X123.929 Y116.858
G1 F600 X130.929 Y123.858 E70.97859
