;Generated by Cura LulzBot Edition GCodeWriter Version: 3.2.27
;FLAVOR:Marlin
;TIME:14696
;Filament used: 10.4126m
;Layer height: 0.25
;Generated with Cura_SteamEngine 3.2.27
M82 ;absolute extrusion mode
;This G-Code has been generated specifically for the LulzBot TAZ 6 with standard extruder
M75 ; start GLCD timer
G26 ; clear potential 'probe fail' condition
G21 ; set units to Millimetres
M107 ; disable fans
M420 S0 ; disable previous leveling matrix
G90 ; absolute positioning
M82 ; set extruder to absolute mode
G92 E0 ; set extruder position to 0
M140 S105 ; start bed heating up
M109 R170 ; soften filament before homing Z
G28 ; Home all axis
G1 E-30 F100 ; retract filament
M109 R170 ; wait for extruder to reach wiping temp
G1 X-15 Y100 F3000 ; move above wiper pad
G1 Z1 ; push nozzle into wiper
G1 X-17 Y95 F1000 ; slow wipe
G1 X-17 Y90 F1000 ; slow wipe
G1 X-17 Y85 F1000 ; slow wipe
G1 X-15 Y90 F1000 ; slow wipe
G1 X-17 Y80 F1000 ; slow wipe
G1 X-15 Y95 F1000 ; slow wipe
G1 X-17 Y75 F2000 ; fast wipe
G1 X-15 Y65 F2000 ; fast wipe
G1 X-17 Y70 F2000 ; fast wipe
G1 X-15 Y60 F2000 ; fast wipe
G1 X-17 Y55 F2000 ; fast wipe
G1 X-15 Y50 F2000 ; fast wipe
G1 X-17 Y40 F2000 ; fast wipe
G1 X-15 Y45 F2000 ; fast wipe
G1 X-17 Y35 F2000 ; fast wipe
G1 X-15 Y40 F2000 ; fast wipe
G1 X-17 Y70 F2000 ; fast wipe
G1 X-15 Y30 Z2 F2000 ; fast wipe
G1 X-17 Y35 F2000 ; fast wipe
G1 X-15 Y25 F2000 ; fast wipe
G1 X-17 Y30 F2000 ; fast wipe
G1 X-15 Y25 Z1.5 F1000 ; slow wipe
G1 X-17 Y23 F1000 ; slow wipe
G1 Z10 ; raise extruder
M109 R170 ; wait for extruder to reach probe temp
G1 X-9 Y-9 ; move above first probe point
M204 S100 ; set probing acceleration
G29 ; start auto-leveling sequence
M420 S1 ; activate bed level matrix
M425 Z			     ; use measured Z backlash for compensation
M425 Z F0		     ; turn off measured Z backlash compensation. (if activated in the quality settings, this command will automatically be ignored)
M204 S500 ; restore standard acceleration
G1 X0 Y0 Z15 F5000 ; move up off last probe point
G4 S1 ; pause
M400 ; wait for moves to finish
M117 Heating... ; progress indicator message on LCD
M109 R245 ; wait for extruder to reach printing temp
M190 S105 ; wait for bed to reach printing temp
G1 Z2 E0 F75 ; prime tiny bit of filament into the nozzle
M117 TAZ 6 Printing... ; progress indicator message on LCD

M221 S100
;LAYER_COUNT:13
;LAYER:0
M107
G0 F1750 X73.613 Y36.935 Z0.4
;TYPE:SKIRT
G1 F600 X73.879 Y36.5 E0.01492
G1 X74.209 Y36.113 E0.02981
G1 X74.596 Y35.781 E0.04473
G1 X75.031 Y35.515 E0.05966
G1 X75.501 Y35.319 E0.07456
G1 X75.996 Y35.2 E0.08946
G1 X76.509 Y35.159 E0.10452
G1 X203.491 Y35.16 E3.82099
G1 X203.999 Y35.2 E3.8359
G1 X204.494 Y35.319 E3.8508
G1 X204.965 Y35.514 E3.86572
G1 X205.4 Y35.78 E3.88064
G1 X205.787 Y36.11 E3.89553
G1 X206.119 Y36.497 E3.91045
G1 X206.385 Y36.932 E3.92538
G1 X206.581 Y37.402 E3.94028
G1 X206.7 Y37.897 E3.95518
G1 X206.741 Y38.41 E3.97024
G1 X206.741 Y241.591 E9.91688
G1 X206.701 Y242.099 E9.93179
G1 X206.582 Y242.594 E9.94669
G1 X206.387 Y243.065 E9.96161
G1 X206.121 Y243.5 E9.97653
G1 X205.791 Y243.887 E9.99142
G1 X205.404 Y244.219 E10.00634
G1 X204.969 Y244.485 E10.02126
G1 X204.499 Y244.681 E10.03617
G1 X204.004 Y244.8 E10.05107
G1 X203.491 Y244.841 E10.06613
G1 X76.509 Y244.841 E13.7826
G1 X76.001 Y244.801 E13.79751
G1 X75.506 Y244.682 E13.81241
G1 X75.035 Y244.487 E13.82733
G1 X74.6 Y244.221 E13.84225
G1 X74.213 Y243.891 E13.85714
G1 X73.881 Y243.504 E13.87206
G1 X73.615 Y243.069 E13.88699
G1 X73.419 Y242.599 E13.90189
G1 X73.3 Y242.104 E13.91679
G1 X73.259 Y241.591 E13.93185
G1 X73.259 Y38.409 E19.87851
G1 X73.299 Y37.901 E19.89343
G1 X73.418 Y37.406 E19.90833
G1 X73.613 Y36.935 E19.92325
G1 F600 E18.92325
G0 F1750 X75.835 Y39.164
G0 X77.264 Y39.164
G0 X103.562 Y216.528
G0 X103.658 Y216.503
;TYPE:WALL-INNER
G1 F600 E19.92325
G1 X104.052 Y217.451 E19.9533
G1 X104.676 Y218.265 E19.98331
G1 X105.491 Y218.89 E20.01337
G1 X106.438 Y219.283 E20.04338
G1 X107.456 Y219.416 E20.07343
G1 X108.473 Y219.283 E20.10345
G1 X109.422 Y218.89 E20.13351
G1 X110.236 Y218.265 E20.16355
G1 X110.861 Y217.451 E20.19358
G1 X111.254 Y216.502 E20.22365
G1 X111.387 Y215.485 E20.25366
G1 X111.254 Y214.469 E20.28365
G1 X110.861 Y213.52 E20.31372
G1 X110.236 Y212.705 E20.34378
G1 X109.422 Y212.081 E20.3738
G1 X108.474 Y211.688 E20.40383
G1 X107.456 Y211.554 E20.43388
G1 X106.438 Y211.688 E20.46393
G1 X105.491 Y212.081 E20.49394
G1 X104.676 Y212.705 E20.52398
G1 X104.052 Y213.52 E20.55403
G1 X103.658 Y214.468 E20.58407
G1 X103.525 Y215.485 E20.61409
G1 X103.658 Y216.503 E20.64414
G0 F1750 X103.562 Y216.528
G0 X104.018 Y217.471
G0 X104.648 Y218.293
G0 X105.471 Y218.924
G0 X106.428 Y219.321
G0 X107.26 Y219.429
G0 X138.558 Y220.401
G0 X138.571 Y220.302
G1 F600 X139.832 Y220.31 E20.68105
G1 X141.052 Y219.994 E20.71793
G1 X142.149 Y219.372 E20.75484
G1 X143.047 Y218.489 E20.7917
G1 X143.685 Y217.402 E20.82859
G1 X144.021 Y216.188 E20.86545
G1 X144.032 Y214.927 E20.90236
G1 X143.715 Y213.707 E20.93925
G1 X143.093 Y212.61 E20.97616
G1 X142.209 Y211.711 E21.01306
G1 X141.123 Y211.073 E21.04993
G1 X139.908 Y210.737 E21.08682
G1 X138.647 Y210.726 E21.12373
G1 X137.427 Y211.043 E21.16062
G1 X136.33 Y211.665 E21.19753
G1 X135.432 Y212.549 E21.23441
G1 X134.794 Y213.635 E21.27128
G1 X134.458 Y214.85 E21.30817
G1 X134.447 Y216.111 E21.34508
G1 X134.764 Y217.331 E21.38197
G1 X135.386 Y218.428 E21.41888
G1 X136.27 Y219.327 E21.45578
G1 X137.356 Y219.965 E21.49264
G1 X138.571 Y220.302 E21.52955
G0 F1750 X138.558 Y220.401
G0 X139.593 Y220.36
G0 X167.062 Y216.528
G0 X167.158 Y216.503
G1 F600 X167.552 Y217.451 E21.55959
G1 X168.176 Y218.265 E21.58961
G1 X168.991 Y218.89 E21.61967
G1 X169.938 Y219.283 E21.64968
G1 X170.956 Y219.416 E21.67973
G1 X171.973 Y219.283 E21.70975
G1 X172.922 Y218.89 E21.73981
G1 X173.736 Y218.265 E21.76985
G1 X174.361 Y217.451 E21.79988
G1 X174.754 Y216.502 E21.82994
G1 X174.887 Y215.485 E21.85996
G1 X174.754 Y214.469 E21.88995
G1 X174.361 Y213.52 E21.92002
G1 X173.736 Y212.705 E21.95007
G1 X172.922 Y212.081 E21.98009
G1 X171.974 Y211.688 E22.01013
G1 X170.956 Y211.554 E22.04018
G1 X169.938 Y211.688 E22.07023
G1 X168.991 Y212.081 E22.10024
G1 X168.176 Y212.705 E22.13028
G1 X167.552 Y213.52 E22.16032
G1 X167.158 Y214.468 E22.19037
G1 X167.025 Y215.485 E22.22039
G1 X167.158 Y216.503 E22.25044
G0 F1750 X167.062 Y216.528
G0 X167.518 Y217.471
G0 X168.148 Y218.293
G0 X168.614 Y218.65
G0 X202.68 Y240.78
G0 X202.75 Y240.85
G1 F600 X77.25 Y240.85 E25.92353
G1 X77.25 Y39.15 E31.82682
G1 X202.75 Y39.15 E35.49991
G1 X202.75 Y240.85 E41.40319
G0 F1750 X203.25 Y241.35
;TYPE:WALL-OUTER
G1 F600 X76.75 Y241.35 E45.10555
G1 X76.75 Y38.65 E51.03811
G1 X203.25 Y38.65 E54.74047
G1 X203.25 Y241.35 E60.67302
G0 F1750 X203 Y241.35
G0 X202.68 Y240.78
G0 X168.971 Y218.924
G0 X168.148 Y218.293
G0 X167.638 Y217.628
G0 X167.05 Y216.449
G0 X167.645 Y216.372
G1 F600 X167.989 Y217.199 E60.69924
G1 X168.533 Y217.908 E60.72539
G1 X169.243 Y218.453 E60.75159
G1 X170.069 Y218.796 E60.77777
G1 X170.956 Y218.912 E60.80395
G1 X171.843 Y218.796 E60.83013
G1 X172.67 Y218.453 E60.85633
G1 X173.379 Y217.908 E60.8825
G1 X173.924 Y217.199 E60.90868
G1 X174.267 Y216.372 E60.93488
G1 X174.383 Y215.485 E60.96106
G1 X174.267 Y214.599 E60.98722
G1 X173.924 Y213.772 E61.01342
G1 X173.379 Y213.062 E61.03962
G1 X172.67 Y212.518 E61.06577
G1 X171.843 Y212.175 E61.09197
G1 X170.956 Y212.058 E61.11816
G1 X170.069 Y212.175 E61.14434
G1 X169.243 Y212.518 E61.17052
G1 X168.533 Y213.062 E61.1967
G1 X167.989 Y213.772 E61.22288
G1 X167.645 Y214.599 E61.24909
G1 X167.529 Y215.485 E61.27525
G1 X167.645 Y216.372 E61.30143
G0 F1750 X167.741 Y216.603
G0 X167.187 Y216.832
G0 X139.836 Y220.349
G0 X138.482 Y220.38
G0 X138.641 Y219.802
G1 F600 X139.77 Y219.81 E61.33447
G1 X140.863 Y219.527 E61.36752
G1 X141.845 Y218.97 E61.40056
G1 X142.649 Y218.179 E61.43357
G1 X143.221 Y217.205 E61.46663
G1 X143.522 Y216.118 E61.49964
G1 X143.531 Y214.989 E61.53268
G1 X143.248 Y213.896 E61.56573
G1 X142.691 Y212.914 E61.59877
G1 X141.899 Y212.109 E61.63182
G1 X140.926 Y211.537 E61.66485
G1 X139.838 Y211.236 E61.69789
G1 X138.709 Y211.227 E61.73094
G1 X137.616 Y211.51 E61.76398
G1 X136.634 Y212.067 E61.79702
G1 X135.83 Y212.859 E61.83006
G1 X135.258 Y213.832 E61.86309
G1 X134.957 Y214.92 E61.89613
G1 X134.948 Y216.049 E61.92917
G1 X135.231 Y217.142 E61.96222
G1 X135.788 Y218.124 E61.99526
G1 X136.58 Y218.929 E62.02831
G1 X137.553 Y219.501 E62.06134
G1 X138.641 Y219.802 E62.09438
G0 F1750 X138.891 Y219.803
G0 X138.887 Y220.404
G0 X107.456 Y219.456
G0 X106.428 Y219.321
G0 X105.471 Y218.924
G0 X104.648 Y218.293
G0 X104.138 Y217.628
G0 X103.55 Y216.449
G0 X104.145 Y216.372
G1 F600 X104.489 Y217.199 E62.1206
G1 X105.033 Y217.908 E62.14675
G1 X105.743 Y218.453 E62.17295
G1 X106.569 Y218.796 E62.19913
G1 X107.456 Y218.912 E62.22531
G1 X108.343 Y218.796 E62.25149
G1 X109.17 Y218.453 E62.27769
G1 X109.879 Y217.908 E62.30387
G1 X110.424 Y217.199 E62.33004
G1 X110.767 Y216.372 E62.35624
G1 X110.883 Y215.485 E62.38242
G1 X110.767 Y214.599 E62.40858
G1 X110.424 Y213.772 E62.43478
G1 X109.879 Y213.062 E62.46098
G1 X109.17 Y212.518 E62.48713
G1 X108.343 Y212.175 E62.51334
G1 X107.456 Y212.058 E62.53952
G1 X106.569 Y212.175 E62.56571
G1 X105.743 Y212.518 E62.59188
G1 X105.033 Y213.062 E62.61806
G1 X104.489 Y213.772 E62.64424
G1 X104.145 Y214.599 E62.67045
G1 X104.029 Y215.485 E62.69661
G1 X104.145 Y216.372 E62.72279
G0 F1750 X104.241 Y216.603
G0 X103.687 Y216.832
G0 X103.18 Y216.631
;TYPE:SKIN
G1 F600 X103.624 Y217.698 E62.75661
G1 X104.327 Y218.614 E62.79041
G1 X105.244 Y219.318 E62.82424
G1 X106.31 Y219.761 E62.85803
G1 X107.456 Y219.91 E62.89185
G1 X108.601 Y219.761 E62.92565
G1 X109.669 Y219.318 E62.95949
G1 X110.585 Y218.614 E62.9933
G1 X111.289 Y217.698 E63.02711
G1 X111.732 Y216.63 E63.06095
G1 X111.881 Y215.485 E63.09474
G1 X111.732 Y214.341 E63.12851
G1 X111.289 Y213.273 E63.16235
G1 X110.585 Y212.356 E63.19619
G1 X109.669 Y211.653 E63.22998
G1 X108.602 Y211.21 E63.26379
G1 X107.456 Y211.06 E63.29762
G1 X106.31 Y211.21 E63.33145
G1 X105.244 Y211.653 E63.36523
G1 X104.327 Y212.356 E63.39905
G1 X103.624 Y213.273 E63.43287
G1 X103.18 Y214.34 E63.46669
G1 X103.031 Y215.485 E63.50049
G1 X103.18 Y216.631 E63.53431
G0 F1750 X104.648 Y218.293
G0 X105.471 Y218.924
G0 X106.428 Y219.321
G0 X107.353 Y219.442
G0 X133.957 Y216.172
G1 F600 X134.306 Y217.517 E63.57498
G1 X134.992 Y218.726 E63.61566
G1 X135.966 Y219.717 E63.65633
G1 X137.164 Y220.42 E63.69698
G1 X138.503 Y220.792 E63.73766
G1 X139.893 Y220.8 E63.77834
G1 X141.238 Y220.452 E63.819
G1 X142.447 Y219.766 E63.85969
G1 X143.437 Y218.793 E63.90031
G1 X144.14 Y217.594 E63.94099
G1 X144.511 Y216.257 E63.9816
G1 X144.522 Y214.866 E64.02231
G1 X144.173 Y213.521 E64.06298
G1 X143.487 Y212.312 E64.10367
G1 X142.513 Y211.321 E64.14433
G1 X141.315 Y210.618 E64.18499
G1 X139.977 Y210.247 E64.22563
G1 X138.586 Y210.236 E64.26634
G1 X137.241 Y210.585 E64.30701
G1 X136.032 Y211.271 E64.34769
G1 X135.042 Y212.245 E64.38834
G1 X134.339 Y213.443 E64.42899
G1 X133.968 Y214.781 E64.46963
G1 X133.957 Y216.172 E64.51034
G0 F1750 X135.355 Y218.452
G0 X136.246 Y219.358
G0 X137.341 Y220.001
G0 X138.566 Y220.341
G0 X139.709 Y220.348
G0 X166.531 Y215.485
G1 F600 X166.68 Y216.631 E64.54416
G1 X167.124 Y217.698 E64.57799
G1 X167.827 Y218.614 E64.61178
G1 X168.744 Y219.318 E64.64562
G1 X169.81 Y219.761 E64.67941
G1 X170.956 Y219.91 E64.71323
G1 X172.101 Y219.761 E64.74702
G1 X173.169 Y219.318 E64.78086
G1 X174.085 Y218.614 E64.81467
G1 X174.789 Y217.698 E64.84849
G1 X175.232 Y216.63 E64.88233
G1 X175.381 Y215.485 E64.91612
G1 X175.232 Y214.341 E64.94989
G1 X174.789 Y213.273 E64.98373
G1 X174.085 Y212.356 E65.01756
G1 X173.169 Y211.653 E65.05136
G1 X172.102 Y211.21 E65.08517
G1 X170.956 Y211.06 E65.119
G1 X169.81 Y211.21 E65.15282
G1 X168.744 Y211.653 E65.18661
G1 X167.827 Y212.356 E65.22043
G1 X167.124 Y213.273 E65.25425
G1 X166.68 Y214.34 E65.28807
G1 X166.531 Y215.485 E65.32186
G0 F1750 X77.74 Y240.36
G1 F600 X77.74 Y39.64 E71.19647
G1 X202.26 Y39.64 E74.84088
G1 X202.26 Y240.36 E80.71548
G1 X77.74 Y240.36 E84.35989
G0 F1750 X78.206 Y240.134
G1 F600 X77.964 Y239.891 E84.36993
G0 F1750 X77.964 Y239.184
G1 F600 X78.913 Y240.134 E84.40923
G1 X79.001 Y240.222
G0 F1750 X79.62 Y240.134
G1 F600 X77.964 Y238.477 E84.47779
G1 X77.876 Y238.389
G0 F1750 X77.964 Y237.77
G1 F600 X80.328 Y240.134 E84.57564
G1 X80.416 Y240.222
G0 F1750 X81.035 Y240.134
G1 F600 X77.964 Y237.063 E84.70275
G1 X77.876 Y236.975
G0 F1750 X77.964 Y236.356
G1 F600 X81.742 Y240.134 E84.85913
G1 X81.83 Y240.222
G0 F1750 X82.449 Y240.134
G1 F600 X77.964 Y235.648 E85.04478
G1 X77.876 Y235.56
G0 F1750 X77.964 Y234.941
G1 F600 X83.156 Y240.134 E85.25971
G1 X83.244 Y240.222
G0 F1750 X83.863 Y240.134
G1 F600 X77.964 Y234.234 E85.50389
G1 X77.876 Y234.146
G0 F1750 X77.964 Y233.527
G1 F600 X84.57 Y240.134 E85.77734
G1 X84.658 Y240.222
G0 F1750 X85.277 Y240.134
G1 F600 X77.964 Y232.82 E86.08005
G1 X77.876 Y232.732
G0 F1750 X77.964 Y232.113
G1 F600 X85.984 Y240.134 E86.41202
G1 X86.072 Y240.222
G0 F1750 X86.691 Y240.134
G1 F600 X77.964 Y231.406 E86.77326
G1 X77.876 Y231.318
G0 F1750 X77.964 Y230.699
G1 F600 X87.399 Y240.134 E87.16378
G1 X87.487 Y240.222
G0 F1750 X88.106 Y240.134
G1 F600 X77.964 Y229.992 E87.58357
G1 X77.876 Y229.904
G0 F1750 X77.964 Y229.285
G1 F600 X88.813 Y240.134 E88.03261
G1 X88.901 Y240.222
G0 F1750 X89.52 Y240.134
G1 F600 X77.964 Y228.577 E88.51095
G1 X77.876 Y228.489
G0 F1750 X77.964 Y227.87
G1 F600 X90.227 Y240.134 E89.01854
G1 X90.315 Y240.222
G0 F1750 X90.934 Y240.134
G1 F600 X77.964 Y227.163 E89.5554
G1 X77.876 Y227.075
G0 F1750 X77.964 Y226.456
G1 F600 X91.641 Y240.134 E90.12152
G1 X91.729 Y240.222
G0 F1750 X92.348 Y240.134
G1 F600 X77.964 Y225.749 E90.71691
G1 X77.876 Y225.661
G0 F1750 X77.964 Y225.042
G1 F600 X93.055 Y240.134 E91.34155
G1 X93.143 Y240.222
G0 F1750 X93.763 Y240.134
G1 F600 X77.964 Y224.335 E91.99549
G1 X77.876 Y224.247
G0 F1750 X77.964 Y223.628
G1 F600 X94.47 Y240.134 E92.67868
G1 X94.558 Y240.222
G0 F1750 X95.177 Y240.134
G1 F600 X77.964 Y222.921 E93.39114
G1 X77.876 Y222.833
G0 F1750 X77.964 Y222.213
G1 F600 X95.884 Y240.134 E94.13288
G1 X95.972 Y240.222
G0 F1750 X96.591 Y240.134
G1 F600 X77.964 Y221.506 E94.90389
G1 X77.876 Y221.418
G0 F1750 X77.964 Y220.799
G1 F600 X97.298 Y240.134 E95.70416
G1 X97.386 Y240.222
G0 F1750 X98.005 Y240.134
G1 F600 X77.964 Y220.092 E96.53369
G1 X77.876 Y220.004
G0 F1750 X77.964 Y219.385
G1 F600 X98.712 Y240.134 E97.39249
G1 X98.8 Y240.222
G0 F1750 X99.419 Y240.134
G1 F600 X77.964 Y218.678 E98.28054
G1 X77.876 Y218.59
G0 F1750 X77.964 Y217.971
G1 F600 X100.127 Y240.134 E99.19789
G1 X100.215 Y240.222
G0 F1750 X100.834 Y240.134
G1 F600 X77.964 Y217.264 E100.14449
G1 X77.876 Y217.176
G0 F1750 X77.964 Y216.557
G1 F600 X101.541 Y240.134 E101.12036
G1 X101.629 Y240.222
G0 F1750 X102.248 Y240.134
G1 F600 X77.964 Y215.85 E102.12549
G1 X77.876 Y215.762
G0 F1750 X77.964 Y215.142
G1 F600 X102.955 Y240.134 E103.15991
G1 X103.043 Y240.222
G0 F1750 X103.662 Y240.134
G1 F600 X77.964 Y214.435 E104.22359
G1 X77.876 Y214.347
G0 F1750 X77.964 Y213.728
G1 F600 X104.369 Y240.134 E105.31653
G1 X104.457 Y240.222
G0 F1750 X105.076 Y240.134
G1 F600 X77.964 Y213.021 E106.43874
G1 X77.876 Y212.933
G0 F1750 X77.964 Y212.314
G1 F600 X105.783 Y240.134 E107.59021
G1 X105.871 Y240.222
G0 F1750 X106.49 Y240.134
G1 F600 X77.964 Y211.607 E108.77094
G1 X77.876 Y211.519
G0 F1750 X77.964 Y210.9
G1 F600 X107.198 Y240.134 E109.98096
G1 X107.286 Y240.222
G0 F1750 X107.905 Y240.134
G1 F600 X77.964 Y210.193 E111.22024
G1 X77.876 Y210.105
G0 F1750 X77.964 Y209.486
G1 F600 X108.612 Y240.134 E112.48878
G1 X108.7 Y240.222
G0 F1750 X109.319 Y240.134
G1 F600 X77.964 Y208.778 E113.78661
G1 X77.876 Y208.69
G0 F1750 X77.964 Y208.071
G1 F600 X110.026 Y240.134 E115.1137
G1 X110.114 Y240.222
G0 F1750 X110.733 Y240.134
G1 F600 X77.964 Y207.364 E116.47005
G1 X77.876 Y207.276
G0 F1750 X77.964 Y206.657
G1 F600 X111.44 Y240.134 E117.85567
G1 X111.528 Y240.222
