;Generated by Cura LulzBot Edition GCodeWriter Version: 3.2.27
;FLAVOR:Marlin
;TIME:2116
;Filament used: 1.36959m
;Layer height: 0.25
;Generated with Cura_SteamEngine 3.2.27
M82 ;absolute extrusion mode
;This G-Code has been generated specifically for the LulzBot TAZ 6 with standard extruder
M75 ; start GLCD timer
G26 ; clear potential 'probe fail' condition
G21 ; set units to Millimetres
M107 ; disable fans
M420 S0 ; disable previous leveling matrix
G90 ; absolute positioning
M82 ; set extruder to absolute mode
G92 E0 ; set extruder position to 0
M140 S105 ; start bed heating up
M109 R170 ; soften filament before homing Z
G28 ; Home all axis
G1 E-30 F100 ; retract filament
M109 R170 ; wait for extruder to reach wiping temp
G1 X-15 Y100 F3000 ; move above wiper pad
G1 Z1 ; push nozzle into wiper
G1 X-17 Y95 F1000 ; slow wipe
G1 X-17 Y90 F1000 ; slow wipe
G1 X-17 Y85 F1000 ; slow wipe
G1 X-15 Y90 F1000 ; slow wipe
G1 X-17 Y80 F1000 ; slow wipe
G1 X-15 Y95 F1000 ; slow wipe
G1 X-17 Y75 F2000 ; fast wipe
G1 X-15 Y65 F2000 ; fast wipe
G1 X-17 Y70 F2000 ; fast wipe
G1 X-15 Y60 F2000 ; fast wipe
G1 X-17 Y55 F2000 ; fast wipe
G1 X-15 Y50 F2000 ; fast wipe
G1 X-17 Y40 F2000 ; fast wipe
G1 X-15 Y45 F2000 ; fast wipe
G1 X-17 Y35 F2000 ; fast wipe
G1 X-15 Y40 F2000 ; fast wipe
G1 X-17 Y70 F2000 ; fast wipe
G1 X-15 Y30 Z2 F2000 ; fast wipe
G1 X-17 Y35 F2000 ; fast wipe
G1 X-15 Y25 F2000 ; fast wipe
G1 X-17 Y30 F2000 ; fast wipe
G1 X-15 Y25 Z1.5 F1000 ; slow wipe
G1 X-17 Y23 F1000 ; slow wipe
G1 Z10 ; raise extruder
M109 R170 ; wait for extruder to reach probe temp
G1 X-9 Y-9 ; move above first probe point
M204 S100 ; set probing acceleration
G29 ; start auto-leveling sequence
M420 S1 ; activate bed level matrix
M425 Z			     ; use measured Z backlash for compensation
M425 Z F0		     ; turn off measured Z backlash compensation. (if activated in the quality settings, this command will automatically be ignored)
M204 S500 ; restore standard acceleration
G1 X0 Y0 Z15 F5000 ; move up off last probe point
G4 S1 ; pause
M400 ; wait for moves to finish
M117 Heating... ; progress indicator message on LCD
M109 R245 ; wait for extruder to reach printing temp
M190 S105 ; wait for bed to reach printing temp
G1 Z2 E0 F75 ; prime tiny bit of filament into the nozzle
M117 TAZ 6 Printing... ; progress indicator message on LCD

M221 S100
;LAYER_COUNT:30
;LAYER:0
M107
G0 F1750 X113.403 Y113.694 Z0.4
;TYPE:SKIRT
G1 F600 X113.797 Y113.314 E0.01602
G1 X114.242 Y112.995 E0.03205
G1 X114.729 Y112.745 E0.04807
G1 X115.247 Y112.568 E0.06409
G1 X115.785 Y112.469 E0.0801
G1 X116.196 Y112.446 E0.09215
G1 X163.804 Y112.447 E1.48552
G1 X164.35 Y112.487 E1.50154
G1 X164.884 Y112.606 E1.51756
G1 X165.395 Y112.801 E1.53356
G1 X165.873 Y113.069 E1.5496
G1 X166.306 Y113.404 E1.56563
G1 X166.686 Y113.798 E1.58165
G1 X167.005 Y114.243 E1.59767
G1 X167.255 Y114.73 E1.61369
G1 X167.432 Y115.248 E1.62972
G1 X167.531 Y115.786 E1.64573
G1 X167.554 Y116.197 E1.65777
G1 X167.554 Y163.804 E3.05112
G1 X167.514 Y164.35 E3.06714
G1 X167.395 Y164.884 E3.08315
G1 X167.2 Y165.395 E3.09916
G1 X166.932 Y165.873 E3.1152
G1 X166.597 Y166.306 E3.13122
G1 X166.203 Y166.686 E3.14724
G1 X165.758 Y167.005 E3.16327
G1 X165.271 Y167.255 E3.17929
G1 X164.753 Y167.432 E3.19531
G1 X164.215 Y167.531 E3.21132
G1 X163.804 Y167.554 E3.22337
G1 X116.196 Y167.554 E4.61675
G1 X115.65 Y167.514 E4.63277
G1 X115.116 Y167.395 E4.64878
G1 X114.605 Y167.2 E4.66479
G1 X114.127 Y166.932 E4.68083
G1 X113.694 Y166.597 E4.69685
G1 X113.314 Y166.203 E4.71287
G1 X112.995 Y165.758 E4.7289
G1 X112.745 Y165.271 E4.74492
G1 X112.568 Y164.753 E4.76094
G1 X112.469 Y164.215 E4.77695
G1 X112.446 Y163.804 E4.789
G1 X112.446 Y116.196 E6.18237
G1 X112.486 Y115.65 E6.19839
G1 X112.605 Y115.116 E6.21441
G1 X112.8 Y114.605 E6.23041
G1 X113.068 Y114.127 E6.24645
G1 X113.403 Y113.694 E6.26248
G0 F1750 X113.896 Y113.9
G1 F600 X114.283 Y113.568 E6.2774
G1 X114.718 Y113.302 E6.29232
G1 X115.188 Y113.106 E6.30723
G1 X115.683 Y112.987 E6.32213
G1 X116.196 Y112.946 E6.33719
G1 X163.804 Y112.947 E7.73056
G1 X164.312 Y112.987 E7.74548
G1 X164.807 Y113.106 E7.76038
G1 X165.278 Y113.301 E7.7753
G1 X165.713 Y113.567 E7.79022
G1 X166.1 Y113.897 E7.80511
G1 X166.432 Y114.284 E7.82003
G1 X166.698 Y114.719 E7.83495
G1 X166.894 Y115.189 E7.84986
G1 X167.013 Y115.684 E7.86476
G1 X167.054 Y116.197 E7.87982
G1 X167.054 Y163.804 E9.27317
G1 X167.014 Y164.312 E9.28808
G1 X166.895 Y164.807 E9.30298
G1 X166.7 Y165.278 E9.3179
G1 X166.434 Y165.713 E9.33282
G1 X166.104 Y166.1 E9.34771
G1 X165.717 Y166.432 E9.36263
G1 X165.282 Y166.698 E9.37755
G1 X164.812 Y166.894 E9.39246
G1 X164.317 Y167.013 E9.40736
G1 X163.804 Y167.054 E9.42242
G1 X116.196 Y167.054 E10.8158
G1 X115.688 Y167.014 E10.83071
G1 X115.193 Y166.895 E10.84561
G1 X114.722 Y166.7 E10.86053
G1 X114.287 Y166.434 E10.87545
G1 X113.9 Y166.104 E10.89034
G1 X113.568 Y165.717 E10.90526
G1 X113.302 Y165.282 E10.92018
G1 X113.106 Y164.812 E10.93509
G1 X112.987 Y164.317 E10.94999
G1 X112.946 Y163.804 E10.96505
G1 X112.946 Y116.196 E12.35843
G1 X112.986 Y115.688 E12.37334
G1 X113.105 Y115.193 E12.38824
G1 X113.3 Y114.722 E12.40316
G1 X113.566 Y114.287 E12.41808
G1 X113.896 Y113.9 E12.43297
G1 F600 E11.43297
G0 F1750 X115.522 Y116.951
G0 X116.951 Y116.951
G0 X162.993 Y162.993
G0 X163.063 Y163.063
;TYPE:WALL-INNER
G1 F600 E12.43297
G1 X116.937 Y163.063 E13.78297
G1 X116.937 Y116.937 E15.13297
G1 X163.063 Y116.937 E16.48297
G1 X163.063 Y163.063 E17.83297
G0 F1750 X163.563 Y163.563
;TYPE:WALL-OUTER
G1 F600 X116.437 Y163.563 E19.21224
G1 X116.437 Y116.437 E20.5915
G1 X163.563 Y116.437 E21.97077
G1 X163.563 Y163.563 E23.35004
G0 F1750 X163.313 Y163.563
G0 X162.993 Y162.993
G0 X162.573 Y162.573
;TYPE:SKIN
G1 F600 X117.427 Y162.573 E24.67136
G1 X117.427 Y117.427 E25.99268
G1 X162.573 Y117.427 E27.31399
G1 X162.573 Y162.573 E28.63531
G0 F1750 X162.347 Y117.799
G0 X162.273 Y117.725
G1 F600 X161.919 Y118.078 E28.65606
G1 X162.435 Y118.594
G0 F1750 X162.347 Y119.213
G1 F600 X160.785 Y117.651 E28.72071
G1 X160.697 Y117.563
G0 F1750 X160.078 Y117.651
G1 F600 X162.347 Y119.921 E28.81465
G1 X162.435 Y120.009
G0 F1750 X162.347 Y120.628
G1 F600 X159.371 Y117.651 E28.93785
G1 X159.283 Y117.563
G0 F1750 X158.664 Y117.651
G1 F600 X162.347 Y121.335 E29.09031
G1 X162.435 Y121.423
G0 F1750 X162.347 Y122.042
G1 F600 X157.957 Y117.651 E29.27204
G1 X157.869 Y117.563
G0 F1750 X157.249 Y117.651
G1 F600 X162.347 Y122.749 E29.48305
G1 X162.435 Y122.837
G0 F1750 X162.347 Y123.456
G1 F600 X156.542 Y117.651 E29.72332
G1 X156.454 Y117.563
G0 F1750 X155.835 Y117.651
G1 F600 X162.347 Y124.163 E29.99286
G1 X162.435 Y124.251
G0 F1750 X162.347 Y124.87
G1 F600 X155.128 Y117.651 E30.29165
G1 X155.04 Y117.563
G0 F1750 X154.421 Y117.651
G1 F600 X162.347 Y125.577 E30.61972
G1 X162.435 Y125.665
G0 F1750 X162.347 Y126.285
G1 F600 X153.714 Y117.651 E30.97706
G1 X153.626 Y117.563
G0 F1750 X153.007 Y117.651
G1 F600 X162.347 Y126.992 E31.36367
G1 X162.435 Y127.08
G0 F1750 X162.347 Y127.699
G1 F600 X152.3 Y117.651 E31.77955
G1 X152.212 Y117.563
G0 F1750 X151.593 Y117.651
G1 F600 X162.347 Y128.406 E32.22468
G1 X162.435 Y128.494
G0 F1750 X162.347 Y129.113
G1 F600 X150.885 Y117.651 E32.69911
G1 X150.797 Y117.563
G0 F1750 X150.178 Y117.651
G1 F600 X162.347 Y129.82 E33.20279
G1 X162.435 Y129.908
G0 F1750 X162.347 Y130.527
G1 F600 X149.471 Y117.651 E33.73574
G1 X149.383 Y117.563
G0 F1750 X148.764 Y117.651
G1 F600 X162.347 Y131.234 E34.29795
G1 X162.435 Y131.322
G0 F1750 X162.347 Y131.941
G1 F600 X148.057 Y117.651 E34.88942
G1 X147.969 Y117.563
G0 F1750 X147.35 Y117.651
G1 F600 X162.347 Y132.648 E35.51016
G1 X162.435 Y132.736
G0 F1750 X162.347 Y133.356
G1 F600 X146.643 Y117.651 E36.16018
G1 X146.555 Y117.563
G0 F1750 X145.936 Y117.651
G1 F600 X162.347 Y134.063 E36.83946
G1 X162.435 Y134.151
G0 F1750 X162.347 Y134.77
G1 F600 X145.229 Y117.651 E37.54801
G1 X145.141 Y117.563
G0 F1750 X144.522 Y117.651
G1 F600 X162.347 Y135.477 E38.28582
G1 X162.435 Y135.565
G0 F1750 X162.347 Y136.184
G1 F600 X143.814 Y117.651 E39.05291
G1 X143.726 Y117.563
G0 F1750 X143.107 Y117.651
G1 F600 X162.347 Y136.891 E39.84927
G1 X162.435 Y136.979
G0 F1750 X162.347 Y137.598
G1 F600 X142.4 Y117.651 E40.67489
G1 X142.312 Y117.563
G0 F1750 X141.693 Y117.651
G1 F600 X162.347 Y138.305 E41.52977
G1 X162.435 Y138.393
G0 F1750 X162.347 Y139.012
G1 F600 X140.986 Y117.651 E42.41392
G1 X140.898 Y117.563
G0 F1750 X140.279 Y117.651
G1 F600 X162.347 Y139.72 E43.32735
G1 X162.435 Y139.808
G0 F1750 X162.347 Y140.427
G1 F600 X139.572 Y117.651 E44.27005
G1 X139.484 Y117.563
G0 F1750 X138.865 Y117.651
G1 F600 X162.347 Y141.134 E45.24201
G1 X162.435 Y141.222
G0 F1750 X162.347 Y141.841
G1 F600 X138.158 Y117.651 E46.24323
G1 X138.07 Y117.563
G0 F1750 X137.45 Y117.651
G1 F600 X162.347 Y142.548 E47.27373
G1 X162.435 Y142.636
G0 F1750 X162.347 Y143.255
G1 F600 X136.743 Y117.651 E48.3335
G1 X136.655 Y117.563
G0 F1750 X136.036 Y117.651
G1 F600 X162.347 Y143.962 E49.42253
G1 X162.435 Y144.05
G0 F1750 X162.347 Y144.669
G1 F600 X135.329 Y117.651 E50.54082
G1 X135.241 Y117.563
G0 F1750 X134.622 Y117.651
G1 F600 X162.347 Y145.376 E51.68838
G1 X162.435 Y145.464
G0 F1750 X162.347 Y146.084
G1 F600 X133.915 Y117.651 E52.86522
G1 X133.827 Y117.563
G0 F1750 X133.208 Y117.651
G1 F600 X162.347 Y146.791 E54.07133
G1 X162.435 Y146.879
G0 F1750 X162.347 Y147.498
G1 F600 X132.501 Y117.651 E55.3067
G1 X132.413 Y117.563
G0 F1750 X131.794 Y117.651
G1 F600 X162.347 Y148.205 E56.57133
G1 X162.435 Y148.293
G0 F1750 X162.347 Y148.912
G1 F600 X131.086 Y117.651 E57.86524
G1 X130.998 Y117.563
G0 F1750 X130.379 Y117.651
G1 F600 X162.347 Y149.619 E59.18842
G1 X162.435 Y149.707
G0 F1750 X162.347 Y150.326
G1 F600 X129.672 Y117.651 E60.54087
G1 X129.584 Y117.563
G0 F1750 X128.965 Y117.651
G1 F600 X162.347 Y151.033 E61.92257
G1 X162.435 Y151.121
G0 F1750 X162.347 Y151.74
G1 F600 X128.258 Y117.651 E63.33354
G1 X128.17 Y117.563
G0 F1750 X127.551 Y117.651
G1 F600 X162.347 Y152.447 E64.77377
G1 X162.435 Y152.535
G0 F1750 X162.347 Y153.155
G1 F600 X126.844 Y117.651 E66.24329
G1 X126.756 Y117.563
G0 F1750 X126.137 Y117.651
G1 F600 X162.347 Y153.862 E67.74206
G1 X162.435 Y153.95
G0 F1750 X162.347 Y154.569
G1 F600 X125.43 Y117.651 E69.27011
G1 X125.342 Y117.563
G0 F1750 X124.723 Y117.651
G1 F600 X162.347 Y155.276 E70.82741
G1 X162.435 Y155.364
G0 F1750 X162.347 Y155.983
G1 F600 X124.015 Y117.651 E72.414
G1 X123.927 Y117.563
G0 F1750 X123.308 Y117.651
G1 F600 X162.347 Y156.69 E74.02985
G1 X162.435 Y156.778
G0 F1750 X162.347 Y157.397
G1 F600 X122.601 Y117.651 E75.67497
G1 X122.513 Y117.563
G0 F1750 X121.894 Y117.651
G1 F600 X162.347 Y158.104 E77.34935
G1 X162.435 Y158.192
G0 F1750 X162.347 Y158.811
G1 F600 X121.187 Y117.651 E79.05299
G1 X121.099 Y117.563
G0 F1750 X120.48 Y117.651
G1 F600 X162.347 Y159.519 E80.78592
G1 X162.435 Y159.607
G0 F1750 X162.347 Y160.226
G1 F600 X119.773 Y117.651 E82.54811
G1 X119.685 Y117.563
G0 F1750 X119.066 Y117.651
G1 F600 X162.347 Y160.933 E84.33956
G1 X162.435 Y161.021
G0 F1750 X162.347 Y161.64
G1 F600 X118.359 Y117.651 E86.16027
G1 X118.271 Y117.563
G0 F1750 X117.651 Y117.651
G1 F600 X162.347 Y162.347 E88.01027
G1 X162.435 Y162.435
G0 F1750 X161.639 Y162.346
G1 F600 X117.651 Y118.359 E89.83095
G1 X117.563 Y118.271
G0 F1750 X117.651 Y119.066
G1 F600 X160.932 Y162.346 E91.62236
G1 X161.02 Y162.434
G0 F1750 X160.225 Y162.346
G1 F600 X117.651 Y119.773 E93.38451
G1 X117.563 Y119.685
G0 F1750 X117.651 Y120.48
G1 F600 X159.518 Y162.346 E95.11739
G1 X159.606 Y162.434
G0 F1750 X158.811 Y162.346
G1 F600 X117.651 Y121.187 E96.82101
G1 X117.563 Y121.099
G0 F1750 X117.651 Y121.894
G1 F600 X158.104 Y162.346 E98.49537
G1 X158.192 Y162.434
G0 F1750 X157.397 Y162.346
G1 F600 X117.651 Y122.601 E100.14047
G1 X117.563 Y122.513
G0 F1750 X117.651 Y123.308
G1 F600 X156.689 Y162.346 E101.75628
G1 X156.777 Y162.434
G0 F1750 X155.982 Y162.346
G1 F600 X117.651 Y124.015 E103.34283
G1 X117.563 Y123.927
G0 F1750 X117.651 Y124.723
G1 F600 X155.275 Y162.346 E104.90009
G1 X155.363 Y162.434
G0 F1750 X154.568 Y162.346
G1 F600 X117.651 Y125.43 E106.42809
G1 X117.563 Y125.342
G0 F1750 X117.651 Y126.137
G1 F600 X153.861 Y162.346 E107.92683
G1 X153.949 Y162.434
G0 F1750 X153.154 Y162.346
G1 F600 X117.651 Y126.844 E109.3963
G1 X117.563 Y126.756
G0 F1750 X117.651 Y127.551
G1 F600 X152.447 Y162.346 E110.83651
G1 X152.535 Y162.434
G0 F1750 X151.74 Y162.346
G1 F600 X117.651 Y128.258 E112.24746
G1 X117.563 Y128.17
G0 F1750 X117.651 Y128.965
G1 F600 X151.033 Y162.346 E113.62915
G1 X151.121 Y162.434
G0 F1750 X150.325 Y162.346
G1 F600 X117.651 Y129.672 E114.98155
G1 X117.563 Y129.584
G0 F1750 X117.651 Y130.379
G1 F600 X149.618 Y162.346 E116.30468
G1 X149.706 Y162.434
G0 F1750 X148.911 Y162.346
G1 F600 X117.651 Y131.086 E117.59856
G1 X117.563 Y130.998
G0 F1750 X117.651 Y131.794
G1 F600 X148.204 Y162.346 E118.86315
G1 X148.292 Y162.434
G0 F1750 X147.497 Y162.346
G1 F600 X117.651 Y132.501 E120.09847
G1 X117.563 Y132.413
G0 F1750 X117.651 Y133.208
G1 F600 X146.79 Y162.346 E121.30454
G1 X146.878 Y162.434
G0 F1750 X146.083 Y162.346
G1 F600 X117.651 Y133.915 E122.48134
G1 X117.563 Y133.827
G0 F1750 X117.651 Y134.622
G1 F600 X145.376 Y162.346 E123.62888
G1 X145.464 Y162.434
G0 F1750 X144.669 Y162.346
G1 F600 X117.651 Y135.329 E124.74715
G1 X117.563 Y135.241
G0 F1750 X117.651 Y136.036
G1 F600 X143.961 Y162.346 E125.83614
G1 X144.049 Y162.434
G0 F1750 X143.254 Y162.346
G1 F600 X117.651 Y136.743 E126.89587
G1 X117.563 Y136.655
G0 F1750 X117.651 Y137.45
G1 F600 X142.547 Y162.346 E127.92633
G1 X142.635 Y162.434
G0 F1750 X141.84 Y162.346
G1 F600 X117.651 Y138.158 E128.92751
G1 X117.563 Y138.07
G0 F1750 X117.651 Y138.865
G1 F600 X141.133 Y162.346 E129.89942
G1 X141.221 Y162.434
G0 F1750 X140.426 Y162.346
G1 F600 X117.651 Y139.572 E130.84208
G1 X117.563 Y139.484
G0 F1750 X117.651 Y140.279
G1 F600 X139.719 Y162.346 E131.75547
G1 X139.807 Y162.434
G0 F1750 X139.012 Y162.346
G1 F600 X117.651 Y140.986 E132.63959
G1 X117.563 Y140.898
G0 F1750 X117.651 Y141.693
G1 F600 X138.305 Y162.346 E133.49446
G1 X138.393 Y162.434
G0 F1750 X137.598 Y162.346
G1 F600 X117.651 Y142.4 E134.32006
G1 X117.563 Y142.312
G0 F1750 X117.651 Y143.107
G1 F600 X136.89 Y162.346 E135.11637
G1 X136.978 Y162.434
G0 F1750 X136.183 Y162.346
G1 F600 X117.651 Y143.814 E135.88343
G1 X117.563 Y143.726
G0 F1750 X117.651 Y144.522
G1 F600 X135.476 Y162.346 E136.6212
G1 X135.564 Y162.434
G0 F1750 X134.769 Y162.346
G1 F600 X117.651 Y145.229 E137.3297
G1 X117.563 Y145.141
G0 F1750 X117.651 Y145.936
G1 F600 X134.062 Y162.346 E138.00894
G1 X134.15 Y162.434
G0 F1750 X133.355 Y162.346
G1 F600 X117.651 Y146.643 E138.65892
G1 X117.563 Y146.555
G0 F1750 X117.651 Y147.35
G1 F600 X132.648 Y162.346 E139.27964
G1 X132.736 Y162.434
G0 F1750 X131.941 Y162.346
G1 F600 X117.651 Y148.057 E139.87109
G1 X117.563 Y147.969
G0 F1750 X117.651 Y148.764
G1 F600 X131.234 Y162.346 E140.43328
G1 X131.322 Y162.434
G0 F1750 X130.526 Y162.346
G1 F600 X117.651 Y149.471 E140.96619
G1 X117.563 Y149.383
G0 F1750 X117.651 Y150.178
G1 F600 X129.819 Y162.346 E141.46983
G1 X129.907 Y162.434
G0 F1750 X129.112 Y162.346
G1 F600 X117.651 Y150.885 E141.94421
G1 X117.563 Y150.797
G0 F1750 X117.651 Y151.593
G1 F600 X128.405 Y162.346 E142.3893
G1 X128.493 Y162.434
G0 F1750 X127.698 Y162.346
G1 F600 X117.651 Y152.3 E142.80514
G1 X117.563 Y152.212
G0 F1750 X117.651 Y153.007
G1 F600 X126.991 Y162.346 E143.1917
G1 X127.079 Y162.434
G0 F1750 X126.284 Y162.346
G1 F600 X117.651 Y153.714 E143.54901
G1 X117.563 Y153.626
G0 F1750 X117.651 Y154.421
G1 F600 X125.577 Y162.346 E143.87705
G1 X125.665 Y162.434
G0 F1750 X124.87 Y162.346
G1 F600 X117.651 Y155.128 E144.17583
G1 X117.563 Y155.04
G0 F1750 X117.651 Y155.835
G1 F600 X124.163 Y162.346 E144.44535
G1 X124.251 Y162.434
G0 F1750 X123.455 Y162.346
G1 F600 X117.651 Y156.542 E144.68558
G1 X117.563 Y156.454
G0 F1750 X117.651 Y157.249
G1 F600 X122.748 Y162.346 E144.89655
G1 X122.836 Y162.434
G0 F1750 X122.041 Y162.346
G1 F600 X117.651 Y157.957 E145.07823
G1 X117.563 Y157.869
G0 F1750 X117.651 Y158.664
