;Generated by Cura LulzBot Edition GCodeWriter Version: 3.2.27
;FLAVOR:Marlin
;TIME:11584
;Filament used: 2.73885m
;Layer height: 0.25
;Generated with Cura_SteamEngine 3.2.27
M82 ;absolute extrusion mode
;This G-Code has been generated specifically for the LulzBot TAZ 6 with standard extruder
M75 ; start GLCD timer
G26 ; clear potential 'probe fail' condition
G21 ; set units to Millimetres
M107 ; disable fans
M420 S0 ; disable previous leveling matrix
G90 ; absolute positioning
M82 ; set extruder to absolute mode
G92 E0 ; set extruder position to 0
M140 S105 ; start bed heating up
M109 R170 ; soften filament before homing Z
G28 ; Home all axis
G1 E-30 F100 ; retract filament
M109 R170 ; wait for extruder to reach wiping temp
G1 X-15 Y100 F3000 ; move above wiper pad
G1 Z1 ; push nozzle into wiper
G1 X-17 Y95 F1000 ; slow wipe
G1 X-17 Y90 F1000 ; slow wipe
G1 X-17 Y85 F1000 ; slow wipe
G1 X-15 Y90 F1000 ; slow wipe
G1 X-17 Y80 F1000 ; slow wipe
G1 X-15 Y95 F1000 ; slow wipe
G1 X-17 Y75 F2000 ; fast wipe
G1 X-15 Y65 F2000 ; fast wipe
G1 X-17 Y70 F2000 ; fast wipe
G1 X-15 Y60 F2000 ; fast wipe
G1 X-17 Y55 F2000 ; fast wipe
G1 X-15 Y50 F2000 ; fast wipe
G1 X-17 Y40 F2000 ; fast wipe
G1 X-15 Y45 F2000 ; fast wipe
G1 X-17 Y35 F2000 ; fast wipe
G1 X-15 Y40 F2000 ; fast wipe
G1 X-17 Y70 F2000 ; fast wipe
G1 X-15 Y30 Z2 F2000 ; fast wipe
G1 X-17 Y35 F2000 ; fast wipe
G1 X-15 Y25 F2000 ; fast wipe
G1 X-17 Y30 F2000 ; fast wipe
G1 X-15 Y25 Z1.5 F1000 ; slow wipe
G1 X-17 Y23 F1000 ; slow wipe
G1 Z10 ; raise extruder
M109 R170 ; wait for extruder to reach probe temp
G1 X-9 Y-9 ; move above first probe point
M204 S100 ; set probing acceleration
G29 ; start auto-leveling sequence
M420 S1 ; activate bed level matrix
M425 Z			     ; use measured Z backlash for compensation
M425 Z F0		     ; turn off measured Z backlash compensation. (if activated in the quality settings, this command will automatically be ignored)
M204 S500 ; restore standard acceleration
G1 X0 Y0 Z15 F5000 ; move up off last probe point
G4 S1 ; pause
M400 ; wait for moves to finish
M117 Heating... ; progress indicator message on LCD
M109 R245 ; wait for extruder to reach printing temp
M190 S105 ; wait for bed to reach printing temp
G1 Z2 E0 F75 ; prime tiny bit of filament into the nozzle
M117 TAZ 6 Printing... ; progress indicator message on LCD

M221 S100
;LAYER_COUNT:279
;LAYER:0
M107
G0 F1750 X113.103 Y99.296 Z0.4
;TYPE:SKIRT
G1 F600 X113.49 Y98.964 E0.01492
G1 X113.925 Y98.698 E0.02985
G1 X114.395 Y98.502 E0.04475
G1 X114.89 Y98.383 E0.05965
G1 X115.403 Y98.342 E0.07471
G1 X164.597 Y98.343 E1.51451
G1 X165.105 Y98.383 E1.52942
G1 X165.6 Y98.502 E1.54432
G1 X166.071 Y98.697 E1.55924
G1 X166.506 Y98.963 E1.57416
G1 X166.893 Y99.293 E1.58905
G1 X167.225 Y99.68 E1.60397
G1 X167.491 Y100.115 E1.6189
G1 X167.687 Y100.585 E1.6338
G1 X167.806 Y101.08 E1.6487
G1 X167.847 Y101.593 E1.66376
G1 X167.847 Y178.409 E3.91199
G1 X167.807 Y178.917 E3.9269
G1 X167.688 Y179.412 E3.9418
G1 X167.493 Y179.883 E3.95672
G1 X167.227 Y180.318 E3.97164
G1 X166.897 Y180.705 E3.98653
G1 X166.51 Y181.037 E4.00145
G1 X166.075 Y181.303 E4.01638
G1 X165.605 Y181.499 E4.03128
G1 X165.11 Y181.618 E4.04618
G1 X164.597 Y181.659 E4.06124
G1 X115.403 Y181.659 E5.50104
G1 X114.895 Y181.619 E5.51595
G1 X114.4 Y181.5 E5.53085
G1 X113.929 Y181.305 E5.54577
G1 X113.494 Y181.039 E5.56069
G1 X113.107 Y180.709 E5.57558
G1 X112.775 Y180.322 E5.5905
G1 X112.509 Y179.887 E5.60542
G1 X112.313 Y179.417 E5.62033
G1 X112.194 Y178.922 E5.63523
G1 X112.153 Y178.409 E5.65029
G1 X112.153 Y101.592 E7.89854
G1 X112.193 Y101.084 E7.91346
G1 X112.312 Y100.589 E7.92836
G1 X112.507 Y100.118 E7.94328
G1 X112.773 Y99.683 E7.9582
G1 X113.103 Y99.296 E7.97309
G1 F600 E6.97309
G0 F1750 X114.729 Y102.347
G0 X116.158 Y102.347
G0 X126.48 Y115.367
G0 X126.55 Y115.437
;TYPE:WALL-INNER
G1 F600 E7.97309
G1 X126.55 Y126.463 E8.29579
G1 X131.225 Y126.463 E8.43262
G1 X131.225 Y115.437 E8.75532
G1 X126.55 Y115.437 E8.89215
G0 F1750 X126.48 Y115.367
G0 X148.705 Y115.367
G0 X148.775 Y115.437
G1 F600 X148.775 Y126.463 E9.21486
G1 X153.45 Y126.463 E9.35168
G1 X153.45 Y115.437 E9.67439
G1 X148.775 Y115.437 E9.81121
G0 F1750 X148.705 Y115.367
G0 X148.705 Y153.468
G0 X148.775 Y153.538
G1 F600 X148.775 Y164.563 E10.13389
G1 X153.45 Y164.563 E10.27072
G1 X153.45 Y153.538 E10.59339
G1 X148.775 Y153.538 E10.73022
G0 F1750 X148.705 Y153.468
G0 X126.48 Y153.468
G0 X126.55 Y153.538
G1 F600 X126.55 Y164.563 E11.05289
G1 X131.225 Y164.563 E11.18972
G1 X131.225 Y153.538 E11.5124
G1 X126.55 Y153.538 E11.64922
G0 F1750 X126.48 Y153.468
G0 X131.253 Y153.51
G0 X163.786 Y177.598
G0 X163.856 Y177.668
G1 F600 X116.144 Y177.668 E13.04564
G1 X116.144 Y102.333 E15.25052
G1 X163.856 Y102.333 E16.64694
G1 X163.856 Y177.668 E18.85182
G0 F1750 X164.356 Y178.168
;TYPE:WALL-OUTER
G1 F600 X115.644 Y178.168 E20.2775
G1 X115.644 Y101.833 E22.51165
G1 X164.356 Y101.833 E23.93734
G1 X164.356 Y178.168 E26.17148
G0 F1750 X164.106 Y178.168
G0 X163.786 Y177.598
G0 X148.747 Y164.591
G0 X148.675 Y154.038
G0 X149.275 Y154.038
G1 F600 X149.275 Y164.063 E26.46489
G1 X152.95 Y164.063 E26.57245
G1 X152.95 Y154.038 E26.86586
G1 X149.275 Y154.038 E26.97342
G0 F1750 X149.275 Y154.288
G0 X148.675 Y154.288
G0 X131.253 Y164.591
G0 X126.522 Y164.591
G0 X126.45 Y154.038
G0 X127.05 Y154.038
G1 F600 X127.05 Y164.063 E27.26683
G1 X130.725 Y164.063 E27.37439
G1 X130.725 Y154.038 E27.66779
G1 X127.05 Y154.038 E27.77535
G0 F1750 X127.05 Y154.288
G0 X126.45 Y154.288
G0 X126.45 Y115.937
G0 X127.05 Y115.937
G1 F600 X127.05 Y125.963 E28.06879
G1 X130.725 Y125.963 E28.17635
G1 X130.725 Y115.937 E28.46979
G1 X127.05 Y115.937 E28.57735
G0 F1750 X127.05 Y116.187
G0 X126.45 Y116.187
G0 X126.522 Y115.409
G0 X130.353 Y115.409
G0 X148.675 Y115.937
G0 X149.275 Y115.937
G1 F600 X149.275 Y125.963 E28.87078
G1 X152.95 Y125.963 E28.97834
G1 X152.95 Y115.937 E29.27178
G1 X149.275 Y115.937 E29.37934
G0 F1750 X149.275 Y116.187
G0 X148.675 Y116.187
G0 X148.285 Y114.947
;TYPE:SKIN
G1 F600 X148.285 Y126.953 E29.73073
G1 X153.94 Y126.953 E29.89623
G1 X153.94 Y114.947 E30.24762
G1 X148.285 Y114.947 E30.41313
G0 F1750 X131.715 Y114.947
G1 F600 X126.06 Y114.947 E30.57864
G1 X126.06 Y126.953 E30.93003
G1 X131.715 Y126.953 E31.09553
G1 X131.715 Y114.947 E31.44692
G0 F1750 X163.366 Y102.823
G1 F600 X163.366 Y177.178 E33.62312
G1 X116.634 Y177.178 E34.99086
G1 X116.634 Y102.823 E37.16705
G1 X163.366 Y102.823 E38.53479
G0 F1750 X148.285 Y153.048
G1 F600 X148.285 Y165.053 E38.88615
G1 X153.94 Y165.053 E39.05166
G1 X153.94 Y153.048 E39.40301
G1 X148.285 Y153.048 E39.56852
G0 F1750 X131.715 Y153.048
G1 F600 X126.06 Y153.048 E39.73403
G1 X126.06 Y165.053 E40.08539
G1 X131.715 Y165.053 E40.2509
G1 X131.715 Y153.048 E40.60226
G0 F1750 X131.253 Y164.591
G0 X117.555 Y176.952
G1 F600 X116.858 Y176.255 E40.63111
G0 F1750 X116.858 Y175.548
G1 F600 X118.262 Y176.952 E40.68922
G1 X118.35 Y177.04
G0 F1750 X118.969 Y176.952
G1 F600 X116.858 Y174.841 E40.77659
G1 X116.77 Y174.753
G0 F1750 X116.858 Y174.134
G1 F600 X119.676 Y176.952 E40.89323
G1 X119.764 Y177.04
G0 F1750 X120.383 Y176.952
G1 F600 X116.858 Y173.427 E41.03914
G1 X116.77 Y173.339
G0 F1750 X116.858 Y172.72
G1 F600 X121.09 Y176.952 E41.2143
G1 X121.178 Y177.04
G0 F1750 X121.797 Y176.952
G1 F600 X116.858 Y172.012 E41.41875
G1 X116.77 Y171.924
G0 F1750 X116.858 Y171.305
G1 F600 X122.504 Y176.952 E41.65246
G1 X122.592 Y177.04
G0 F1750 X123.211 Y176.952
G1 F600 X116.858 Y170.598 E41.91544
G1 X116.77 Y170.51
G0 F1750 X116.858 Y169.891
G1 F600 X123.919 Y176.952 E42.2077
G1 X124.007 Y177.04
G0 F1750 X124.626 Y176.952
G1 F600 X116.858 Y169.184 E42.52922
G1 X116.77 Y169.096
G0 F1750 X116.858 Y168.477
G1 F600 X125.333 Y176.952 E42.88001
G1 X125.421 Y177.04
G0 F1750 X126.04 Y176.952
G1 F600 X116.858 Y167.77 E43.26006
G1 X116.77 Y167.682
G0 F1750 X116.858 Y167.063
G1 F600 X126.747 Y176.952 E43.66937
G1 X126.835 Y177.04
G0 F1750 X127.454 Y176.952
G1 F600 X116.858 Y166.356 E44.10795
G1 X116.77 Y166.268
G0 F1750 X116.858 Y165.648
G1 F600 X128.161 Y176.952 E44.57581
G1 X128.249 Y177.04
G0 F1750 X128.868 Y176.952
G1 F600 X116.858 Y164.941 E45.07293
G1 X116.77 Y164.853
G0 F1750 X116.858 Y164.234
G1 F600 X129.575 Y176.952 E45.59932
G1 X129.663 Y177.04
G0 F1750 X130.283 Y176.952
G1 F600 X116.858 Y163.527 E46.15499
G1 X116.77 Y163.439
G0 F1750 X116.858 Y162.82
G1 F600 X130.99 Y176.952 E46.73992
G1 X131.078 Y177.04
G0 F1750 X131.697 Y176.952
G1 F600 X116.858 Y162.113 E47.35412
G1 X116.77 Y162.025
G0 F1750 X116.858 Y161.406
G1 F600 X132.404 Y176.952 E47.99758
G1 X132.492 Y177.04
G0 F1750 X133.111 Y176.952
G1 F600 X116.858 Y160.699 E48.6703
G1 X116.77 Y160.611
G0 F1750 X116.858 Y159.992
G1 F600 X133.818 Y176.952 E49.37229
G1 X133.906 Y177.04
G0 F1750 X134.525 Y176.952
G1 F600 X116.858 Y159.284 E50.10356
G1 X116.77 Y159.196
G0 F1750 X116.858 Y158.577
G1 F600 X135.232 Y176.952 E50.86409
G1 X135.32 Y177.04
G0 F1750 X135.939 Y176.952
G1 F600 X116.858 Y157.87 E51.65389
G1 X116.77 Y157.782
G0 F1750 X116.858 Y157.163
G1 F600 X136.646 Y176.952 E52.47295
G1 X136.734 Y177.04
G0 F1750 X137.354 Y176.952
G1 F600 X116.858 Y156.456 E53.32129
G1 X116.77 Y156.368
G0 F1750 X116.858 Y155.749
G1 F600 X125.834 Y164.725 E53.69282
G1 X125.922 Y164.813
G0 F1750 X125.834 Y164.018
G1 F600 X116.858 Y155.042 E54.06434
G1 X116.77 Y154.954
G0 F1750 X116.858 Y154.335
G1 F600 X125.834 Y163.311 E54.43586
G1 X125.922 Y163.399
G0 F1750 X125.834 Y162.604
G1 F600 X116.858 Y153.628 E54.80739
G1 X116.77 Y153.54
G0 F1750 X116.858 Y152.921
G1 F600 X125.834 Y161.897 E55.17891
G1 X125.922 Y161.985
G0 F1750 X125.834 Y161.189
G1 F600 X116.858 Y152.213 E55.55043
G1 X116.77 Y152.125
G0 F1750 X116.858 Y151.506
G1 F600 X125.834 Y160.482 E55.92196
G1 X125.922 Y160.57
G0 F1750 X125.834 Y159.775
G1 F600 X116.858 Y150.799 E56.29348
G1 X116.77 Y150.711
G0 F1750 X116.858 Y150.092
G1 F600 X125.834 Y159.068 E56.665
G1 X125.922 Y159.156
G0 F1750 X125.834 Y158.361
G1 F600 X116.858 Y149.385 E57.03653
G1 X116.77 Y149.297
G0 F1750 X116.858 Y148.678
G1 F600 X125.834 Y157.654 E57.40805
G1 X125.922 Y157.742
G0 F1750 X125.834 Y156.947
G1 F600 X116.858 Y147.971 E57.77957
G1 X116.77 Y147.883
G0 F1750 X116.858 Y147.264
G1 F600 X125.834 Y156.24 E58.1511
G1 X125.922 Y156.328
G0 F1750 X125.834 Y155.533
G1 F600 X116.858 Y146.557 E58.52262
G1 X116.77 Y146.469
G0 F1750 X116.858 Y145.849
G1 F600 X125.834 Y154.825 E58.89414
G1 X125.922 Y154.913
G0 F1750 X125.834 Y154.118
G1 F600 X116.858 Y145.142 E59.26567
G1 X116.77 Y145.054
G0 F1750 X116.858 Y144.435
G1 F600 X125.834 Y153.411 E59.63719
G1 X125.922 Y153.499
G0 F1750 X125.951 Y152.822
G1 F600 X116.858 Y143.728 E60.01357
G1 X116.77 Y143.64
G0 F1750 X116.858 Y143.021
G1 F600 X126.659 Y152.822 E60.41925
G1 X126.747 Y152.91
G0 F1750 X127.366 Y152.822
G1 F600 X116.858 Y142.314 E60.85418
G1 X116.77 Y142.226
G0 F1750 X116.858 Y141.607
G1 F600 X128.073 Y152.822 E61.31838
G1 X128.161 Y152.91
G0 F1750 X128.78 Y152.822
G1 F600 X116.858 Y140.9 E61.81184
G1 X116.77 Y140.812
G0 F1750 X116.858 Y140.193
G1 F600 X129.487 Y152.822 E62.33456
G1 X129.575 Y152.91
G0 F1750 X130.194 Y152.822
G1 F600 X116.857 Y139.485 E62.88659
G1 X116.769 Y139.397
G0 F1750 X116.857 Y138.778
G1 F600 X130.901 Y152.822 E63.46788
G1 X130.989 Y152.91
G0 F1750 X131.608 Y152.822
G1 F600 X116.857 Y138.071 E64.07843
G1 X116.769 Y137.983
G0 F1750 X116.857 Y137.363
G1 F600 X156.445 Y176.952 E65.71703
G1 X156.533 Y177.04
G0 F1750 X155.738 Y176.952
G1 F600 X131.939 Y153.152 E66.70211
G1 X131.851 Y153.064
G0 F1750 X131.939 Y153.86
G1 F600 X155.031 Y176.952 E67.6579
G1 X155.119 Y177.04
G0 F1750 X154.324 Y176.952
G1 F600 X131.939 Y154.567 E68.58443
G1 X131.851 Y154.479
G0 F1750 X131.939 Y155.274
G1 F600 X153.617 Y176.952 E69.4817
G1 X153.705 Y177.04
G0 F1750 X152.91 Y176.952
G1 F600 X131.939 Y155.981 E70.34971
G1 X131.851 Y155.893
G0 F1750 X131.939 Y156.688
G1 F600 X152.203 Y176.952 E71.18845
G1 X152.291 Y177.04
G0 F1750 X151.496 Y176.952
G1 F600 X131.939 Y157.395 E71.99793
G1 X131.851 Y157.307
G0 F1750 X131.939 Y158.102
G1 F600 X150.789 Y176.952 E72.77814
G1 X150.877 Y177.04
G0 F1750 X150.082 Y176.952
G1 F600 X131.939 Y158.809 E73.52909
G1 X131.851 Y158.721
G0 F1750 X131.939 Y159.516
G1 F600 X149.374 Y176.952 E74.25076
G1 X149.462 Y177.04
G0 F1750 X148.667 Y176.952
G1 F600 X131.939 Y160.224 E74.94315
G1 X131.851 Y160.136
G0 F1750 X131.939 Y160.931
G1 F600 X147.96 Y176.952 E75.60627
G1 X148.048 Y177.04
G0 F1750 X147.253 Y176.952
G1 F600 X131.939 Y161.638 E76.24012
G1 X131.851 Y161.55
G0 F1750 X131.939 Y162.345
G1 F600 X146.546 Y176.952 E76.84472
G1 X146.634 Y177.04
G0 F1750 X145.839 Y176.952
G1 F600 X131.939 Y163.052 E77.42005
G1 X131.851 Y162.964
G0 F1750 X131.939 Y163.759
G1 F600 X145.132 Y176.952 E77.96612
G1 X145.22 Y177.04
G0 F1750 X144.425 Y176.952
G1 F600 X131.939 Y164.466 E78.48292
G1 X131.851 Y164.378
G0 F1750 X131.939 Y165.173
G1 F600 X143.718 Y176.952 E78.97046
G1 X143.806 Y177.04
G0 F1750 X143.01 Y176.952
G1 F600 X131.335 Y165.277 E79.4537
G1 X131.247 Y165.189
G0 F1750 X130.628 Y165.277
G1 F600 X142.303 Y176.952 E79.93694
G1 X142.391 Y177.04
G0 F1750 X141.596 Y176.952
G1 F600 X129.921 Y165.277 E80.42017
G1 X129.833 Y165.189
G0 F1750 X129.214 Y165.277
G1 F600 X140.889 Y176.952 E80.90341
G1 X140.977 Y177.04
G0 F1750 X140.182 Y176.952
G1 F600 X128.507 Y165.277 E81.38665
G1 X128.419 Y165.189
G0 F1750 X127.8 Y165.277
G1 F600 X139.475 Y176.952 E81.86988
G1 X139.563 Y177.04
G0 F1750 X138.768 Y176.952
G1 F600 X127.093 Y165.277 E82.35312
G1 X127.005 Y165.189
G0 F1750 X126.386 Y165.277
G1 F600 X138.061 Y176.952 E82.83636
G1 X138.149 Y177.04
G0 F1750 X148.307 Y165.277
G1 F600 X159.981 Y176.952 E83.31957
G1 X160.069 Y177.04
G0 F1750 X159.274 Y176.952
G1 F600 X116.857 Y134.535 E85.07524
G1 X116.769 Y134.447
G0 F1750 X116.857 Y133.828
G1 F600 X148.06 Y165.03 E86.36674
G1 X148.148 Y165.118
G0 F1750 X148.06 Y164.323
G1 F600 X116.857 Y133.121 E87.65823
G1 X116.769 Y133.033
G0 F1750 X116.857 Y132.414
G1 F600 X148.06 Y163.616 E88.94973
G1 X148.148 Y163.704
G0 F1750 X148.06 Y162.909
G1 F600 X116.857 Y131.707 E90.24122
G1 X116.769 Y131.619
G0 F1750 X116.857 Y131
G1 F600 X148.06 Y162.202 E91.53271
G1 X148.148 Y162.29
G0 F1750 X148.06 Y161.495
G1 F600 X116.857 Y130.292 E92.82423
G1 X116.769 Y130.204
G0 F1750 X116.857 Y129.585
G1 F600 X148.06 Y160.788 E94.11574
G1 X148.148 Y160.876
G0 F1750 X148.06 Y160.081
G1 F600 X116.857 Y128.878 E95.40726
G1 X116.769 Y128.79
G0 F1750 X116.857 Y128.171
G1 F600 X148.06 Y159.374 E96.69877
G1 X148.148 Y159.462
G0 F1750 X148.06 Y158.666
G1 F600 X116.857 Y127.464 E97.99027
G1 X116.769 Y127.376
G0 F1750 X116.857 Y126.757
G1 F600 X148.06 Y157.959 E99.28176
G1 X148.148 Y158.047
G0 F1750 X148.06 Y157.252
G1 F600 X116.857 Y126.05 E100.57326
G1 X116.769 Y125.962
G0 F1750 X116.857 Y125.343
G1 F600 X148.06 Y156.545 E101.86475
G1 X148.148 Y156.633
G0 F1750 X148.06 Y155.838
G1 F600 X116.857 Y124.636 E103.15624
G1 X116.769 Y124.548
G0 F1750 X116.857 Y123.928
G1 F600 X148.06 Y155.131 E104.44776
G1 X148.148 Y155.219
G0 F1750 X148.06 Y154.424
G1 F600 X116.857 Y123.221 E105.73927
G1 X116.769 Y123.133
G0 F1750 X116.857 Y122.514
G1 F600 X148.06 Y153.717 E107.03079
G1 X148.148 Y153.805
G0 F1750 X148.06 Y153.01
G1 F600 X116.857 Y121.807 E108.3223
G1 X116.769 Y121.719
G0 F1750 X116.857 Y121.1
G1 F600 X148.579 Y152.822 E109.6353
G1 X148.667 Y152.91
G0 F1750 X149.286 Y152.822
G1 F600 X116.857 Y120.393 E110.97756
G1 X116.769 Y120.305
G0 F1750 X116.857 Y119.686
G1 F600 X149.993 Y152.822 E112.34908
G1 X150.081 Y152.91
G0 F1750 X150.7 Y152.822
G1 F600 X116.857 Y118.979 E113.74987
G1 X116.769 Y118.891
G0 F1750 X116.857 Y118.272
G1 F600 X151.408 Y152.822 E115.17994
G1 X151.496 Y152.91
G0 F1750 X152.115 Y152.822
G1 F600 X126.47 Y127.178 E116.24138
G1 X126.382 Y127.09
G0 F1750 X127.178 Y127.178
G1 F600 X152.822 Y152.822 E117.30281
G1 X152.91 Y152.91
G0 F1750 X153.529 Y152.822
G1 F600 X127.885 Y127.178 E118.36423
G1 X127.797 Y127.09
G0 F1750 X128.592 Y127.178
G1 F600 X163.14 Y161.726 E119.7942
G1 X163.228 Y161.814
G0 F1750 X163.14 Y162.433
G1 F600 X154.164 Y153.457 E120.16572
