;Generated by Cura LulzBot Edition GCodeWriter Version: 3.2.27
;FLAVOR:Marlin
;TIME:36222
;Filament used: 24.7966m
;Layer height: 0.25
;Generated with Cura_SteamEngine 3.2.27
M82 ;absolute extrusion mode
;This G-Code has been generated specifically for the LulzBot TAZ 6 with standard extruder
M75 ; start GLCD timer
G26 ; clear potential 'probe fail' condition
G21 ; set units to Millimetres
M107 ; disable fans
M420 S0 ; disable previous leveling matrix
G90 ; absolute positioning
M82 ; set extruder to absolute mode
G92 E0 ; set extruder position to 0
M140 S105 ; start bed heating up
M109 R170 ; soften filament before homing Z
G28 ; Home all axis
G1 E-30 F100 ; retract filament
M109 R170 ; wait for extruder to reach wiping temp
G1 X-15 Y100 F3000 ; move above wiper pad
G1 Z1 ; push nozzle into wiper
G1 X-17 Y95 F1000 ; slow wipe
G1 X-17 Y90 F1000 ; slow wipe
G1 X-17 Y85 F1000 ; slow wipe
G1 X-15 Y90 F1000 ; slow wipe
G1 X-17 Y80 F1000 ; slow wipe
G1 X-15 Y95 F1000 ; slow wipe
G1 X-17 Y75 F2000 ; fast wipe
G1 X-15 Y65 F2000 ; fast wipe
G1 X-17 Y70 F2000 ; fast wipe
G1 X-15 Y60 F2000 ; fast wipe
G1 X-17 Y55 F2000 ; fast wipe
G1 X-15 Y50 F2000 ; fast wipe
G1 X-17 Y40 F2000 ; fast wipe
G1 X-15 Y45 F2000 ; fast wipe
G1 X-17 Y35 F2000 ; fast wipe
G1 X-15 Y40 F2000 ; fast wipe
G1 X-17 Y70 F2000 ; fast wipe
G1 X-15 Y30 Z2 F2000 ; fast wipe
G1 X-17 Y35 F2000 ; fast wipe
G1 X-15 Y25 F2000 ; fast wipe
G1 X-17 Y30 F2000 ; fast wipe
G1 X-15 Y25 Z1.5 F1000 ; slow wipe
G1 X-17 Y23 F1000 ; slow wipe
G1 Z10 ; raise extruder
M109 R170 ; wait for extruder to reach probe temp
G1 X-9 Y-9 ; move above first probe point
M204 S100 ; set probing acceleration
G29 ; start auto-leveling sequence
M420 S1 ; activate bed level matrix
M425 Z			     ; use measured Z backlash for compensation
M425 Z F0		     ; turn off measured Z backlash compensation. (if activated in the quality settings, this command will automatically be ignored)
M204 S500 ; restore standard acceleration
G1 X0 Y0 Z15 F5000 ; move up off last probe point
G4 S1 ; pause
M400 ; wait for moves to finish
M117 Heating... ; progress indicator message on LCD
M109 R245 ; wait for extruder to reach printing temp
M190 S105 ; wait for bed to reach printing temp
G1 Z2 E0 F75 ; prime tiny bit of filament into the nozzle
M117 TAZ 6 Printing... ; progress indicator message on LCD

M221 S100
;LAYER_COUNT:279
;LAYER:0
M107
G0 F1750 X72.376 Y36.189 Z0.4
;TYPE:SKIRT
G1 F600 X72.716 Y35.675 E0.01804
G1 X73.141 Y35.187 E0.03698
G1 X73.287 Y35.041 E0.04302
G1 X73.75 Y34.635 E0.06104
G1 X74.262 Y34.292 E0.07908
G1 X74.814 Y34.018 E0.09712
G1 X75.396 Y33.817 E0.11514
G1 X76 Y33.694 E0.13318
G1 X76.646 Y33.65 E0.15213
G1 X203.354 Y33.65 E3.86058
G1 X203.969 Y33.69 E3.87861
G1 X204.573 Y33.809 E3.89663
G1 X205.157 Y34.006 E3.91467
G1 X205.711 Y34.276 E3.93271
G1 X206.225 Y34.616 E3.95074
G1 X206.713 Y35.041 E3.96968
G1 X206.859 Y35.187 E3.97573
G1 X207.265 Y35.65 E3.99375
G1 X207.608 Y36.162 E4.01179
G1 X207.882 Y36.714 E4.02982
G1 X208.083 Y37.296 E4.04784
G1 X208.206 Y37.9 E4.06588
G1 X208.25 Y38.546 E4.08483
G1 X208.25 Y241.454 E10.02348
G1 X208.21 Y242.069 E10.04152
G1 X208.091 Y242.673 E10.05953
G1 X207.894 Y243.257 E10.07757
G1 X207.624 Y243.811 E10.09561
G1 X207.284 Y244.325 E10.11365
G1 X206.859 Y244.813 E10.13259
G1 X206.713 Y244.959 E10.13863
G1 X206.25 Y245.365 E10.15665
G1 X205.738 Y245.708 E10.17469
G1 X205.186 Y245.982 E10.19272
G1 X204.604 Y246.183 E10.21075
G1 X204 Y246.306 E10.22879
G1 X203.354 Y246.35 E10.24774
G1 X76.646 Y246.35 E13.95618
G1 X76.031 Y246.31 E13.97422
G1 X75.427 Y246.191 E13.99224
G1 X74.843 Y245.994 E14.01028
G1 X74.289 Y245.724 E14.02831
G1 X73.775 Y245.384 E14.04635
G1 X73.287 Y244.959 E14.06529
G1 X73.141 Y244.813 E14.07133
G1 X72.735 Y244.35 E14.08936
G1 X72.392 Y243.838 E14.10739
G1 X72.118 Y243.286 E14.12543
G1 X71.917 Y242.704 E14.14345
G1 X71.794 Y242.1 E14.16149
G1 X71.75 Y241.454 E14.18044
G1 X71.75 Y38.546 E20.11909
G1 X71.79 Y37.931 E20.13712
G1 X71.909 Y37.327 E20.15514
G1 X72.106 Y36.743 E20.17318
G1 X72.376 Y36.189 E20.19122
G0 F1750 X72.874 Y36.329
G1 F600 X73.212 Y35.853 E20.2083
G1 X73.495 Y35.541 E20.22063
G1 X73.641 Y35.395 E20.22667
G1 X74.08 Y35.012 E20.24373
G1 X74.568 Y34.693 E20.26079
G1 X75.094 Y34.443 E20.27783
G1 X75.65 Y34.268 E20.29489
G1 X76.225 Y34.171 E20.31196
G1 X76.646 Y34.15 E20.3243
G1 X203.354 Y34.15 E24.03274
G1 X203.935 Y34.19 E24.04979
G1 X204.506 Y34.309 E24.06686
G1 X205.055 Y34.505 E24.08392
G1 X205.571 Y34.774 E24.10095
G1 X206.047 Y35.112 E24.11804
G1 X206.359 Y35.395 E24.13037
G1 X206.505 Y35.541 E24.13641
G1 X206.888 Y35.98 E24.15346
G1 X207.207 Y36.468 E24.17053
G1 X207.457 Y36.994 E24.18757
G1 X207.632 Y37.55 E24.20463
G1 X207.729 Y38.125 E24.2217
G1 X207.75 Y38.546 E24.23403
G1 X207.75 Y241.454 E30.17268
G1 X207.71 Y242.035 E30.18972
G1 X207.591 Y242.606 E30.20679
G1 X207.395 Y243.155 E30.22385
G1 X207.126 Y243.671 E30.24088
G1 X206.788 Y244.147 E30.25797
G1 X206.505 Y244.459 E30.2703
G1 X206.359 Y244.605 E30.27634
G1 X205.92 Y244.988 E30.29339
G1 X205.432 Y245.307 E30.31046
G1 X204.906 Y245.557 E30.3275
G1 X204.35 Y245.732 E30.34456
G1 X203.775 Y245.829 E30.36163
G1 X203.354 Y245.85 E30.37397
G1 X76.646 Y245.85 E34.08241
G1 X76.065 Y245.81 E34.09946
G1 X75.494 Y245.691 E34.11653
G1 X74.945 Y245.495 E34.13359
G1 X74.429 Y245.226 E34.15062
G1 X73.953 Y244.888 E34.16771
G1 X73.641 Y244.605 E34.18003
G1 X73.495 Y244.459 E34.18608
G1 X73.112 Y244.02 E34.20313
G1 X72.793 Y243.532 E34.22019
G1 X72.543 Y243.006 E34.23724
G1 X72.368 Y242.45 E34.2543
G1 X72.271 Y241.875 E34.27136
G1 X72.25 Y241.454 E34.2837
G1 X72.25 Y38.546 E40.22234
G1 X72.29 Y37.965 E40.23939
G1 X72.409 Y37.394 E40.25646
G1 X72.605 Y36.845 E40.27352
G1 X72.874 Y36.329 E40.29055
G0 F1750 X73.372 Y36.477
G1 F600 X73.848 Y35.894 E40.31258
G1 X73.994 Y35.748 E40.31862
G1 X74.409 Y35.391 E40.33464
G1 X74.871 Y35.097 E40.35067
G1 X75.37 Y34.874 E40.36667
G1 X75.897 Y34.726 E40.38269
G1 X76.646 Y34.65 E40.40472
G1 X203.354 Y34.65 E44.11317
G1 X203.9 Y34.69 E44.12919
G1 X204.434 Y34.809 E44.14521
G1 X204.945 Y35.004 E44.16121
G1 X205.423 Y35.272 E44.17725
G1 X206.006 Y35.748 E44.19928
G1 X206.152 Y35.894 E44.20532
G1 X206.509 Y36.309 E44.22134
G1 X206.803 Y36.771 E44.23737
G1 X207.026 Y37.27 E44.25337
G1 X207.174 Y37.797 E44.26939
G1 X207.25 Y38.546 E44.29142
G1 X207.25 Y241.454 E50.23007
G1 X207.21 Y242 E50.24609
G1 X207.091 Y242.534 E50.2621
G1 X206.896 Y243.045 E50.27811
G1 X206.628 Y243.523 E50.29415
G1 X206.152 Y244.106 E50.31618
G1 X206.006 Y244.252 E50.32222
G1 X205.591 Y244.609 E50.33824
G1 X205.129 Y244.903 E50.35427
G1 X204.63 Y245.126 E50.37026
G1 X204.103 Y245.274 E50.38629
G1 X203.354 Y245.35 E50.40832
G1 X76.646 Y245.35 E54.11677
G1 X76.1 Y245.31 E54.13279
G1 X75.566 Y245.191 E54.1488
G1 X75.055 Y244.996 E54.16481
G1 X74.577 Y244.728 E54.18085
G1 X73.994 Y244.252 E54.20288
G1 X73.848 Y244.106 E54.20892
G1 X73.491 Y243.691 E54.22494
G1 X73.197 Y243.229 E54.24097
G1 X72.974 Y242.73 E54.25697
G1 X72.826 Y242.203 E54.27299
G1 X72.75 Y241.454 E54.29502
G1 X72.75 Y38.546 E60.23366
G1 X72.79 Y38 E60.24969
G1 X72.909 Y37.466 E60.2657
G1 X73.104 Y36.955 E60.28171
G1 X73.372 Y36.477 E60.29774
G0 F1750 X73.604 Y37.072
G1 F600 X73.87 Y36.637 E60.31267
G1 X74.202 Y36.248 E60.32764
G1 X74.348 Y36.102 E60.33368
G1 X74.735 Y35.771 E60.34858
G1 X75.17 Y35.505 E60.36351
G1 X75.64 Y35.31 E60.3784
G1 X76.136 Y35.19 E60.39333
G1 X76.646 Y35.15 E60.40831
G1 X203.354 Y35.15 E64.11675
G1 X203.862 Y35.19 E64.13167
G1 X204.357 Y35.309 E64.14657
G1 X204.828 Y35.504 E64.16149
G1 X205.263 Y35.77 E64.17641
G1 X205.652 Y36.102 E64.19138
G1 X205.798 Y36.248 E64.19742
G1 X206.129 Y36.635 E64.21233
G1 X206.395 Y37.07 E64.22725
G1 X206.59 Y37.54 E64.24214
G1 X206.71 Y38.036 E64.25708
G1 X206.75 Y38.546 E64.27205
G1 X206.75 Y241.454 E70.21069
G1 X206.71 Y241.962 E70.22561
G1 X206.591 Y242.457 E70.24051
G1 X206.396 Y242.928 E70.25543
G1 X206.13 Y243.363 E70.27035
G1 X205.798 Y243.752 E70.28532
G1 X205.652 Y243.898 E70.29136
G1 X205.265 Y244.229 E70.30626
G1 X204.83 Y244.495 E70.32119
G1 X204.36 Y244.69 E70.33608
G1 X203.864 Y244.81 E70.35102
G1 X203.354 Y244.85 E70.36599
G1 X76.646 Y244.85 E74.07444
G1 X76.138 Y244.81 E74.08935
G1 X75.643 Y244.691 E74.10425
G1 X75.172 Y244.496 E74.11917
G1 X74.737 Y244.23 E74.13409
G1 X74.348 Y243.898 E74.14906
G1 X74.202 Y243.752 E74.1551
G1 X73.871 Y243.365 E74.17001
G1 X73.605 Y242.93 E74.18493
G1 X73.41 Y242.46 E74.19982
G1 X73.29 Y241.964 E74.21476
G1 X73.25 Y241.454 E74.22973
G1 X73.25 Y38.546 E80.16837
G1 X73.29 Y38.038 E80.18329
G1 X73.409 Y37.543 E80.19819
G1 X73.604 Y37.072 E80.21311
G0 F1750 X74.102 Y37.199
G1 F600 X74.366 Y36.812 E80.22682
G1 X74.555 Y36.601 E80.23511
G1 X74.701 Y36.455 E80.24115
G1 X75.06 Y36.154 E80.25486
G1 X75.464 Y35.917 E80.26857
G1 X75.903 Y35.752 E80.2823
G1 X76.363 Y35.665 E80.296
G1 X76.646 Y35.65 E80.3043
G1 X203.354 Y35.65 E84.01274
G1 X203.821 Y35.69 E84.02646
G1 X204.274 Y35.809 E84.04017
G1 X204.701 Y36.002 E84.05388
G1 X205.088 Y36.266 E84.06759
G1 X205.299 Y36.455 E84.07588
G1 X205.445 Y36.601 E84.08193
G1 X205.746 Y36.96 E84.09564
G1 X205.983 Y37.364 E84.10935
G1 X206.148 Y37.803 E84.12307
G1 X206.235 Y38.263 E84.13678
G1 X206.25 Y38.546 E84.14507
G1 X206.25 Y241.454 E90.08371
G1 X206.21 Y241.921 E90.09743
G1 X206.091 Y242.374 E90.11114
G1 X205.898 Y242.801 E90.12485
G1 X205.634 Y243.188 E90.13856
G1 X205.445 Y243.399 E90.14686
G1 X205.299 Y243.545 E90.1529
G1 X204.94 Y243.846 E90.16661
G1 X204.536 Y244.083 E90.18032
G1 X204.097 Y244.248 E90.19404
G1 X203.637 Y244.335 E90.20775
G1 X203.354 Y244.35 E90.21604
G1 X76.646 Y244.35 E93.92449
G1 X76.179 Y244.31 E93.93821
G1 X75.726 Y244.191 E93.95191
G1 X75.299 Y243.998 E93.96563
G1 X74.912 Y243.734 E93.97934
G1 X74.701 Y243.545 E93.98763
G1 X74.555 Y243.399 E93.99367
G1 X74.254 Y243.04 E94.00738
G1 X74.017 Y242.636 E94.02109
G1 X73.852 Y242.197 E94.03482
G1 X73.765 Y241.737 E94.04852
G1 X73.75 Y241.454 E94.05682
G1 X73.75 Y38.546 E99.99546
G1 X73.79 Y38.079 E100.00918
G1 X73.909 Y37.626 E100.02288
G1 X74.102 Y37.199 E100.0366
G0 F1750 X74.601 Y37.34
G1 F600 X74.909 Y36.955 E100.05103
G1 X75.055 Y36.809 E100.05707
G1 X75.382 Y36.539 E100.06948
G1 X75.753 Y36.335 E100.08187
G1 X76.156 Y36.204 E100.09428
G1 X76.646 Y36.15 E100.1087
G1 X203.354 Y36.15 E103.81715
G1 X203.776 Y36.19 E103.82956
G1 X204.183 Y36.308 E103.84196
G1 X204.56 Y36.501 E103.85436
G1 X204.945 Y36.809 E103.86879
G1 X205.091 Y36.955 E103.87483
G1 X205.361 Y37.282 E103.88724
G1 X205.565 Y37.653 E103.89963
G1 X205.696 Y38.056 E103.91203
G1 X205.75 Y38.546 E103.92646
G1 X205.75 Y241.454 E109.86511
G1 X205.71 Y241.876 E109.87751
G1 X205.592 Y242.283 E109.88991
G1 X205.399 Y242.66 E109.90231
G1 X205.091 Y243.045 E109.91674
G1 X204.945 Y243.191 E109.92278
G1 X204.618 Y243.461 E109.93519
G1 X204.247 Y243.665 E109.94759
G1 X203.844 Y243.796 E109.95999
G1 X203.354 Y243.85 E109.97442
G1 X76.646 Y243.85 E113.68286
G1 X76.224 Y243.81 E113.69527
G1 X75.817 Y243.692 E113.70767
G1 X75.44 Y243.499 E113.72007
G1 X75.055 Y243.191 E113.7345
G1 X74.909 Y243.045 E113.74054
G1 X74.639 Y242.718 E113.75295
G1 X74.435 Y242.347 E113.76534
G1 X74.304 Y241.944 E113.77775
G1 X74.25 Y241.454 E113.79217
G1 X74.25 Y38.546 E119.73082
G1 X74.29 Y38.124 E119.74322
G1 X74.408 Y37.717 E119.75563
G1 X74.601 Y37.34 E119.76802
G0 F1750 X74.908 Y37.82
G1 F600 X75.098 Y37.498 E119.77896
G1 X75.263 Y37.309 E119.78631
G1 X75.409 Y37.163 E119.79235
G1 X75.699 Y36.928 E119.80327
G1 X76.033 Y36.761 E119.8142
G1 X76.395 Y36.668 E119.82514
G1 X76.646 Y36.65 E119.83251
G1 X203.354 Y36.65 E123.54095
G1 X203.725 Y36.69 E123.55188
G1 X204.08 Y36.808 E123.56282
G1 X204.402 Y36.998 E123.57377
G1 X204.591 Y37.163 E123.58111
G1 X204.737 Y37.309 E123.58715
G1 X204.972 Y37.599 E123.59808
G1 X205.139 Y37.933 E123.60901
G1 X205.232 Y38.295 E123.61995
G1 X205.25 Y38.546 E123.62731
G1 X205.25 Y241.454 E129.56595
G1 X205.21 Y241.825 E129.57687
G1 X205.092 Y242.18 E129.58782
G1 X204.902 Y242.502 E129.59877
G1 X204.737 Y242.691 E129.60611
G1 X204.591 Y242.837 E129.61215
G1 X204.301 Y243.072 E129.62308
G1 X203.967 Y243.239 E129.63401
G1 X203.605 Y243.332 E129.64494
G1 X203.354 Y243.35 E129.65231
G1 X76.646 Y243.35 E133.36076
G1 X76.275 Y243.31 E133.37168
G1 X75.92 Y243.192 E133.38263
G1 X75.598 Y243.002 E133.39357
G1 X75.409 Y242.837 E133.40091
G1 X75.263 Y242.691 E133.40696
G1 X75.028 Y242.401 E133.41788
G1 X74.861 Y242.067 E133.42881
G1 X74.768 Y241.705 E133.43975
G1 X74.75 Y241.454 E133.44711
G1 X74.75 Y38.546 E139.38576
G1 X74.79 Y38.175 E139.39668
G1 X74.908 Y37.82 E139.40763
G0 F1750 X75.407 Y37.94
G1 F600 X75.616 Y37.662 E139.41781
G1 X75.762 Y37.516 E139.42385
G1 X76.012 Y37.323 E139.43309
G1 X76.302 Y37.198 E139.44233
G1 X76.646 Y37.15 E139.4525
G1 X203.354 Y37.15 E143.16095
G1 X203.667 Y37.19 E143.17018
G1 X203.96 Y37.307 E143.17942
G1 X204.238 Y37.516 E143.1896
G1 X204.384 Y37.662 E143.19564
G1 X204.577 Y37.912 E143.20488
G1 X204.702 Y38.202 E143.21412
G1 X204.75 Y38.546 E143.22429
G1 X204.75 Y241.454 E149.16293
G1 X204.71 Y241.767 E149.17217
G1 X204.593 Y242.06 E149.1814
G1 X204.384 Y242.338 E149.19158
G1 X204.238 Y242.484 E149.19762
G1 X203.988 Y242.677 E149.20687
G1 X203.698 Y242.802 E149.21611
G1 X203.354 Y242.85 E149.22628
G1 X76.646 Y242.85 E152.93472
G1 X76.333 Y242.81 E152.94396
G1 X76.04 Y242.693 E152.95319
G1 X75.762 Y242.484 E152.96337
G1 X75.616 Y242.338 E152.96941
G1 X75.423 Y242.088 E152.97866
G1 X75.298 Y241.798 E152.9879
G1 X75.25 Y241.454 E152.99807
G1 X75.25 Y38.546 E158.93671
G1 X75.29 Y38.233 E158.94594
G1 X75.407 Y37.94 E158.95518
G0 F1750 X75.79 Y38.305
G1 F600 X75.97 Y38.016 E158.96514
G1 X76.116 Y37.87 E158.97119
G1 X76.314 Y37.727 E158.97833
G1 X76.646 Y37.65 E158.98831
G1 X203.354 Y37.65 E162.69676
G1 X203.595 Y37.69 E162.70391
G1 X203.884 Y37.87 E162.71387
G1 X204.03 Y38.016 E162.71991
G1 X204.173 Y38.214 E162.72706
G1 X204.25 Y38.546 E162.73704
G1 X204.25 Y241.454 E168.67568
G1 X204.21 Y241.695 E168.68283
G1 X204.03 Y241.984 E168.69279
G1 X203.884 Y242.13 E168.69884
G1 X203.686 Y242.273 E168.70599
G1 X203.354 Y242.35 E168.71596
G1 X76.646 Y242.35 E172.42441
G1 X76.405 Y242.31 E172.43156
G1 X76.116 Y242.13 E172.44152
G1 X75.97 Y241.984 E172.44756
G1 X75.827 Y241.786 E172.45471
G1 X75.75 Y241.454 E172.46469
G1 X75.75 Y38.546 E178.40333
G1 X75.79 Y38.305 E178.41048
G0 F1750 X76.323 Y38.369
G1 F600 X76.469 Y38.223 E178.41652
G1 X76.646 Y38.15 E178.42213
G1 X203.354 Y38.15 E182.13057
G1 X203.531 Y38.223 E182.13618
G1 X203.677 Y38.369 E182.14222
G1 X203.75 Y38.546 E182.14782
G1 X203.75 Y241.454 E188.08647
G1 X203.677 Y241.631 E188.09207
G1 X203.531 Y241.777 E188.09811
G1 X203.354 Y241.85 E188.10372
G1 X76.646 Y241.85 E191.81216
G1 X76.469 Y241.777 E191.81777
G1 X76.323 Y241.631 E191.82381
G1 X76.25 Y241.454 E191.82941
G1 X76.25 Y38.546 E197.76806
G1 X76.323 Y38.369 E197.77366
G1 F600 E196.77366
G0 F1750 X77.264 Y39.164
G0 X202.68 Y240.78
G0 X203.25 Y241.35
;TYPE:WALL-OUTER
G1 F600 E197.77366
G1 X76.75 Y241.35 E201.47602
G1 X76.75 Y38.65 E207.40858
G1 X203.25 Y38.65 E211.11093
G1 X203.25 Y241.35 E217.04349
G0 F1750 X203 Y241.35
G0 X202.75 Y240.85
;TYPE:WALL-INNER
G1 F600 X77.25 Y240.85 E220.71658
G1 X77.25 Y39.15 E226.61987
G1 X202.75 Y39.15 E230.29296
G1 X202.75 Y240.85 E236.19625
G0 F1750 X202.26 Y240.36
;TYPE:SKIN
G1 F600 X77.74 Y240.36 E239.84066
G1 X77.74 Y39.64 E245.71526
G1 X202.26 Y39.64 E249.35967
G1 X202.26 Y240.36 E255.23428
G0 F1750 X78.206 Y240.134
G1 F600 X77.964 Y239.891 E255.24431
G0 F1750 X77.964 Y239.184
G1 F600 X78.913 Y240.134 E255.28361
G1 X79.001 Y240.222
G0 F1750 X79.62 Y240.134
G1 F600 X77.964 Y238.477 E255.35218
G1 X77.876 Y238.389
G0 F1750 X77.964 Y237.77
G1 F600 X80.328 Y240.134 E255.45002
G1 X80.416 Y240.222
G0 F1750 X81.035 Y240.134
G1 F600 X77.964 Y237.063 E255.57714
G1 X77.876 Y236.975
G0 F1750 X77.964 Y236.356
G1 F600 X81.742 Y240.134 E255.73351
G1 X81.83 Y240.222
G0 F1750 X82.449 Y240.134
G1 F600 X77.964 Y235.648 E255.91917
G1 X77.876 Y235.56
G0 F1750 X77.964 Y234.941
