;Generated by Cura LulzBot Edition GCodeWriter Version: 3.2.27
;FLAVOR:Marlin
;TIME:6290
;Filament used: 2.9413m
;Layer height: 0.25
;Generated with Cura_SteamEngine 3.2.27
M82 ;absolute extrusion mode
;This G-Code has been generated specifically for the LulzBot TAZ 6 with standard extruder
M75 ; start GLCD timer
G26 ; clear potential 'probe fail' condition
G21 ; set units to Millimetres
M107 ; disable fans
M420 S0 ; disable previous leveling matrix
G90 ; absolute positioning
M82 ; set extruder to absolute mode
G92 E0 ; set extruder position to 0
M140 S105 ; start bed heating up
M109 R170 ; soften filament before homing Z
G28 ; Home all axis
G1 E-30 F100 ; retract filament
M109 R170 ; wait for extruder to reach wiping temp
G1 X-15 Y100 F3000 ; move above wiper pad
G1 Z1 ; push nozzle into wiper
G1 X-17 Y95 F1000 ; slow wipe
G1 X-17 Y90 F1000 ; slow wipe
G1 X-17 Y85 F1000 ; slow wipe
G1 X-15 Y90 F1000 ; slow wipe
G1 X-17 Y80 F1000 ; slow wipe
G1 X-15 Y95 F1000 ; slow wipe
G1 X-17 Y75 F2000 ; fast wipe
G1 X-15 Y65 F2000 ; fast wipe
G1 X-17 Y70 F2000 ; fast wipe
G1 X-15 Y60 F2000 ; fast wipe
G1 X-17 Y55 F2000 ; fast wipe
G1 X-15 Y50 F2000 ; fast wipe
G1 X-17 Y40 F2000 ; fast wipe
G1 X-15 Y45 F2000 ; fast wipe
G1 X-17 Y35 F2000 ; fast wipe
G1 X-15 Y40 F2000 ; fast wipe
G1 X-17 Y70 F2000 ; fast wipe
G1 X-15 Y30 Z2 F2000 ; fast wipe
G1 X-17 Y35 F2000 ; fast wipe
G1 X-15 Y25 F2000 ; fast wipe
G1 X-17 Y30 F2000 ; fast wipe
G1 X-15 Y25 Z1.5 F1000 ; slow wipe
G1 X-17 Y23 F1000 ; slow wipe
G1 Z10 ; raise extruder
M109 R170 ; wait for extruder to reach probe temp
G1 X-9 Y-9 ; move above first probe point
M204 S100 ; set probing acceleration
G29 ; start auto-leveling sequence
M420 S1 ; activate bed level matrix
M425 Z			     ; use measured Z backlash for compensation
M425 Z F0		     ; turn off measured Z backlash compensation. (if activated in the quality settings, this command will automatically be ignored)
M204 S500 ; restore standard acceleration
G1 X0 Y0 Z15 F5000 ; move up off last probe point
G4 S1 ; pause
M400 ; wait for moves to finish
M117 Heating... ; progress indicator message on LCD
M109 R245 ; wait for extruder to reach printing temp
M190 S105 ; wait for bed to reach printing temp
G1 Z2 E0 F75 ; prime tiny bit of filament into the nozzle
M117 TAZ 6 Printing... ; progress indicator message on LCD

M221 S100
;LAYER_COUNT:127
;LAYER:0
M107
G0 F1750 X113.403 Y113.694 Z0.4
;TYPE:SKIRT
G1 F600 X113.797 Y113.314 E0.01602
G1 X114.242 Y112.995 E0.03205
G1 X114.729 Y112.745 E0.04807
G1 X115.247 Y112.568 E0.06409
G1 X115.785 Y112.469 E0.0801
G1 X116.196 Y112.446 E0.09215
G1 X163.804 Y112.447 E1.48552
G1 X164.35 Y112.487 E1.50154
G1 X164.884 Y112.606 E1.51756
G1 X165.395 Y112.801 E1.53356
G1 X165.873 Y113.069 E1.5496
G1 X166.306 Y113.404 E1.56563
G1 X166.686 Y113.798 E1.58165
G1 X167.005 Y114.243 E1.59767
G1 X167.255 Y114.73 E1.61369
G1 X167.432 Y115.248 E1.62972
G1 X167.531 Y115.786 E1.64573
G1 X167.554 Y116.197 E1.65777
G1 X167.554 Y163.804 E3.05112
G1 X167.514 Y164.35 E3.06714
G1 X167.395 Y164.884 E3.08315
G1 X167.2 Y165.395 E3.09916
G1 X166.932 Y165.873 E3.1152
G1 X166.597 Y166.306 E3.13122
G1 X166.203 Y166.686 E3.14724
G1 X165.758 Y167.005 E3.16327
G1 X165.271 Y167.255 E3.17929
G1 X164.753 Y167.432 E3.19531
G1 X164.215 Y167.531 E3.21132
G1 X163.804 Y167.554 E3.22337
G1 X116.196 Y167.554 E4.61675
G1 X115.65 Y167.514 E4.63277
G1 X115.116 Y167.395 E4.64878
G1 X114.605 Y167.2 E4.66479
G1 X114.127 Y166.932 E4.68083
G1 X113.694 Y166.597 E4.69685
G1 X113.314 Y166.203 E4.71287
G1 X112.995 Y165.758 E4.7289
G1 X112.745 Y165.271 E4.74492
G1 X112.568 Y164.753 E4.76094
G1 X112.469 Y164.215 E4.77695
G1 X112.446 Y163.804 E4.789
G1 X112.446 Y116.196 E6.18237
G1 X112.486 Y115.65 E6.19839
G1 X112.605 Y115.116 E6.21441
G1 X112.8 Y114.605 E6.23041
G1 X113.068 Y114.127 E6.24645
G1 X113.403 Y113.694 E6.26248
G0 F1750 X113.896 Y113.9
G1 F600 X114.283 Y113.568 E6.2774
G1 X114.718 Y113.302 E6.29232
G1 X115.188 Y113.106 E6.30723
G1 X115.683 Y112.987 E6.32213
G1 X116.196 Y112.946 E6.33719
G1 X163.804 Y112.947 E7.73056
G1 X164.312 Y112.987 E7.74548
G1 X164.807 Y113.106 E7.76038
G1 X165.278 Y113.301 E7.7753
G1 X165.713 Y113.567 E7.79022
G1 X166.1 Y113.897 E7.80511
G1 X166.432 Y114.284 E7.82003
G1 X166.698 Y114.719 E7.83495
G1 X166.894 Y115.189 E7.84986
G1 X167.013 Y115.684 E7.86476
G1 X167.054 Y116.197 E7.87982
G1 X167.054 Y163.804 E9.27317
G1 X167.014 Y164.312 E9.28808
G1 X166.895 Y164.807 E9.30298
G1 X166.7 Y165.278 E9.3179
G1 X166.434 Y165.713 E9.33282
G1 X166.104 Y166.1 E9.34771
G1 X165.717 Y166.432 E9.36263
G1 X165.282 Y166.698 E9.37755
G1 X164.812 Y166.894 E9.39246
G1 X164.317 Y167.013 E9.40736
G1 X163.804 Y167.054 E9.42242
G1 X116.196 Y167.054 E10.8158
G1 X115.688 Y167.014 E10.83071
G1 X115.193 Y166.895 E10.84561
G1 X114.722 Y166.7 E10.86053
G1 X114.287 Y166.434 E10.87545
G1 X113.9 Y166.104 E10.89034
G1 X113.568 Y165.717 E10.90526
G1 X113.302 Y165.282 E10.92018
G1 X113.106 Y164.812 E10.93509
G1 X112.987 Y164.317 E10.94999
G1 X112.946 Y163.804 E10.96505
G1 X112.946 Y116.196 E12.35843
G1 X112.986 Y115.688 E12.37334
G1 X113.105 Y115.193 E12.38824
G1 X113.3 Y114.722 E12.40316
G1 X113.566 Y114.287 E12.41808
G1 X113.896 Y113.9 E12.43297
G1 F600 E11.43297
G0 F1750 X115.803 Y115.827
G0 X115.834 Y115.858
G0 X126.347 Y126.481
G0 X126.378 Y126.512
G0 X126.4 Y126.534
;TYPE:SUPPORT
G1 F600 E12.43297
G1 X153.638 Y126.534 E13.23016
G1 X153.638 Y136.346 E13.51734
G1 X126.4 Y136.346 E14.31453
G1 X126.4 Y126.534 E14.6017
G0 F1750 X126.616 Y126.734
G1 F600 X126.616 Y136.146 E14.87717
G0 F1750 X126.599 Y134.946
G1 F600 X153.438 Y134.946 E15.66268
G0 F1750 X153.272 Y136.146
G1 F600 X153.272 Y126.734 E15.93815
G0 F1750 X153.438 Y128.282
G1 F600 X126.599 Y128.282 E16.72367
G0 F1750 X126.599 Y129.948
G1 F600 X153.438 Y129.948 E17.50918
G0 F1750 X153.438 Y131.614
G1 F600 X126.599 Y131.614 E18.2947
G0 F1750 X126.599 Y133.28
G1 F600 X153.438 Y133.28 E19.08021
G0 F1750 X151.606 Y136.146
G1 F600 X151.606 Y126.734 E19.35568
G0 F1750 X149.94 Y126.734
G1 F600 X149.94 Y136.146 E19.63114
G0 F1750 X148.274 Y136.146
G1 F600 X148.274 Y126.734 E19.90661
G0 F1750 X146.608 Y126.734
G1 F600 X146.608 Y136.146 E20.18208
G0 F1750 X144.942 Y136.146
G1 F600 X144.942 Y126.734 E20.45755
G0 F1750 X143.276 Y126.734
G1 F600 X143.276 Y136.146 E20.73301
G0 F1750 X141.61 Y136.146
G1 F600 X141.61 Y126.734 E21.00848
G0 F1750 X139.944 Y126.734
G1 F600 X139.944 Y136.146 E21.28395
G0 F1750 X138.278 Y136.146
G1 F600 X138.278 Y126.734 E21.55942
G0 F1750 X136.612 Y126.734
G1 F600 X136.612 Y136.146 E21.83488
G0 F1750 X134.946 Y136.146
G1 F600 X134.946 Y126.734 E22.11035
G0 F1750 X133.28 Y126.734
G1 F600 X133.28 Y136.146 E22.38582
G0 F1750 X131.614 Y136.146
G1 F600 X131.614 Y126.734 E22.66128
G0 F1750 X129.948 Y126.734
G1 F600 X129.948 Y136.146 E22.93675
G0 F1750 X128.282 Y136.146
G1 F600 X128.282 Y126.734 E23.21222
G1 F600 E22.21222
G0 F1750 X128.282 Y126.549
G0 X128.282 Y125.134
G0 X128.224 Y125.133
G0 X124.93 Y125.064
G0 X125 Y125.134
;TYPE:WALL-INNER
G1 F600 E23.21222
G1 X125 Y137.746 E23.58134
G1 X155.038 Y137.746 E24.46048
G1 X155.038 Y125.134 E24.82961
G1 X125 Y125.134 E25.70875
G0 F1750 X124.93 Y125.064
G0 X155.066 Y125.106
G0 X162.993 Y162.993
G0 X163.063 Y163.063
G1 F600 X116.937 Y163.063 E27.05875
G1 X116.937 Y116.937 E28.40875
G1 X163.063 Y116.937 E29.75875
G1 X163.063 Y163.063 E31.10875
G0 F1750 X163.563 Y163.563
;TYPE:WALL-OUTER
G1 F600 X116.437 Y163.563 E32.48802
G1 X116.437 Y116.437 E33.86729
G1 X163.563 Y116.437 E35.24655
G1 X163.563 Y163.563 E36.62582
G0 F1750 X163.313 Y163.563
G0 X162.993 Y162.993
G0 X124.972 Y137.774
G0 X124.9 Y125.634
G0 X125.5 Y125.634
G1 F600 X125.5 Y137.246 E36.96568
G1 X154.538 Y137.246 E37.81555
G1 X154.538 Y125.634 E38.15541
G1 X125.5 Y125.634 E39.00528
G0 F1750 X125.5 Y125.884
G0 X124.9 Y125.884
G0 X124.51 Y124.644
;TYPE:SKIN
G1 F600 X124.51 Y138.236 E39.40309
G1 X155.528 Y138.236 E40.31091
G1 X155.528 Y124.644 E40.70872
G1 X124.51 Y124.644 E41.61654
G0 F1750 X117.427 Y117.427
G1 F600 X162.573 Y117.427 E42.93786
G1 X162.573 Y162.573 E44.25918
G1 X117.427 Y162.573 E45.5805
G1 X117.427 Y117.427 E46.90182
G0 F1750 X162.347 Y117.799
G0 X162.273 Y117.725
G1 F600 X161.919 Y118.078 E46.92256
G1 X162.435 Y118.594
G0 F1750 X162.347 Y119.213
G1 F600 X160.785 Y117.651 E46.98721
G1 X160.697 Y117.563
G0 F1750 X160.078 Y117.651
G1 F600 X162.347 Y119.921 E47.08115
G1 X162.435 Y120.009
G0 F1750 X162.347 Y120.628
G1 F600 X159.371 Y117.651 E47.20435
G1 X159.283 Y117.563
G0 F1750 X158.664 Y117.651
G1 F600 X162.347 Y121.335 E47.35681
G1 X162.435 Y121.423
G0 F1750 X162.347 Y122.042
G1 F600 X157.957 Y117.651 E47.53854
G1 X157.869 Y117.563
G0 F1750 X157.249 Y117.651
G1 F600 X162.347 Y122.749 E47.74955
G1 X162.435 Y122.837
G0 F1750 X162.347 Y123.456
G1 F600 X156.542 Y117.651 E47.98982
G1 X156.454 Y117.563
G0 F1750 X155.835 Y117.651
G1 F600 X162.347 Y124.163 E48.25936
G1 X162.435 Y124.251
G0 F1750 X162.347 Y124.87
G1 F600 X155.128 Y117.651 E48.55816
G1 X155.04 Y117.563
G0 F1750 X154.421 Y117.651
G1 F600 X162.347 Y125.577 E48.88622
G1 X162.435 Y125.665
G0 F1750 X162.347 Y126.285
G1 F600 X153.714 Y117.651 E49.24357
G1 X153.626 Y117.563
G0 F1750 X153.007 Y117.651
G1 F600 X162.347 Y126.992 E49.63018
G1 X162.435 Y127.08
G0 F1750 X162.347 Y127.699
G1 F600 X152.3 Y117.651 E50.04605
G1 X152.212 Y117.563
G0 F1750 X151.593 Y117.651
G1 F600 X162.347 Y128.406 E50.49119
G1 X162.435 Y128.494
G0 F1750 X162.347 Y129.113
G1 F600 X150.885 Y117.651 E50.96561
G1 X150.797 Y117.563
G0 F1750 X150.178 Y117.651
G1 F600 X162.347 Y129.82 E51.46929
G1 X162.435 Y129.908
G0 F1750 X162.347 Y130.527
G1 F600 X149.471 Y117.651 E52.00224
G1 X149.383 Y117.563
G0 F1750 X148.764 Y117.651
G1 F600 X155.53 Y124.418 E52.28231
G1 X155.618 Y124.506
G0 F1750 X155.752 Y124.639
G1 F600 X162.347 Y131.234 E52.55528
G1 X162.435 Y131.322
G0 F1750 X162.347 Y131.941
G1 F600 X155.752 Y125.346 E52.82825
G1 X155.664 Y125.258
G0 F1750 X155.752 Y126.053
G1 F600 X162.347 Y132.648 E53.10123
G1 X162.435 Y132.736
G0 F1750 X162.347 Y133.356
G1 F600 X155.752 Y126.76 E53.37422
G1 X155.664 Y126.672
G0 F1750 X155.752 Y127.468
G1 F600 X162.347 Y134.063 E53.64719
G1 X162.435 Y134.151
G0 F1750 X162.347 Y134.77
G1 F600 X155.752 Y128.175 E53.92016
G1 X155.664 Y128.087
G0 F1750 X155.752 Y128.882
G1 F600 X162.347 Y135.477 E54.19313
G1 X162.435 Y135.565
G0 F1750 X162.347 Y136.184
G1 F600 X155.752 Y129.589 E54.4661
G1 X155.664 Y129.501
G0 F1750 X155.752 Y130.296
G1 F600 X162.347 Y136.891 E54.73908
G1 X162.435 Y136.979
G0 F1750 X162.347 Y137.598
G1 F600 X155.752 Y131.003 E55.01205
G1 X155.664 Y130.915
G0 F1750 X155.752 Y131.71
G1 F600 X162.347 Y138.305 E55.28502
G1 X162.435 Y138.393
G0 F1750 X162.347 Y139.012
G1 F600 X155.752 Y132.417 E55.55799
G1 X155.664 Y132.329
G0 F1750 X155.752 Y133.124
G1 F600 X162.347 Y139.72 E55.83098
G1 X162.435 Y139.808
G0 F1750 X162.347 Y140.427
G1 F600 X155.752 Y133.831 E56.10398
G1 X155.664 Y133.743
G0 F1750 X155.752 Y134.539
G1 F600 X162.347 Y141.134 E56.37695
G1 X162.435 Y141.222
G0 F1750 X162.347 Y141.841
G1 F600 X155.752 Y135.246 E56.64992
G1 X155.664 Y135.158
G0 F1750 X155.752 Y135.953
G1 F600 X162.347 Y142.548 E56.92289
G1 X162.435 Y142.636
G0 F1750 X162.347 Y143.255
G1 F600 X155.752 Y136.66 E57.19586
G1 X155.664 Y136.572
G0 F1750 X155.752 Y137.367
G1 F600 X162.347 Y143.962 E57.46884
G1 X162.435 Y144.05
G0 F1750 X162.347 Y144.669
G1 F600 X155.752 Y138.074 E57.74181
G1 X155.664 Y137.986
G0 F1750 X155.431 Y138.46
G1 F600 X162.347 Y145.376 E58.02807
G1 X162.435 Y145.464
G0 F1750 X162.347 Y146.084
G1 F600 X154.724 Y138.46 E58.34361
G1 X154.636 Y138.372
G0 F1750 X154.017 Y138.46
G1 F600 X162.347 Y146.791 E58.68841
G1 X162.435 Y146.879
G0 F1750 X162.347 Y147.498
G1 F600 X153.309 Y138.46 E59.0625
G1 X153.221 Y138.372
G0 F1750 X152.602 Y138.46
G1 F600 X162.347 Y148.205 E59.46586
G1 X162.435 Y148.293
G0 F1750 X162.347 Y148.912
G1 F600 X151.895 Y138.46 E59.89847
G1 X151.807 Y138.372
G0 F1750 X151.188 Y138.46
G1 F600 X162.347 Y149.619 E60.36035
G1 X162.435 Y149.707
G0 F1750 X162.347 Y150.326
G1 F600 X150.481 Y138.46 E60.85149
G1 X150.393 Y138.372
G0 F1750 X149.774 Y138.46
G1 F600 X162.347 Y151.033 E61.3719
G1 X162.435 Y151.121
G0 F1750 X162.347 Y151.74
G1 F600 X149.067 Y138.46 E61.92157
G1 X148.979 Y138.372
G0 F1750 X148.36 Y138.46
G1 F600 X162.347 Y152.447 E62.5005
G1 X162.435 Y152.535
G0 F1750 X162.347 Y153.155
G1 F600 X147.653 Y138.46 E63.10872
G1 X147.565 Y138.372
G0 F1750 X146.945 Y138.46
G1 F600 X162.347 Y153.862 E63.74622
G1 X162.435 Y153.95
G0 F1750 X162.347 Y154.569
G1 F600 X146.238 Y138.46 E64.41298
G1 X146.15 Y138.372
G0 F1750 X145.531 Y138.46
G1 F600 X162.347 Y155.276 E65.10901
G1 X162.435 Y155.364
G0 F1750 X162.347 Y155.983
G1 F600 X144.824 Y138.46 E65.83429
G1 X144.736 Y138.372
G0 F1750 X144.117 Y138.46
G1 F600 X162.347 Y156.69 E66.58885
G1 X162.435 Y156.778
G0 F1750 X162.347 Y157.397
G1 F600 X143.41 Y138.46 E67.37266
G1 X143.322 Y138.372
G0 F1750 X142.703 Y138.46
G1 F600 X162.347 Y158.104 E68.18574
G1 X162.435 Y158.192
G0 F1750 X162.347 Y158.811
G1 F600 X141.996 Y138.46 E69.02809
G1 X141.908 Y138.372
G0 F1750 X141.289 Y138.46
G1 F600 X162.347 Y159.519 E69.89971
G1 X162.435 Y159.607
G0 F1750 X162.347 Y160.226
G1 F600 X140.582 Y138.46 E70.8006
G1 X140.494 Y138.372
G0 F1750 X139.874 Y138.46
G1 F600 X162.347 Y160.933 E71.73078
G1 X162.435 Y161.021
G0 F1750 X162.347 Y161.64
G1 F600 X139.167 Y138.46 E72.69021
G1 X139.079 Y138.372
G0 F1750 X138.46 Y138.46
G1 F600 X162.347 Y162.347 E73.67891
G1 X162.435 Y162.435
G0 F1750 X161.639 Y162.346
G1 F600 X137.753 Y138.46 E74.66757
G1 X137.665 Y138.372
G0 F1750 X137.046 Y138.46
G1 F600 X160.932 Y162.346 E75.65623
G1 X161.02 Y162.434
G0 F1750 X160.225 Y162.346
G1 F600 X136.339 Y138.46 E76.64489
G1 X136.251 Y138.372
G0 F1750 X135.632 Y138.46
G1 F600 X159.518 Y162.346 E77.63355
G1 X159.606 Y162.434
G0 F1750 X158.811 Y162.346
G1 F600 X134.925 Y138.46 E78.62221
G1 X134.837 Y138.372
G0 F1750 X134.218 Y138.46
G1 F600 X158.104 Y162.346 E79.61087
G1 X158.192 Y162.434
G0 F1750 X157.397 Y162.346
G1 F600 X133.51 Y138.46 E80.59955
G1 X133.422 Y138.372
G0 F1750 X132.803 Y138.46
G1 F600 X156.689 Y162.346 E81.5882
G1 X156.777 Y162.434
G0 F1750 X155.982 Y162.346
G1 F600 X132.096 Y138.46 E82.57686
G1 X132.008 Y138.372
G0 F1750 X131.389 Y138.46
G1 F600 X155.275 Y162.346 E83.56552
G1 X155.363 Y162.434
G0 F1750 X154.568 Y162.346
G1 F600 X130.682 Y138.46 E84.55418
G1 X130.594 Y138.372
G0 F1750 X129.975 Y138.46
G1 F600 X153.861 Y162.346 E85.54284
G1 X153.949 Y162.434
G0 F1750 X153.154 Y162.346
G1 F600 X129.268 Y138.46 E86.5315
G1 X129.18 Y138.372
G0 F1750 X128.561 Y138.46
G1 F600 X152.447 Y162.346 E87.52016
G1 X152.535 Y162.434
G0 F1750 X151.74 Y162.346
G1 F600 X127.854 Y138.46 E88.50882
G1 X127.766 Y138.372
G0 F1750 X127.146 Y138.46
G1 F600 X151.033 Y162.346 E89.4975
G1 X151.121 Y162.434
G0 F1750 X150.325 Y162.346
G1 F600 X126.439 Y138.46 E90.48615
G1 X126.351 Y138.372
G0 F1750 X125.732 Y138.46
G1 F600 X149.618 Y162.346 E91.47481
G1 X149.706 Y162.434
G0 F1750 X148.911 Y162.346
G1 F600 X125.025 Y138.46 E92.46347
G1 X124.937 Y138.372
G0 F1750 X124.318 Y138.46
G1 F600 X148.204 Y162.346 E93.45213
G1 X148.292 Y162.434
G0 F1750 X147.497 Y162.346
G1 F600 X117.651 Y132.501 E94.68746
G1 X117.563 Y132.413
G0 F1750 X117.651 Y133.208
G1 F600 X146.79 Y162.346 E95.89352
G1 X146.878 Y162.434
G0 F1750 X146.083 Y162.346
G1 F600 X117.651 Y133.915 E97.07032
G1 X117.563 Y133.827
G0 F1750 X117.651 Y134.622
G1 F600 X145.376 Y162.346 E98.21786
G1 X145.464 Y162.434
G0 F1750 X144.669 Y162.346
G1 F600 X117.651 Y135.329 E99.33613
G1 X117.563 Y135.241
G0 F1750 X117.651 Y136.036
G1 F600 X143.961 Y162.346 E100.42512
G1 X144.049 Y162.434
G0 F1750 X143.254 Y162.346
G1 F600 X117.651 Y136.743 E101.48485
G1 X117.563 Y136.655
G0 F1750 X117.651 Y137.45
G1 F600 X142.547 Y162.346 E102.51531
G1 X142.635 Y162.434
G0 F1750 X141.84 Y162.346
G1 F600 X117.651 Y138.158 E103.51649
G1 X117.563 Y138.07
G0 F1750 X117.651 Y138.865
G1 F600 X141.133 Y162.346 E104.48841
G1 X141.221 Y162.434
G0 F1750 X140.426 Y162.346
