;Generated by Cura LulzBot Edition GCodeWriter Version: 3.2.27
;FLAVOR:Marlin
;TIME:35614
;Filament used: 24.6188m
;Layer height: 0.25
;Generated with Cura_SteamEngine 3.2.27
M82 ;absolute extrusion mode
;This G-Code has been generated specifically for the LulzBot TAZ 6 with standard extruder
M75 ; start GLCD timer
G26 ; clear potential 'probe fail' condition
G21 ; set units to Millimetres
M107 ; disable fans
M420 S0 ; disable previous leveling matrix
G90 ; absolute positioning
M82 ; set extruder to absolute mode
G92 E0 ; set extruder position to 0
M140 S105 ; start bed heating up
M109 R170 ; soften filament before homing Z
G28 ; Home all axis
G1 E-30 F100 ; retract filament
M109 R170 ; wait for extruder to reach wiping temp
G1 X-15 Y100 F3000 ; move above wiper pad
G1 Z1 ; push nozzle into wiper
G1 X-17 Y95 F1000 ; slow wipe
G1 X-17 Y90 F1000 ; slow wipe
G1 X-17 Y85 F1000 ; slow wipe
G1 X-15 Y90 F1000 ; slow wipe
G1 X-17 Y80 F1000 ; slow wipe
G1 X-15 Y95 F1000 ; slow wipe
G1 X-17 Y75 F2000 ; fast wipe
G1 X-15 Y65 F2000 ; fast wipe
G1 X-17 Y70 F2000 ; fast wipe
G1 X-15 Y60 F2000 ; fast wipe
G1 X-17 Y55 F2000 ; fast wipe
G1 X-15 Y50 F2000 ; fast wipe
G1 X-17 Y40 F2000 ; fast wipe
G1 X-15 Y45 F2000 ; fast wipe
G1 X-17 Y35 F2000 ; fast wipe
G1 X-15 Y40 F2000 ; fast wipe
G1 X-17 Y70 F2000 ; fast wipe
G1 X-15 Y30 Z2 F2000 ; fast wipe
G1 X-17 Y35 F2000 ; fast wipe
G1 X-15 Y25 F2000 ; fast wipe
G1 X-17 Y30 F2000 ; fast wipe
G1 X-15 Y25 Z1.5 F1000 ; slow wipe
G1 X-17 Y23 F1000 ; slow wipe
G1 Z10 ; raise extruder
M109 R170 ; wait for extruder to reach probe temp
G1 X-9 Y-9 ; move above first probe point
M204 S100 ; set probing acceleration
G29 ; start auto-leveling sequence
M420 S1 ; activate bed level matrix
M425 Z			     ; use measured Z backlash for compensation
M425 Z F0		     ; turn off measured Z backlash compensation. (if activated in the quality settings, this command will automatically be ignored)
M204 S500 ; restore standard acceleration
G1 X0 Y0 Z15 F5000 ; move up off last probe point
G4 S1 ; pause
M400 ; wait for moves to finish
M117 Heating... ; progress indicator message on LCD
M109 R245 ; wait for extruder to reach printing temp
M190 S105 ; wait for bed to reach printing temp
G1 Z2 E0 F75 ; prime tiny bit of filament into the nozzle
M117 TAZ 6 Printing... ; progress indicator message on LCD

M221 S100
;LAYER_COUNT:279
;LAYER:0
M107
G0 F1750 X73.613 Y36.935 Z0.4
;TYPE:SKIRT
G1 F600 X73.879 Y36.5 E0.01492
G1 X74.209 Y36.113 E0.02981
G1 X74.596 Y35.781 E0.04473
G1 X75.031 Y35.515 E0.05966
G1 X75.501 Y35.319 E0.07456
G1 X75.996 Y35.2 E0.08946
G1 X76.509 Y35.159 E0.10452
G1 X203.491 Y35.16 E3.82099
G1 X203.999 Y35.2 E3.8359
G1 X204.494 Y35.319 E3.8508
G1 X204.965 Y35.514 E3.86572
G1 X205.4 Y35.78 E3.88064
G1 X205.787 Y36.11 E3.89553
G1 X206.119 Y36.497 E3.91045
G1 X206.385 Y36.932 E3.92538
G1 X206.581 Y37.402 E3.94028
G1 X206.7 Y37.897 E3.95518
G1 X206.741 Y38.41 E3.97024
G1 X206.741 Y241.591 E9.91688
G1 X206.701 Y242.099 E9.93179
G1 X206.582 Y242.594 E9.94669
G1 X206.387 Y243.065 E9.96161
G1 X206.121 Y243.5 E9.97653
G1 X205.791 Y243.887 E9.99142
G1 X205.404 Y244.219 E10.00634
G1 X204.969 Y244.485 E10.02126
G1 X204.499 Y244.681 E10.03617
G1 X204.004 Y244.8 E10.05107
G1 X203.491 Y244.841 E10.06613
G1 X76.509 Y244.841 E13.7826
G1 X76.001 Y244.801 E13.79751
G1 X75.506 Y244.682 E13.81241
G1 X75.035 Y244.487 E13.82733
G1 X74.6 Y244.221 E13.84225
G1 X74.213 Y243.891 E13.85714
G1 X73.881 Y243.504 E13.87206
G1 X73.615 Y243.069 E13.88699
G1 X73.419 Y242.599 E13.90189
G1 X73.3 Y242.104 E13.91679
G1 X73.259 Y241.591 E13.93185
G1 X73.259 Y38.409 E19.87851
G1 X73.299 Y37.901 E19.89343
G1 X73.418 Y37.406 E19.90833
G1 X73.613 Y36.935 E19.92325
G1 F600 E18.92325
G0 F1750 X75.835 Y39.164
G0 X77.264 Y39.164
G0 X202.68 Y240.78
G0 X202.75 Y240.85
;TYPE:WALL-INNER
G1 F600 E19.92325
G1 X77.25 Y240.85 E23.59634
G1 X77.25 Y39.15 E29.49963
G1 X202.75 Y39.15 E33.17272
G1 X202.75 Y240.85 E39.07601
G0 F1750 X203.25 Y241.35
;TYPE:WALL-OUTER
G1 F600 X76.75 Y241.35 E42.77837
G1 X76.75 Y38.65 E48.71092
G1 X203.25 Y38.65 E52.41328
G1 X203.25 Y241.35 E58.34583
G0 F1750 X203 Y241.35
G0 X202.68 Y240.78
G0 X202.26 Y240.36
;TYPE:SKIN
G1 F600 X77.74 Y240.36 E61.99024
G1 X77.74 Y39.64 E67.86485
G1 X202.26 Y39.64 E71.50926
G1 X202.26 Y240.36 E77.38386
G0 F1750 X78.206 Y240.134
G1 F600 X77.964 Y239.891 E77.3939
G0 F1750 X77.964 Y239.184
G1 F600 X78.913 Y240.134 E77.4332
G1 X79.001 Y240.222
G0 F1750 X79.62 Y240.134
G1 F600 X77.964 Y238.477 E77.50176
G1 X77.876 Y238.389
G0 F1750 X77.964 Y237.77
G1 F600 X80.328 Y240.134 E77.59961
G1 X80.416 Y240.222
G0 F1750 X81.035 Y240.134
G1 F600 X77.964 Y237.063 E77.72672
G1 X77.876 Y236.975
G0 F1750 X77.964 Y236.356
G1 F600 X81.742 Y240.134 E77.8831
G1 X81.83 Y240.222
G0 F1750 X82.449 Y240.134
G1 F600 X77.964 Y235.648 E78.06876
G1 X77.876 Y235.56
G0 F1750 X77.964 Y234.941
G1 F600 X83.156 Y240.134 E78.28368
G1 X83.244 Y240.222
G0 F1750 X83.863 Y240.134
G1 F600 X77.964 Y234.234 E78.52786
G1 X77.876 Y234.146
G0 F1750 X77.964 Y233.527
G1 F600 X84.57 Y240.134 E78.80131
G1 X84.658 Y240.222
G0 F1750 X85.277 Y240.134
G1 F600 X77.964 Y232.82 E79.10402
G1 X77.876 Y232.732
G0 F1750 X77.964 Y232.113
G1 F600 X85.984 Y240.134 E79.43599
G1 X86.072 Y240.222
G0 F1750 X86.691 Y240.134
G1 F600 X77.964 Y231.406 E79.79723
G1 X77.876 Y231.318
G0 F1750 X77.964 Y230.699
G1 F600 X87.399 Y240.134 E80.18775
G1 X87.487 Y240.222
G0 F1750 X88.106 Y240.134
G1 F600 X77.964 Y229.992 E80.60754
G1 X77.876 Y229.904
G0 F1750 X77.964 Y229.285
G1 F600 X88.813 Y240.134 E81.05659
G1 X88.901 Y240.222
G0 F1750 X89.52 Y240.134
G1 F600 X77.964 Y228.577 E81.53492
G1 X77.876 Y228.489
G0 F1750 X77.964 Y227.87
G1 F600 X90.227 Y240.134 E82.04251
G1 X90.315 Y240.222
G0 F1750 X90.934 Y240.134
G1 F600 X77.964 Y227.163 E82.57937
G1 X77.876 Y227.075
G0 F1750 X77.964 Y226.456
G1 F600 X91.641 Y240.134 E83.14549
G1 X91.729 Y240.222
G0 F1750 X92.348 Y240.134
G1 F600 X77.964 Y225.749 E83.74088
G1 X77.876 Y225.661
G0 F1750 X77.964 Y225.042
G1 F600 X93.055 Y240.134 E84.36553
G1 X93.143 Y240.222
G0 F1750 X93.763 Y240.134
G1 F600 X77.964 Y224.335 E85.01946
G1 X77.876 Y224.247
G0 F1750 X77.964 Y223.628
G1 F600 X94.47 Y240.134 E85.70265
G1 X94.558 Y240.222
G0 F1750 X95.177 Y240.134
G1 F600 X77.964 Y222.921 E86.41511
G1 X77.876 Y222.833
G0 F1750 X77.964 Y222.213
G1 F600 X95.884 Y240.134 E87.15685
G1 X95.972 Y240.222
G0 F1750 X96.591 Y240.134
G1 F600 X77.964 Y221.506 E87.92786
G1 X77.876 Y221.418
G0 F1750 X77.964 Y220.799
G1 F600 X97.298 Y240.134 E88.72813
G1 X97.386 Y240.222
G0 F1750 X98.005 Y240.134
G1 F600 X77.964 Y220.092 E89.55766
G1 X77.876 Y220.004
G0 F1750 X77.964 Y219.385
G1 F600 X98.712 Y240.134 E90.41646
G1 X98.8 Y240.222
G0 F1750 X99.419 Y240.134
G1 F600 X77.964 Y218.678 E91.30452
G1 X77.876 Y218.59
G0 F1750 X77.964 Y217.971
G1 F600 X100.127 Y240.134 E92.22186
G1 X100.215 Y240.222
G0 F1750 X100.834 Y240.134
G1 F600 X77.964 Y217.264 E93.16846
G1 X77.876 Y217.176
G0 F1750 X77.964 Y216.557
G1 F600 X101.541 Y240.134 E94.14433
G1 X101.629 Y240.222
G0 F1750 X102.248 Y240.134
G1 F600 X77.964 Y215.85 E95.14947
G1 X77.876 Y215.762
G0 F1750 X77.964 Y215.142
G1 F600 X102.955 Y240.134 E96.18388
G1 X103.043 Y240.222
G0 F1750 X103.662 Y240.134
G1 F600 X77.964 Y214.435 E97.24756
G1 X77.876 Y214.347
G0 F1750 X77.964 Y213.728
G1 F600 X104.369 Y240.134 E98.3405
G1 X104.457 Y240.222
G0 F1750 X105.076 Y240.134
G1 F600 X77.964 Y213.021 E99.46271
G1 X77.876 Y212.933
G0 F1750 X77.964 Y212.314
G1 F600 X105.783 Y240.134 E100.61418
G1 X105.871 Y240.222
G0 F1750 X106.49 Y240.134
G1 F600 X77.964 Y211.607 E101.79491
G1 X77.876 Y211.519
G0 F1750 X77.964 Y210.9
G1 F600 X107.198 Y240.134 E103.00493
G1 X107.286 Y240.222
G0 F1750 X107.905 Y240.134
G1 F600 X77.964 Y210.193 E104.24421
G1 X77.876 Y210.105
G0 F1750 X77.964 Y209.486
G1 F600 X108.612 Y240.134 E105.51275
G1 X108.7 Y240.222
G0 F1750 X109.319 Y240.134
G1 F600 X77.964 Y208.778 E106.81058
G1 X77.876 Y208.69
G0 F1750 X77.964 Y208.071
G1 F600 X110.026 Y240.134 E108.13767
G1 X110.114 Y240.222
G0 F1750 X110.733 Y240.134
G1 F600 X77.964 Y207.364 E109.49402
G1 X77.876 Y207.276
G0 F1750 X77.964 Y206.657
G1 F600 X111.44 Y240.134 E110.87964
G1 X111.528 Y240.222
G0 F1750 X112.147 Y240.134
G1 F600 X77.964 Y205.95 E112.29452
G1 X77.876 Y205.862
G0 F1750 X77.964 Y205.243
G1 F600 X112.854 Y240.134 E113.73866
G1 X112.942 Y240.222
G0 F1750 X113.562 Y240.134
G1 F600 X77.964 Y204.536 E115.21209
G1 X77.876 Y204.448
G0 F1750 X77.964 Y203.829
G1 F600 X114.269 Y240.134 E116.71478
G1 X114.357 Y240.222
G0 F1750 X114.976 Y240.134
G1 F600 X77.964 Y203.122 E118.24673
G1 X77.876 Y203.034
G0 F1750 X77.964 Y202.414
G1 F600 X115.683 Y240.134 E119.80797
G1 X115.771 Y240.222
G0 F1750 X116.39 Y240.134
G1 F600 X77.964 Y201.707 E121.39847
G1 X77.876 Y201.619
G0 F1750 X77.964 Y201
G1 F600 X117.097 Y240.134 E123.01823
G1 X117.185 Y240.222
G0 F1750 X117.804 Y240.134
G1 F600 X77.964 Y200.293 E124.66726
G1 X77.876 Y200.205
G0 F1750 X77.964 Y199.586
G1 F600 X118.511 Y240.134 E126.34555
G1 X118.599 Y240.222
G0 F1750 X119.218 Y240.134
G1 F600 X77.964 Y198.879 E128.0531
G1 X77.876 Y198.791
G0 F1750 X77.964 Y198.172
G1 F600 X119.926 Y240.134 E129.78994
G1 X120.014 Y240.222
G0 F1750 X120.633 Y240.134
G1 F600 X77.964 Y197.465 E131.55604
G1 X77.876 Y197.377
G0 F1750 X77.964 Y196.758
G1 F600 X121.34 Y240.134 E133.35141
G1 X121.428 Y240.222
G0 F1750 X122.047 Y240.134
G1 F600 X77.964 Y196.051 E135.17603
G1 X77.876 Y195.963
G0 F1750 X77.964 Y195.343
G1 F600 X122.754 Y240.134 E137.02994
G1 X122.842 Y240.222
G0 F1750 X123.461 Y240.134
G1 F600 X77.964 Y194.636 E138.91312
G1 X77.876 Y194.548
G0 F1750 X77.964 Y193.929
G1 F600 X124.168 Y240.134 E140.82556
G1 X124.256 Y240.222
G0 F1750 X124.875 Y240.134
G1 F600 X77.964 Y193.222 E142.76726
G1 X77.876 Y193.134
G0 F1750 X77.964 Y192.515
G1 F600 X125.582 Y240.134 E144.73822
G1 X125.67 Y240.222
G0 F1750 X126.289 Y240.134
G1 F600 X77.964 Y191.808 E146.73845
G1 X77.876 Y191.72
G0 F1750 X77.964 Y191.101
G1 F600 X126.997 Y240.134 E148.76796
G1 X127.085 Y240.222
G0 F1750 X127.704 Y240.134
G1 F600 X77.964 Y190.394 E150.82674
G1 X77.876 Y190.306
G0 F1750 X77.964 Y189.687
G1 F600 X128.411 Y240.134 E152.91477
G1 X128.499 Y240.222
G0 F1750 X129.118 Y240.134
G1 F600 X77.964 Y188.979 E155.0321
G1 X77.876 Y188.891
G0 F1750 X77.964 Y188.272
G1 F600 X129.825 Y240.134 E157.17868
G1 X129.913 Y240.222
G0 F1750 X130.532 Y240.134
G1 F600 X77.964 Y187.565 E159.35453
G1 X77.876 Y187.477
G0 F1750 X77.964 Y186.858
G1 F600 X131.239 Y240.134 E161.55964
G1 X131.327 Y240.222
G0 F1750 X131.946 Y240.134
G1 F600 X77.964 Y186.151 E163.79401
G1 X77.876 Y186.063
G0 F1750 X77.964 Y185.444
G1 F600 X132.653 Y240.134 E166.05765
G1 X132.741 Y240.222
G0 F1750 X133.361 Y240.134
G1 F600 X77.964 Y184.737 E168.35057
G1 X77.876 Y184.649
G0 F1750 X77.964 Y184.03
G1 F600 X134.068 Y240.134 E170.67276
G1 X134.156 Y240.222
G0 F1750 X134.775 Y240.134
G1 F600 X77.964 Y183.323 E173.02421
G1 X77.876 Y183.235
G0 F1750 X77.964 Y182.615
G1 F600 X135.482 Y240.134 E175.40494
G1 X135.57 Y240.222
G0 F1750 X136.189 Y240.134
G1 F600 X77.964 Y181.908 E177.81494
G1 X77.876 Y181.82
G0 F1750 X77.964 Y181.201
G1 F600 X136.896 Y240.134 E180.25419
G1 X136.984 Y240.222
G0 F1750 X137.603 Y240.134
G1 F600 X77.964 Y180.494 E182.72272
G1 X77.876 Y180.406
G0 F1750 X77.964 Y179.787
G1 F600 X138.31 Y240.134 E185.2205
G1 X138.398 Y240.222
G0 F1750 X139.017 Y240.134
G1 F600 X77.964 Y179.08 E187.74755
G1 X77.876 Y178.992
G0 F1750 X77.964 Y178.373
G1 F600 X139.725 Y240.134 E190.30388
G1 X139.813 Y240.222
G0 F1750 X140.432 Y240.134
G1 F600 X77.964 Y177.666 E192.88948
G1 X77.876 Y177.578
G0 F1750 X77.964 Y176.959
G1 F600 X141.139 Y240.134 E195.50434
G1 X141.227 Y240.222
G0 F1750 X141.846 Y240.134
G1 F600 X77.964 Y176.252 E198.14846
G1 X77.876 Y176.164
G0 F1750 X77.964 Y175.544
G1 F600 X142.553 Y240.134 E200.82187
G1 X142.641 Y240.222
G0 F1750 X143.26 Y240.134
G1 F600 X77.964 Y174.837 E203.52454
G1 X77.876 Y174.749
G0 F1750 X77.964 Y174.13
G1 F600 X143.967 Y240.134 E206.25647
G1 X144.055 Y240.222
G0 F1750 X144.674 Y240.134
G1 F600 X77.964 Y173.423 E209.01766
G1 X77.876 Y173.335
G0 F1750 X77.964 Y172.716
G1 F600 X145.381 Y240.134 E211.80812
G1 X145.469 Y240.222
G0 F1750 X146.088 Y240.134
G1 F600 X77.964 Y172.009 E214.62785
G1 X77.876 Y171.921
G0 F1750 X77.964 Y171.302
G1 F600 X146.796 Y240.134 E217.47685
G1 X146.884 Y240.222
G0 F1750 X147.503 Y240.134
G1 F600 X77.964 Y170.595 E220.35512
G1 X77.876 Y170.507
G0 F1750 X77.964 Y169.888
G1 F600 X148.21 Y240.134 E223.26265
G1 X148.298 Y240.222
G0 F1750 X148.917 Y240.134
G1 F600 X77.964 Y169.18 E226.19947
G1 X77.876 Y169.092
G0 F1750 X77.964 Y168.473
G1 F600 X149.624 Y240.134 E229.16555
G1 X149.712 Y240.222
G0 F1750 X150.331 Y240.134
G1 F600 X77.964 Y167.766 E232.16089
G1 X77.876 Y167.678
G0 F1750 X77.964 Y167.059
G1 F600 X151.038 Y240.134 E235.1855
G1 X151.126 Y240.222
G0 F1750 X151.745 Y240.134
G1 F600 X77.964 Y166.352 E238.23937
G1 X77.876 Y166.264
G0 F1750 X77.964 Y165.645
G1 F600 X152.452 Y240.134 E241.3225
G1 X152.54 Y240.222
G0 F1750 X153.16 Y240.134
G1 F600 X77.964 Y164.938 E244.43492
G1 X77.876 Y164.85
G0 F1750 X77.964 Y164.231
G1 F600 X153.867 Y240.134 E247.5766
G1 X153.955 Y240.222
G0 F1750 X154.574 Y240.134
G1 F600 X77.964 Y163.524 E250.74754
G1 X77.876 Y163.436
G0 F1750 X77.964 Y162.816
G1 F600 X155.281 Y240.134 E253.94777
G1 X155.369 Y240.222
G0 F1750 X155.988 Y240.134
G1 F600 X77.964 Y162.109 E257.17726
G1 X77.876 Y162.021
G0 F1750 X77.964 Y161.402
G1 F600 X156.695 Y240.134 E260.43601
G1 X156.783 Y240.222
G0 F1750 X157.402 Y240.134
G1 F600 X77.964 Y160.695 E263.72403
G1 X77.876 Y160.607
G0 F1750 X77.964 Y159.988
G1 F600 X158.109 Y240.134 E267.04131
G1 X158.197 Y240.222
G0 F1750 X158.816 Y240.134
G1 F600 X77.964 Y159.281 E270.38786
G1 X77.876 Y159.193
G0 F1750 X77.964 Y158.574
G1 F600 X159.523 Y240.134 E273.76366
G1 X159.611 Y240.222
G0 F1750 X160.231 Y240.134
G1 F600 X77.964 Y157.867 E277.16875
G1 X77.876 Y157.779
G0 F1750 X77.964 Y157.16
G1 F600 X160.938 Y240.134 E280.60311
G1 X161.026 Y240.222
G0 F1750 X161.645 Y240.134
G1 F600 X77.964 Y156.453 E284.06672
G1 X77.876 Y156.365
G0 F1750 X77.964 Y155.745
G1 F600 X162.352 Y240.134 E287.55963
G1 X162.44 Y240.222
G0 F1750 X163.059 Y240.134
G1 F600 X77.964 Y155.038 E291.08179
G1 X77.876 Y154.95
G0 F1750 X77.964 Y154.331
G1 F600 X163.766 Y240.134 E294.63322
G1 X163.854 Y240.222
G0 F1750 X164.473 Y240.134
G1 F600 X77.964 Y153.624 E298.21391
G1 X77.876 Y153.536
G0 F1750 X77.964 Y152.917
G1 F600 X165.18 Y240.134 E301.82386
G1 X165.268 Y240.222
G0 F1750 X165.887 Y240.134
G1 F600 X77.964 Y152.21 E305.46308
G1 X77.876 Y152.122
G0 F1750 X77.964 Y151.503
G1 F600 X166.595 Y240.134 E309.13158
G1 X166.683 Y240.222
G0 F1750 X167.302 Y240.134
G1 F600 X77.964 Y150.796 E312.82934
G1 X77.876 Y150.708
G0 F1750 X77.964 Y150.089
G1 F600 X168.009 Y240.134 E316.55637
G1 X168.097 Y240.222
G0 F1750 X168.716 Y240.134
G1 F600 X77.964 Y149.381 E320.31268
G1 X77.876 Y149.293
G0 F1750 X77.964 Y148.674
G1 F600 X169.423 Y240.134 E324.09826
G1 X169.511 Y240.222
G0 F1750 X170.13 Y240.134
G1 F600 X77.964 Y147.967 E327.9131
G1 X77.876 Y147.879
G0 F1750 X77.964 Y147.26
G1 F600 X170.837 Y240.134 E331.7572
G1 X170.925 Y240.222
G0 F1750 X171.544 Y240.134
G1 F600 X77.964 Y146.553 E335.63056
G1 X77.876 Y146.465
G0 F1750 X77.964 Y145.846
G1 F600 X172.251 Y240.134 E339.53319
G1 X172.339 Y240.222
G0 F1750 X172.959 Y240.134
G1 F600 X77.964 Y145.139 E343.4651
G1 X77.876 Y145.051
G0 F1750 X77.964 Y144.432
G1 F600 X173.666 Y240.134 E347.42628
G1 X173.754 Y240.222
G0 F1750 X174.373 Y240.134
G1 F600 X77.964 Y143.725 E351.41672
G1 X77.876 Y143.637
G0 F1750 X77.964 Y143.018
G1 F600 X175.08 Y240.134 E355.43642
G1 X175.168 Y240.222
G0 F1750 X175.787 Y240.134
G1 F600 X77.964 Y142.31 E359.4854
G1 X77.876 Y142.222
G0 F1750 X77.964 Y141.603
G1 F600 X176.494 Y240.134 E363.56365
G1 X176.582 Y240.222
G0 F1750 X177.201 Y240.134
G1 F600 X77.964 Y140.896 E367.67116
G1 X77.876 Y140.808
G0 F1750 X77.964 Y140.189
G1 F600 X177.908 Y240.134 E371.80794
G1 X177.996 Y240.222
