;Generated by Cura LulzBot Edition GCodeWriter Version: 3.2.27
;FLAVOR:Marlin
;TIME:3256
;Filament used: 2.13689m
;Layer height: 0.25
;Generated with Cura_SteamEngine 3.2.27
M82 ;absolute extrusion mode
;This G-Code has been generated specifically for the LulzBot TAZ 6 with standard extruder
M75 ; start GLCD timer
G26 ; clear potential 'probe fail' condition
G21 ; set units to Millimetres
M107 ; disable fans
M420 S0 ; disable previous leveling matrix
G90 ; absolute positioning
M82 ; set extruder to absolute mode
G92 E0 ; set extruder position to 0
M140 S105 ; start bed heating up
M109 R170 ; soften filament before homing Z
G28 ; Home all axis
G1 E-30 F100 ; retract filament
M109 R170 ; wait for extruder to reach wiping temp
G1 X-15 Y100 F3000 ; move above wiper pad
G1 Z1 ; push nozzle into wiper
G1 X-17 Y95 F1000 ; slow wipe
G1 X-17 Y90 F1000 ; slow wipe
G1 X-17 Y85 F1000 ; slow wipe
G1 X-15 Y90 F1000 ; slow wipe
G1 X-17 Y80 F1000 ; slow wipe
G1 X-15 Y95 F1000 ; slow wipe
G1 X-17 Y75 F2000 ; fast wipe
G1 X-15 Y65 F2000 ; fast wipe
G1 X-17 Y70 F2000 ; fast wipe
G1 X-15 Y60 F2000 ; fast wipe
G1 X-17 Y55 F2000 ; fast wipe
G1 X-15 Y50 F2000 ; fast wipe
G1 X-17 Y40 F2000 ; fast wipe
G1 X-15 Y45 F2000 ; fast wipe
G1 X-17 Y35 F2000 ; fast wipe
G1 X-15 Y40 F2000 ; fast wipe
G1 X-17 Y70 F2000 ; fast wipe
G1 X-15 Y30 Z2 F2000 ; fast wipe
G1 X-17 Y35 F2000 ; fast wipe
G1 X-15 Y25 F2000 ; fast wipe
G1 X-17 Y30 F2000 ; fast wipe
G1 X-15 Y25 Z1.5 F1000 ; slow wipe
G1 X-17 Y23 F1000 ; slow wipe
G1 Z10 ; raise extruder
M109 R170 ; wait for extruder to reach probe temp
G1 X-9 Y-9 ; move above first probe point
M204 S100 ; set probing acceleration
G29 ; start auto-leveling sequence
M420 S1 ; activate bed level matrix
M425 Z			     ; use measured Z backlash for compensation
M425 Z F0		     ; turn off measured Z backlash compensation. (if activated in the quality settings, this command will automatically be ignored)
M204 S500 ; restore standard acceleration
G1 X0 Y0 Z15 F5000 ; move up off last probe point
G4 S1 ; pause
M400 ; wait for moves to finish
M117 Heating... ; progress indicator message on LCD
M109 R245 ; wait for extruder to reach printing temp
M190 S105 ; wait for bed to reach printing temp
G1 Z2 E0 F75 ; prime tiny bit of filament into the nozzle
M117 TAZ 6 Printing... ; progress indicator message on LCD

M221 S100
;LAYER_COUNT:38
;LAYER:0
M107
G0 F1750 X113.896 Y99.613 Z0.4
;TYPE:SKIRT
G1 F600 X114.283 Y99.281 E0.01492
G1 X114.718 Y99.015 E0.02985
G1 X115.188 Y98.819 E0.04475
G1 X115.683 Y98.7 E0.05965
G1 X116.196 Y98.659 E0.07471
G1 X163.804 Y98.66 E1.46809
G1 X164.312 Y98.7 E1.483
G1 X164.807 Y98.819 E1.4979
G1 X165.278 Y99.014 E1.51282
G1 X165.713 Y99.28 E1.52774
G1 X166.1 Y99.61 E1.54263
G1 X166.432 Y99.997 E1.55755
G1 X166.698 Y100.432 E1.57248
G1 X166.894 Y100.902 E1.58738
G1 X167.013 Y101.397 E1.60228
G1 X167.054 Y101.91 E1.61734
G1 X167.054 Y178.091 E3.84698
G1 X167.014 Y178.599 E3.8619
G1 X166.895 Y179.094 E3.8768
G1 X166.7 Y179.565 E3.89172
G1 X166.434 Y180 E3.90664
G1 X166.104 Y180.387 E3.92153
G1 X165.717 Y180.719 E3.93645
G1 X165.282 Y180.985 E3.95137
G1 X164.812 Y181.181 E3.96628
G1 X164.317 Y181.3 E3.98118
G1 X163.804 Y181.341 E3.99624
G1 X116.196 Y181.341 E5.38961
G1 X115.688 Y181.301 E5.40453
G1 X115.193 Y181.182 E5.41943
G1 X114.722 Y180.987 E5.43435
G1 X114.287 Y180.721 E5.44927
G1 X113.9 Y180.391 E5.46416
G1 X113.568 Y180.004 E5.47908
G1 X113.302 Y179.569 E5.494
G1 X113.106 Y179.099 E5.50891
G1 X112.987 Y178.604 E5.52381
G1 X112.946 Y178.091 E5.53887
G1 X112.946 Y101.909 E7.76854
G1 X112.986 Y101.401 E7.78345
G1 X113.105 Y100.906 E7.79835
G1 X113.3 Y100.435 E7.81327
G1 X113.566 Y100 E7.82819
G1 X113.896 Y99.613 E7.84308
G1 F600 E6.84308
G0 F1750 X115.522 Y102.664
G0 X116.951 Y102.664
G0 X162.993 Y177.28
G0 X163.063 Y177.35
;TYPE:WALL-INNER
G1 F600 E7.84308
G1 X116.937 Y177.35 E9.19308
G1 X116.937 Y102.65 E11.37937
G1 X163.063 Y102.65 E12.72937
G1 X163.063 Y177.35 E14.91567
G0 F1750 X163.563 Y177.85
;TYPE:WALL-OUTER
G1 F600 X116.437 Y177.85 E16.29494
G1 X116.437 Y102.15 E18.5105
G1 X163.563 Y102.15 E19.88977
G1 X163.563 Y177.85 E22.10533
G0 F1750 X163.313 Y177.85
G0 X162.993 Y177.28
G0 X162.573 Y176.86
;TYPE:SKIN
G1 F600 X117.427 Y176.86 E23.42665
G1 X117.427 Y103.14 E25.58426
G1 X162.573 Y103.14 E26.90558
G1 X162.573 Y176.86 E29.06319
G0 F1750 X117.944 Y176.634
G1 F600 X117.651 Y176.341 E29.07532
G0 F1750 X117.651 Y175.634
G1 F600 X118.651 Y176.634 E29.11671
G1 X118.739 Y176.722
G0 F1750 X119.358 Y176.634
G1 F600 X117.651 Y174.926 E29.18738
G1 X117.563 Y174.838
G0 F1750 X117.651 Y174.219
G1 F600 X120.066 Y176.634 E29.28734
G1 X120.154 Y176.722
G0 F1750 X120.773 Y176.634
G1 F600 X117.651 Y173.512 E29.41656
G1 X117.563 Y173.424
G0 F1750 X117.651 Y172.805
G1 F600 X121.48 Y176.634 E29.57505
G1 X121.568 Y176.722
G0 F1750 X122.187 Y176.634
G1 F600 X117.651 Y172.098 E29.7628
G1 X117.563 Y172.01
G0 F1750 X117.651 Y171.391
G1 F600 X122.894 Y176.634 E29.97981
G1 X122.982 Y176.722
G0 F1750 X123.601 Y176.634
G1 F600 X117.651 Y170.684 E30.22608
G1 X117.563 Y170.596
G0 F1750 X117.651 Y169.977
G1 F600 X124.308 Y176.634 E30.50162
G1 X124.396 Y176.722
G0 F1750 X125.015 Y176.634
G1 F600 X117.651 Y169.27 E30.80642
G1 X117.563 Y169.182
G0 F1750 X117.651 Y168.562
G1 F600 X125.722 Y176.634 E31.14051
G1 X125.81 Y176.722
G0 F1750 X126.429 Y176.634
G1 F600 X117.651 Y167.855 E31.50385
G1 X117.563 Y167.767
G0 F1750 X117.651 Y167.148
G1 F600 X127.137 Y176.634 E31.89649
G1 X127.225 Y176.722
G0 F1750 X127.844 Y176.634
G1 F600 X117.651 Y166.441 E32.31838
G1 X117.563 Y166.353
G0 F1750 X117.651 Y165.734
G1 F600 X128.551 Y176.634 E32.76954
G1 X128.639 Y176.722
G0 F1750 X129.258 Y176.634
G1 F600 X117.651 Y165.027 E33.24996
G1 X117.563 Y164.939
G0 F1750 X117.651 Y164.32
G1 F600 X129.965 Y176.634 E33.75965
G1 X130.053 Y176.722
G0 F1750 X130.672 Y176.634
G1 F600 X117.651 Y163.613 E34.2986
G1 X117.563 Y163.525
G0 F1750 X117.651 Y162.906
G1 F600 X131.379 Y176.634 E34.86681
G1 X131.467 Y176.722
G0 F1750 X132.086 Y176.634
G1 F600 X117.651 Y162.198 E35.46431
G1 X117.563 Y162.11
G0 F1750 X117.651 Y161.491
G1 F600 X132.793 Y176.634 E36.09106
G1 X132.881 Y176.722
G0 F1750 X133.501 Y176.634
G1 F600 X117.651 Y160.784 E36.74711
G1 X117.563 Y160.696
G0 F1750 X117.651 Y160.077
G1 F600 X134.208 Y176.634 E37.43241
G1 X134.296 Y176.722
G0 F1750 X134.915 Y176.634
G1 F600 X117.651 Y159.37 E38.14698
G1 X117.563 Y159.282
G0 F1750 X117.651 Y158.663
G1 F600 X135.622 Y176.634 E38.89082
G1 X135.71 Y176.722
G0 F1750 X136.329 Y176.634
G1 F600 X117.651 Y157.956 E39.66391
G1 X117.563 Y157.868
G0 F1750 X117.651 Y157.249
G1 F600 X137.036 Y176.634 E40.46627
G1 X137.124 Y176.722
G0 F1750 X137.743 Y176.634
G1 F600 X117.651 Y156.542 E41.29789
G1 X117.563 Y156.454
G0 F1750 X117.651 Y155.835
G1 F600 X138.45 Y176.634 E42.15878
G1 X138.538 Y176.722
G0 F1750 X139.157 Y176.634
G1 F600 X117.651 Y155.127 E43.04895
G1 X117.563 Y155.039
G0 F1750 X117.651 Y154.42
G1 F600 X139.865 Y176.634 E43.9684
G1 X139.953 Y176.722
G0 F1750 X140.572 Y176.634
G1 F600 X117.651 Y153.713 E44.91712
G1 X117.563 Y153.625
G0 F1750 X117.651 Y153.006
G1 F600 X141.279 Y176.634 E45.8951
G1 X141.367 Y176.722
G0 F1750 X141.986 Y176.634
G1 F600 X117.651 Y152.299 E46.90234
G1 X117.563 Y152.211
G0 F1750 X117.651 Y151.592
G1 F600 X142.693 Y176.634 E47.93885
G1 X142.781 Y176.722
G0 F1750 X143.4 Y176.634
G1 F600 X117.651 Y150.885 E49.00462
G1 X117.563 Y150.797
G0 F1750 X117.651 Y150.178
G1 F600 X144.107 Y176.634 E50.09965
G1 X144.195 Y176.722
G0 F1750 X144.814 Y176.634
G1 F600 X117.651 Y149.471 E51.22395
G1 X117.563 Y149.383
G0 F1750 X117.651 Y148.763
G1 F600 X145.521 Y176.634 E52.37753
G1 X145.609 Y176.722
G0 F1750 X146.228 Y176.634
G1 F600 X117.651 Y148.056 E53.56037
G1 X117.563 Y147.968
G0 F1750 X117.651 Y147.349
G1 F600 X146.936 Y176.634 E54.7725
G1 X147.024 Y176.722
G0 F1750 X147.643 Y176.634
G1 F600 X117.651 Y146.642 E56.01389
G1 X117.563 Y146.554
G0 F1750 X117.651 Y145.935
G1 F600 X148.35 Y176.634 E57.28454
G1 X148.438 Y176.722
G0 F1750 X149.057 Y176.634
G1 F600 X117.651 Y145.228 E58.58446
G1 X117.563 Y145.14
G0 F1750 X117.651 Y144.521
G1 F600 X149.764 Y176.634 E59.91364
G1 X149.852 Y176.722
G0 F1750 X150.471 Y176.634
G1 F600 X117.651 Y143.814 E61.27208
G1 X117.563 Y143.726
G0 F1750 X117.651 Y143.107
G1 F600 X151.178 Y176.634 E62.65979
G1 X151.266 Y176.722
G0 F1750 X151.885 Y176.634
G1 F600 X117.651 Y142.399 E64.07678
G1 X117.563 Y142.311
G0 F1750 X117.651 Y141.692
G1 F600 X152.592 Y176.634 E65.52304
G1 X152.68 Y176.722
G0 F1750 X153.3 Y176.634
G1 F600 X117.651 Y140.985 E66.99857
G1 X117.563 Y140.897
G0 F1750 X117.651 Y140.278
G1 F600 X154.007 Y176.634 E68.50337
G1 X154.095 Y176.722
G0 F1750 X154.714 Y176.634
G1 F600 X117.651 Y139.571 E70.03744
G1 X117.563 Y139.483
G0 F1750 X117.651 Y138.864
G1 F600 X155.421 Y176.634 E71.60077
G1 X155.509 Y176.722
G0 F1750 X156.128 Y176.634
G1 F600 X117.651 Y138.157 E73.19336
G1 X117.563 Y138.069
G0 F1750 X117.651 Y137.45
G1 F600 X156.835 Y176.634 E74.81521
G1 X156.923 Y176.722
G0 F1750 X157.542 Y176.634
G1 F600 X117.651 Y136.743 E76.46633
G1 X117.563 Y136.655
G0 F1750 X117.651 Y136.036
G1 F600 X158.249 Y176.634 E78.14671
G1 X158.337 Y176.722
G0 F1750 X158.956 Y176.634
G1 F600 X117.651 Y135.328 E79.85637
G1 X117.563 Y135.24
G0 F1750 X117.651 Y134.621
G1 F600 X159.664 Y176.634 E81.59532
G1 X159.752 Y176.722
G0 F1750 X160.371 Y176.634
G1 F600 X117.651 Y133.914 E83.36353
G1 X117.563 Y133.826
G0 F1750 X117.651 Y133.207
G1 F600 X161.078 Y176.634 E85.16101
G1 X161.166 Y176.722
G0 F1750 X161.785 Y176.634
G1 F600 X117.651 Y132.5 E86.98775
G1 X117.563 Y132.412
G0 F1750 X117.651 Y131.793
G1 F600 X162.348 Y176.49 E88.83779
G1 X162.436 Y176.578
G0 F1750 X162.348 Y175.783
G1 F600 X117.651 Y131.086 E90.68783
G1 X117.563 Y130.998
G0 F1750 X117.651 Y130.379
G1 F600 X162.348 Y175.076 E92.53787
G1 X162.436 Y175.164
G0 F1750 X162.348 Y174.368
G1 F600 X117.651 Y129.672 E94.38789
G1 X117.563 Y129.584
G0 F1750 X117.651 Y128.964
G1 F600 X162.348 Y173.661 E96.23793
G1 X162.436 Y173.749
G0 F1750 X162.348 Y172.954
G1 F600 X117.651 Y128.257 E98.08797
G1 X117.563 Y128.169
G0 F1750 X117.651 Y127.55
G1 F600 X162.348 Y172.247 E99.93801
G1 X162.436 Y172.335
G0 F1750 X162.348 Y171.54
G1 F600 X117.651 Y126.843 E101.78806
G1 X117.563 Y126.755
G0 F1750 X117.651 Y126.136
G1 F600 X162.348 Y170.833 E103.6381
G1 X162.436 Y170.921
G0 F1750 X162.348 Y170.126
G1 F600 X117.651 Y125.429 E105.48814
G1 X117.563 Y125.341
G0 F1750 X117.651 Y124.722
G1 F600 X162.348 Y169.419 E107.33818
G1 X162.436 Y169.507
G0 F1750 X162.348 Y168.712
G1 F600 X117.651 Y124.015 E109.18822
G1 X117.563 Y123.927
G0 F1750 X117.651 Y123.308
G1 F600 X162.348 Y168.005 E111.03826
G1 X162.436 Y168.093
G0 F1750 X162.348 Y167.297
G1 F600 X117.651 Y122.601 E112.88828
G1 X117.563 Y122.513
G0 F1750 X117.651 Y121.893
G1 F600 X162.348 Y166.59 E114.73832
G1 X162.436 Y166.678
G0 F1750 X162.348 Y165.883
G1 F600 X117.651 Y121.186 E116.58836
G1 X117.563 Y121.098
G0 F1750 X117.651 Y120.479
G1 F600 X162.348 Y165.176 E118.43841
G1 X162.436 Y165.264
G0 F1750 X162.348 Y164.469
G1 F600 X117.651 Y119.772 E120.28845
G1 X117.563 Y119.684
G0 F1750 X117.651 Y119.065
G1 F600 X162.348 Y163.762 E122.13849
G1 X162.436 Y163.85
G0 F1750 X162.348 Y163.055
G1 F600 X117.651 Y118.358 E123.98853
G1 X117.563 Y118.27
G0 F1750 X117.651 Y117.651
G1 F600 X162.348 Y162.348 E125.83857
G1 X162.436 Y162.436
G0 F1750 X162.348 Y161.641
G1 F600 X117.651 Y116.944 E127.68861
G1 X117.563 Y116.856
G0 F1750 X117.651 Y116.237
G1 F600 X162.348 Y160.933 E129.53863
G1 X162.436 Y161.021
G0 F1750 X162.348 Y160.226
G1 F600 X117.651 Y115.529 E131.38867
G1 X117.563 Y115.441
G0 F1750 X117.651 Y114.822
G1 F600 X162.348 Y159.519 E133.23871
G1 X162.436 Y159.607
G0 F1750 X162.348 Y158.812
G1 F600 X117.651 Y114.115 E135.08876
G1 X117.563 Y114.027
G0 F1750 X117.651 Y113.408
G1 F600 X162.348 Y158.105 E136.9388
G1 X162.436 Y158.193
G0 F1750 X162.348 Y157.398
G1 F600 X117.651 Y112.701 E138.78884
G1 X117.563 Y112.613
G0 F1750 X117.651 Y111.994
G1 F600 X162.348 Y156.691 E140.63888
G1 X162.436 Y156.779
G0 F1750 X162.348 Y155.984
G1 F600 X117.651 Y111.287 E142.48892
G1 X117.563 Y111.199
G0 F1750 X117.651 Y110.58
G1 F600 X162.348 Y155.277 E144.33896
G1 X162.436 Y155.365
G0 F1750 X162.348 Y154.57
G1 F600 X117.651 Y109.873 E146.189
G1 X117.563 Y109.785
G0 F1750 X117.651 Y109.165
G1 F600 X162.348 Y153.862 E148.03904
G1 X162.436 Y153.95
G0 F1750 X162.348 Y153.155
G1 F600 X117.651 Y108.458 E149.88908
G1 X117.563 Y108.37
G0 F1750 X117.651 Y107.751
G1 F600 X162.348 Y152.448 E151.73913
G1 X162.436 Y152.536
G0 F1750 X162.348 Y151.741
G1 F600 X117.651 Y107.044 E153.58917
G1 X117.563 Y106.956
G0 F1750 X117.651 Y106.337
G1 F600 X162.348 Y151.034 E155.43921
G1 X162.436 Y151.122
G0 F1750 X162.348 Y150.327
G1 F600 X117.651 Y105.63 E157.28925
G1 X117.563 Y105.542
G0 F1750 X117.651 Y104.923
G1 F600 X162.348 Y149.62 E159.13929
G1 X162.436 Y149.708
G0 F1750 X162.348 Y148.913
G1 F600 X117.651 Y104.216 E160.98933
G1 X117.563 Y104.128
G0 F1750 X117.651 Y103.509
G1 F600 X162.348 Y148.206 E162.83937
G1 X162.436 Y148.294
G0 F1750 X162.348 Y147.498
G1 F600 X118.214 Y103.364 E164.66611
G1 X118.126 Y103.276
G0 F1750 X118.921 Y103.364
G1 F600 X162.348 Y146.791 E166.46359
G1 X162.436 Y146.879
G0 F1750 X162.348 Y146.084
G1 F600 X119.628 Y103.364 E168.2318
G1 X119.54 Y103.276
G0 F1750 X120.335 Y103.364
G1 F600 X162.348 Y145.377 E169.97075
G1 X162.436 Y145.465
G0 F1750 X162.348 Y144.67
G1 F600 X121.042 Y103.364 E171.68043
G1 X120.954 Y103.276
G0 F1750 X121.749 Y103.364
G1 F600 X162.348 Y143.963 E173.36085
G1 X162.436 Y144.051
G0 F1750 X162.348 Y143.256
G1 F600 X122.456 Y103.364 E175.01201
G1 X122.368 Y103.276
G0 F1750 X123.163 Y103.364
G1 F600 X162.348 Y142.549 E176.63391
G1 X162.436 Y142.637
G0 F1750 X162.348 Y141.842
G1 F600 X123.87 Y103.364 E178.22654
G1 X123.782 Y103.276
G0 F1750 X124.578 Y103.364
G1 F600 X162.348 Y141.134 E179.78987
G1 X162.436 Y141.222
G0 F1750 X162.348 Y140.427
G1 F600 X125.285 Y103.364 E181.32393
G1 X125.197 Y103.276
G0 F1750 X125.992 Y103.364
G1 F600 X162.348 Y139.72 E182.82873
G1 X162.436 Y139.808
G0 F1750 X162.348 Y139.013
G1 F600 X126.699 Y103.364 E184.30427
G1 X126.611 Y103.276
G0 F1750 X127.406 Y103.364
G1 F600 X162.348 Y138.306 E185.75055
G1 X162.436 Y138.394
G0 F1750 X162.348 Y137.599
G1 F600 X128.113 Y103.364 E187.16756
G1 X128.025 Y103.276
G0 F1750 X128.82 Y103.364
G1 F600 X162.348 Y136.892 E188.55531
G1 X162.436 Y136.98
G0 F1750 X162.348 Y136.185
G1 F600 X129.527 Y103.364 E189.91379
G1 X129.439 Y103.276
G0 F1750 X130.234 Y103.364
G1 F600 X162.348 Y135.478 E191.24301
G1 X162.436 Y135.566
G0 F1750 X162.348 Y134.771
G1 F600 X130.942 Y103.364 E192.54295
G1 X130.854 Y103.276
G0 F1750 X131.649 Y103.364
G1 F600 X162.348 Y134.063 E193.8136
G1 X162.436 Y134.151
G0 F1750 X162.348 Y133.356
G1 F600 X132.356 Y103.364 E195.05499
G1 X132.268 Y103.276
G0 F1750 X133.063 Y103.364
G1 F600 X162.348 Y132.649 E196.26712
G1 X162.436 Y132.737
G0 F1750 X162.348 Y131.942
G1 F600 X133.77 Y103.364 E197.44999
G1 X133.682 Y103.276
G0 F1750 X134.477 Y103.364
G1 F600 X162.348 Y131.235 E198.60359
G1 X162.436 Y131.323
G0 F1750 X162.348 Y130.528
G1 F600 X135.184 Y103.364 E199.72792
G1 X135.096 Y103.276
G0 F1750 X135.891 Y103.364
G1 F600 X162.348 Y129.821 E200.823
G1 X162.436 Y129.909
G0 F1750 X162.348 Y129.114
G1 F600 X136.598 Y103.364 E201.88881
G1 X136.51 Y103.276
G0 F1750 X137.305 Y103.364
G1 F600 X162.348 Y128.407 E202.92536
G1 X162.436 Y128.495
G0 F1750 X162.348 Y127.699
G1 F600 X138.013 Y103.364 E203.9326
G1 X137.925 Y103.276
G0 F1750 X138.72 Y103.364
G1 F600 X162.348 Y126.992 E204.91058
G1 X162.436 Y127.08
G0 F1750 X162.348 Y126.285
G1 F600 X139.427 Y103.364 E205.8593
G1 X139.339 Y103.276
G0 F1750 X140.134 Y103.364
G1 F600 X162.348 Y125.578 E206.77875
G1 X162.436 Y125.666
G0 F1750 X162.348 Y124.871
G1 F600 X140.841 Y103.364 E207.66894
G1 X140.753 Y103.276
G0 F1750 X141.548 Y103.364
G1 F600 X162.348 Y124.164 E208.52987
G1 X162.436 Y124.252
G0 F1750 X162.348 Y123.457
G1 F600 X142.255 Y103.364 E209.36153
G1 X142.167 Y103.276
